;FLAVOR:Marlin
;TIME:5574
;Filament used:5.72168m
;Layer height: 0.2
;MINX:85.654
;MINY:117.085
;MINZ:0.24
;MAXX:214.346
;MAXY:182.914
;MAXZ:3.06
                            
;Creality Print GCode Generated by CXEngineDEV
;Generated Time:2022-06-30 15:03:19
;----------Machine Config--------------
;Machine Name:Creality CR-10S
;Machine Height:400
;Machine Width:300
;Machine Depth:300
;Material name:Castable
;Number of Extruders:1
;ExtruderParams[0] Nozzle Diameter1000
;----------Profile Config---------------
;Layer Height:0.2
;Wall Thickness:0.8
;Top/Bottom Thickness:1
;Out Wall Line Width:0.4
;Inner Wall Line Width:0.4
;Inital Layer Height:200
;Wall Line Count:2
;Infill Line Distance:4
;Infill Pattern:grid
;Infill Sparse Density:20
;Infill Wipe Distance:0
;Print Temperature:210
;Bed Temperature:60
;Support Enable:true
;Support Density:30
;Support Angle:1.0472
;Adhesion Type:simpleraft
;machine is belt:false
;machine belt offset:10
;machine belt offset Y:0
;Raft Base Line Spacing:1.6
;Wait Heatup Sync:true
;----------Shell Config----------------
;Outer Wall Wipe Distance:200
;Infill Before Walls:false
;Infill Overlap:0.16
;Fill Gaps Between Walls:everywhere
;Minimum Infill Area:1
;Top Surface Skin Layer:0
;Top Layers:3
;Z Seam Alignment:sharpest_corner
;Seam Corner Preference:z_seam_corner_inner
;Z Seam X:150
;Z Seam Y:150
;Horizontal Expansion:0
;Top/Bottom Pattern:zigzag
;Ironing Pattern:zigzag
;Vase Model:false
;----------Support Config----------------
;Support Type:everywhere
;Support Pattern:zigzag
;Support Infill Layer Thickness:0.2
;Minimum Support Area:10
;Enable Support Roof:false
;Support Roof Thickness:0.8
;Support Roof Pattern:lines
;Connect Support Lines:0
;Connect Support ZigZags:1
;Minimum Support X/Y Distance:0.2
;Support Line Distance:1.33
; ---------PrintSpeed & Travel----------
;Enable Print Cool:true
;Avoid Printed Parts Traveling:true
;Enable Retraction:true
;Retraction Distance:8
;Retraction Speed:100
;Retraction Prime Speed:100
;Maximum Retraction Count:100
;Minimum Extrusion Distance Window:1
;Z Hop When Retracted:false
;Z Hop Height:0.2
;Retract Before Outer Wall:true
;Print Speed:45
;Infill Speed:45

;Prime Tower Speed:45
;Travel Speed:120
;Initial Layer Speed:22.5
;Skirt/Brim Speed:22.5
;Combing Mode:off
; --------SpecialModel&Mesh Fixes--------
;Union Overlapping Volum:true
;Remove All Holes:false
;Maximum Travel Resolution:0.67
;Maximum Deviation:0.05
;Maximum Model Angle:0.872665
;IS Mold Print:false
;Make Overhang Printable:false
;Enable Coasting:false
;Coasting Volumes:0.06
;Coasting Speed:0.9
;Raft AirGap:0.25
;Layer0 ZOverLap:0.13
;---------------------End of Head--------------------------
M140 S60
M105
M104 S210
M105
M109 S210
M105
M190 S60
M82 ;absolute extrusion mode
M220 S100 ;Reset Feedrate
M221 S100 ;Reset Flowrate

G28 ;Home

G92 E0 ;Reset Extruder
G1 Z2.0 F3000 ;Move Z Axis up
G1 X10.1 Y20 Z0.28 F5000.0 ;Move to start position
G1 X10.1 Y145.0 Z0.28 F1500.0 E15 ;Draw the first line
G1 X10.4 Y145.0 Z0.28 F5000.0 ;Move to side a little
G1 X10.4 Y20 Z0.28 F1500.0 E30 ;Draw the second line
G92 E0  ;Reset Extruder
G1 E-1.0000 F1800 ;Retract a bit
G1 Z2.0 F3000 ;Move Z Axis up
G1 E0.0000 F1800 

G92 E0
G92 E0
G1 F6000 E-8

;LAYER_COUNT:10

;LAYER:-4
M107
G0 F7200 X86.4 Y125.399 Z0.24
;TYPE:SUPPORT-INTERFACE
G1 F6000 E0
G1 F1200 X86.4 Y174.597 E4.31992
G1 X86.39 Y174.549 E4.32422
G1 X86.356 Y174.337 E4.34308
G1 X86.285 Y173.717 E4.39787
G1 X86.272 Y173.54 E4.41345
G1 X86.253 Y172.967 E4.4638
G1 X86.256 Y126.972 E8.50247
G1 X86.287 Y126.27 E8.56417
G1 X86.302 Y126.091 E8.57994
G1 X86.387 Y125.472 E8.6348
G1 X86.425 Y125.26 E8.65371
G1 X86.558 Y124.674 E8.70648
G1 X86.608 Y124.49 E8.72322
G1 X86.814 Y123.854 E8.78192
G1 X86.866 Y123.711 E8.79528
G1 X87.121 Y123.112 E8.85245
G1 X87.196 Y122.958 E8.86749
G1 X87.498 Y122.392 E8.92382
G1 X87.607 Y122.209 E8.94252
G1 X87.93 Y121.718 E8.99413
G1 X88 Y121.62 E9.0047
G1 X88 Y178.378 E13.98844
G1 X88.321 Y178.8 E14.03499
G1 X88.469 Y178.977 E14.05525
G1 X88.952 Y179.506 E14.11815
G1 X89.467 Y179.993 E14.18039
G1 X89.6 Y180.108 E14.19583
G1 X89.6 Y119.893 E19.48311
G1 X89.767 Y119.754 E19.50219
G1 X90.238 Y119.395 E19.55419
G1 X90.421 Y119.268 E19.57375
G1 X90.938 Y118.942 E19.62742
G1 X91.105 Y118.847 E19.64429
G1 X91.2 Y118.798 E19.65367
G1 X91.2 Y181.197 E25.13273
G1 X91.521 Y181.369 E25.1647
G1 X91.673 Y181.443 E25.17955
G1 X92.266 Y181.696 E25.23616
G1 X92.437 Y181.759 E25.25216
G1 X92.8 Y181.876 E25.28565
G1 X92.8 Y118.122 E30.88368
G1 X93.204 Y118.001 E30.92071
G1 X93.406 Y117.949 E30.93903
G1 X94.013 Y117.824 E30.99344
G1 X94.23 Y117.789 E31.01274
G1 X94.4 Y117.769 E31.02777
G1 X94.4 Y182.229 E36.6878
G1 X94.652 Y182.264 E36.71014
G1 X94.831 Y182.279 E36.72591
G1 X95.663 Y182.314 E36.79903
G1 X96 Y182.314 E36.82862
G1 X96 Y117.686 E42.5034
G1 X97.6 Y117.686 E42.64389
G1 X97.6 Y182.314 E48.31866
G1 X99.2 Y182.314 E48.45915
G1 X99.2 Y117.686 E54.13393
G1 X100.8 Y117.686 E54.27442
G1 X100.8 Y182.314 E59.94919
G1 X102.4 Y182.314 E60.08968
G1 X102.4 Y117.686 E65.76446
G1 X104 Y117.686 E65.90495
G1 X104 Y182.314 E71.57973
G1 X105.6 Y182.314 E71.72022
G1 X105.6 Y117.686 E77.39499
G1 X107.2 Y117.686 E77.53548
G1 X107.2 Y182.314 E83.21026
G1 X108.8 Y182.314 E83.35075
G1 X108.8 Y117.686 E89.02552
G1 X110.4 Y117.686 E89.16601
G1 X110.4 Y182.314 E94.84079
G1 X112 Y182.314 E94.98128
G1 X112 Y117.686 E100.65606
G1 X113.6 Y117.686 E100.79655
G1 X113.6 Y182.314 E106.47132
G1 X115.2 Y182.314 E106.61181
G1 X115.2 Y117.686 E112.28659
G1 X116.8 Y117.686 E112.42708
G1 X116.8 Y182.314 E118.10185
G1 X118.4 Y182.314 E118.24234
G1 X118.4 Y117.686 E123.91712
G1 X120 Y117.686 E124.05761
G1 X120 Y182.314 E129.73239
G1 X121.6 Y182.314 E129.87288
G1 X121.6 Y117.686 E135.54765
G1 X123.2 Y117.686 E135.68814
G1 X123.2 Y182.314 E141.36292
G1 X124.8 Y182.314 E141.50341
G1 X124.8 Y117.686 E147.17818
G1 X126.4 Y117.686 E147.31867
G1 X126.4 Y182.314 E152.99345
G1 X128 Y182.314 E153.13394
G1 X128 Y117.686 E158.80872
G1 X129.6 Y117.686 E158.94921
G1 X129.6 Y182.314 E164.62398
G1 X131.2 Y182.314 E164.76447
G1 X131.2 Y117.686 E170.43925
G1 X132.8 Y117.686 E170.57974
G1 X132.8 Y182.314 E176.25451
G1 X134.4 Y182.314 E176.395
G1 X134.4 Y117.686 E182.06978
G1 X136 Y117.686 E182.21027
G1 X136 Y182.314 E187.88505
G1 X137.6 Y182.314 E188.02554
G1 X137.6 Y117.686 E193.70031
G1 X139.2 Y117.686 E193.8408
G1 X139.2 Y182.314 E199.51558
G1 X140.8 Y182.314 E199.65607
G1 X140.8 Y117.686 E205.33084
G1 X142.4 Y117.686 E205.47133
G1 X142.4 Y182.314 E211.14611
G1 X144 Y182.314 E211.2866
G1 X144 Y117.686 E216.96138
G1 X145.6 Y117.686 E217.10187
G1 X145.6 Y182.314 E222.77664
G1 X147.2 Y182.314 E222.91713
G1 X147.2 Y117.686 E228.59191
G1 X148.8 Y117.686 E228.7324
G1 X148.8 Y182.314 E234.40717
G1 X150.4 Y182.314 E234.54766
G1 X150.4 Y117.686 E240.22244
G1 X152 Y117.686 E240.36293
G1 X152 Y182.314 E246.03771
G1 X153.6 Y182.314 E246.1782
G1 X153.6 Y117.686 E251.85297
G1 X155.2 Y117.686 E251.99346
G1 X155.2 Y182.314 E257.66824
G1 X156.8 Y182.314 E257.80873
G1 X156.8 Y117.686 E263.4835
G1 X158.4 Y117.686 E263.62399
G1 X158.4 Y182.314 E269.29877
G1 X160 Y182.314 E269.43926
G1 X160 Y117.686 E275.11404
G1 X161.6 Y117.686 E275.25453
G1 X161.6 Y182.314 E280.9293
G1 X163.2 Y182.314 E281.06979
G1 X163.2 Y117.686 E286.74457
G1 X164.8 Y117.686 E286.88506
G1 X164.8 Y182.314 E292.55983
G1 X166.4 Y182.314 E292.70032
G1 X166.4 Y117.686 E298.3751
G1 X168 Y117.686 E298.51559
G1 X168 Y182.314 E304.19037
G1 X169.6 Y182.314 E304.33086
G1 X169.6 Y117.686 E310.00563
G1 X171.2 Y117.686 E310.14612
G1 X171.2 Y182.314 E315.8209
G1 X172.8 Y182.314 E315.96139
G1 X172.8 Y117.686 E321.63616
G1 X174.4 Y117.686 E321.77665
G1 X174.4 Y182.314 E327.45143
G1 X176 Y182.314 E327.59192
G1 X176 Y117.686 E333.2667
G1 X177.6 Y117.686 E333.40719
G1 X177.6 Y182.314 E339.08196
G1 X179.2 Y182.314 E339.22245
G1 X179.2 Y117.686 E344.89723
G1 X180.8 Y117.686 E345.03772
G1 X180.8 Y182.314 E350.71249
G1 X182.4 Y182.314 E350.85298
G1 X182.4 Y117.686 E356.52776
G1 X184 Y117.686 E356.66825
G1 X184 Y182.314 E362.34303
G1 X185.6 Y182.314 E362.48352
G1 X185.6 Y117.686 E368.15829
G1 X187.2 Y117.686 E368.29878
G1 X187.2 Y182.314 E373.97356
G1 X188.8 Y182.314 E374.11405
G1 X188.8 Y117.686 E379.78882
G1 X190.4 Y117.686 E379.92931
G1 X190.4 Y182.314 E385.60409
G1 X192 Y182.314 E385.74458
G1 X192 Y117.686 E391.41936
G1 X193.6 Y117.686 E391.55985
G1 X193.6 Y182.314 E397.23462
G1 X195.2 Y182.314 E397.37511
G1 X195.2 Y117.686 E403.04989
G1 X196.8 Y117.686 E403.19038
G1 X196.8 Y182.314 E408.86515
G1 X198.4 Y182.314 E409.00564
G1 X198.4 Y117.686 E414.68042
G1 X200 Y117.686 E414.82091
G1 X200 Y182.314 E420.49569
G1 X201.6 Y182.314 E420.63618
G1 X201.6 Y117.686 E426.31095
G1 X203.2 Y117.686 E426.45144
G1 X203.2 Y182.314 E432.12622
G1 X204.379 Y182.314 E432.22974
G1 X204.8 Y182.3 E432.26673
G1 X204.8 Y117.706 E437.93852
G1 X205.169 Y117.721 E437.97095
G1 X205.348 Y117.736 E437.98672
G1 X205.961 Y117.82 E438.04105
G1 X206.173 Y117.858 E438.05996
G1 X206.4 Y117.91 E438.08041
G1 X206.4 Y182.091 E443.71593
G1 X206.594 Y182.051 E443.73333
G1 X206.796 Y181.999 E443.75164
G1 X207.374 Y181.825 E443.80464
G1 X207.587 Y181.75 E443.82447
G1 X208 Y181.584 E443.86356
G1 X208 Y118.418 E449.40996
G1 X208.316 Y118.552 E449.4401
G1 X208.475 Y118.629 E449.45561
G1 X209.055 Y118.939 E449.51335
G1 X209.224 Y119.04 E449.53064
G1 X209.6 Y119.288 E449.57019
G1 X209.6 Y180.718 E454.96416
G1 X209.755 Y180.61 E454.98075
G1 X210.251 Y180.231 E455.03556
G1 X210.404 Y180.104 E455.05302
G1 X210.934 Y179.62 E455.11604
G1 X211.438 Y179.087 E455.18045
G1 X211.557 Y178.949 E455.19645
G1 X211.922 Y178.489 E455.24802
G0 F7200 X211.921 Y178.489
G1 F1200 X212.07 Y178.282 E455.27041
G1 X212.393 Y177.791 E455.32202
G1 X212.498 Y177.615 E455.34001
G1 X212.8 Y177.05 E455.39626
G1 X212.8 Y122.958 E460.14591
G1 X212.589 Y122.543 E460.18679
G1 X212.494 Y122.375 E460.20373
G1 X212.165 Y121.854 E460.25784
G1 X212.034 Y121.665 E460.27803
G1 X211.679 Y121.2 E460.3294
G1 X211.531 Y121.023 E460.34966
G1 X211.2 Y120.661 E460.39273
G1 X211.2 Y179.339 E465.54505
;;retract;;
G1 F6000 E457.54505
G0 F600 X211.2 Y179.339 Z0.54
G0 F7200 X213.02 Y122.51
;TIME_ELAPSED:273.242219

;LAYER:-3
;TYPE:SUPPORT
G1 F6000 E465.54505
G1 F1800 X208.927 Y118.417 E466.12262
G1 X209.253 Y118.591 E466.15949
G1 X209.429 Y118.696 E466.17994
G1 X209.949 Y119.038 E466.24204
G1 X210.156 Y119.187 E466.26749
G1 X210.655 Y119.583 E466.33106
G1 X210.795 Y119.704 E466.34952
G1 X211.335 Y120.215 E466.4237
G1 X211.838 Y120.766 E466.49814
G1 X211.986 Y120.943 E466.52117
G1 X212.363 Y121.437 E466.58317
G1 X212.494 Y121.626 E466.60612
G1 X212.832 Y122.161 E466.66926
G1 X212.937 Y122.346 E466.69049
G1 X213.236 Y122.932 E466.75613
G1 X213.319 Y123.113 E466.776
G1 X213.561 Y123.714 E466.84064
G1 X213.638 Y123.935 E466.864
G1 X213.815 Y124.521 E466.92508
G1 X213.877 Y124.764 E466.9501
G1 X213.881 Y124.785 E466.95223
G1 X206.653 Y117.557 E467.97218
G1 X206.244 Y117.464 E468.01403
G1 X206.032 Y117.426 E468.03552
G1 X205.382 Y117.337 E468.10099
G1 X205.196 Y117.321 E468.11961
G1 X204.993 Y117.312 E468.13989
G1 X214.126 Y126.445 E469.42865
G1 X214.147 Y127.033 E469.48736
G1 X214.145 Y127.878 E469.57168
G1 X203.552 Y117.285 E471.06646
G1 X202.138 Y117.285 E471.20755
G1 X214.145 Y129.293 E472.90194
G1 X214.145 Y130.707 E473.04303
G1 X200.724 Y117.285 E474.93695
G1 X199.31 Y117.285 E475.07804
G1 X214.145 Y132.121 E477.17149
G1 X214.145 Y133.535 E477.31258
G1 X197.895 Y117.285 E479.60563
G1 X196.481 Y117.285 E479.74672
G1 X214.145 Y134.949 E482.2393
G1 X214.145 Y136.364 E482.38049
G1 X195.067 Y117.285 E485.07267
G1 X193.653 Y117.285 E485.21376
G1 X214.145 Y137.778 E488.10547
G1 X214.145 Y139.191 E488.24646
G1 X192.238 Y117.285 E491.33771
G1 X190.824 Y117.285 E491.4788
G1 X214.145 Y140.606 E494.76964
G1 X214.145 Y142.02 E494.91073
G1 X189.41 Y117.285 E498.40111
G1 X187.996 Y117.285 E498.5422
G1 X214.145 Y143.434 E502.2321
G1 X214.145 Y144.848 E502.37319
G1 X186.582 Y117.285 E506.26263
G1 X185.167 Y117.285 E506.40382
G1 X214.145 Y146.262 E510.49286
G1 X214.145 Y147.677 E510.63405
G1 X183.753 Y117.285 E514.92269
G1 X182.339 Y117.285 E515.06378
G1 X214.145 Y149.091 E519.55195
G1 X214.144 Y150.504 E519.69293
G1 X180.925 Y117.285 E524.38049
G1 X179.511 Y117.285 E524.52158
G1 X214.144 Y151.919 E529.40875
G1 X214.144 Y153.333 E529.54983
G1 X178.096 Y117.285 E534.6366
G1 X176.682 Y117.285 E534.77769
G1 X214.144 Y154.747 E540.06398
G1 X214.144 Y156.161 E540.20507
G1 X175.268 Y117.285 E545.69089
G1 X173.854 Y117.285 E545.83198
G1 X214.144 Y157.575 E551.51734
G1 X214.144 Y158.99 E551.65853
G1 X172.44 Y117.285 E557.54348
G1 X171.025 Y117.285 E557.68467
G1 X214.144 Y160.404 E563.76923
G1 X214.143 Y161.817 E563.91022
G1 X169.611 Y117.285 E570.19416
G1 X168.197 Y117.285 E570.33525
G1 X214.143 Y163.232 E576.8188
G1 X214.143 Y164.646 E576.95989
G1 X166.783 Y117.285 E583.64297
G1 X165.368 Y117.285 E583.78416
G1 X214.143 Y166.06 E590.66684
G1 X214.143 Y167.474 E590.80793
G1 X163.954 Y117.285 E597.89014
G1 X162.54 Y117.285 E598.03122
G1 X214.143 Y168.888 E605.31297
G1 X214.143 Y170.303 E605.45415
G1 X161.126 Y117.285 E612.9355
G1 X159.712 Y117.285 E613.07659
G1 X214.143 Y171.717 E620.75746
G1 X214.144 Y173.046 E620.89007
G1 X214.14 Y173.128 E620.89826
G1 X158.297 Y117.285 E628.77831
G1 X156.883 Y117.285 E628.9194
G1 X214.029 Y174.431 E636.98332
G1 X214.007 Y174.599 E637.00022
G1 X213.969 Y174.809 E637.02152
G1 X213.828 Y175.431 E637.08516
G1 X213.782 Y175.598 E637.10244
G1 X155.469 Y117.285 E645.33103
G1 X154.055 Y117.285 E645.47212
G1 X213.416 Y176.646 E653.8486
G1 X213.247 Y177.045 E653.89184
G1 X213.157 Y177.231 E653.91246
G1 X212.957 Y177.602 E653.95451
G1 X152.641 Y117.285 E662.46582
G1 X151.226 Y117.285 E662.60701
G1 X212.419 Y178.477 E671.24193
G1 X212.395 Y178.516 E671.2465
G1 X212.246 Y178.723 E671.27195
G1 X211.86 Y179.21 E671.33396
G1 X211.803 Y179.276 E671.34266
G1 X149.812 Y117.285 E680.09026
G1 X148.398 Y117.285 E680.23135
G1 X211.11 Y179.998 E689.08076
G1 X210.667 Y180.405 E689.14078
G1 X210.494 Y180.549 E689.16324
G1 X210.353 Y180.655 E689.18084
G1 X146.984 Y117.285 E698.12297
G1 X145.569 Y117.285 E698.26415
G1 X209.523 Y181.239 E707.28875
G1 X209.26 Y181.406 E707.31984
G1 X209.093 Y181.501 E707.33901
G1 X208.614 Y181.744 E707.3926
G1 X144.155 Y117.285 E716.48847
G1 X142.741 Y117.285 E716.62956
G1 X207.618 Y182.162 E725.7844
G1 X207.502 Y182.204 E725.79671
G1 X206.912 Y182.382 E725.8582
G1 X206.675 Y182.443 E725.88262
G1 X206.516 Y182.474 E725.89878
G1 X141.327 Y117.285 E735.09766
G1 X139.913 Y117.285 E735.23875
G1 X205.294 Y182.666 E744.46471
G1 X205.189 Y182.68 E744.47528
G1 X205.013 Y182.693 E744.49289
G1 X204.393 Y182.714 E744.55479
G1 X203.926 Y182.713 E744.60139
G1 X138.498 Y117.285 E753.83398
G1 X137.084 Y117.285 E753.97507
G1 X202.512 Y182.713 E763.20767
G1 X201.098 Y182.713 E763.34876
G1 X135.67 Y117.285 E772.58136
G1 X134.256 Y117.285 E772.72245
G1 X199.684 Y182.713 E781.95505
G1 X198.269 Y182.713 E782.09624
G1 X132.842 Y117.285 E791.32876
G1 X131.427 Y117.285 E791.46995
G1 X196.855 Y182.713 E800.70255
G1 X195.441 Y182.713 E800.84364
G1 X130.013 Y117.285 E810.07624
G1 X128.599 Y117.285 E810.21733
G1 X194.027 Y182.713 E819.44992
G1 X192.613 Y182.713 E819.59101
G1 X127.185 Y117.285 E828.82361
G1 X125.77 Y117.285 E828.9648
G1 X191.198 Y182.713 E838.1974
G1 X189.784 Y182.713 E838.33849
G1 X124.356 Y117.285 E847.57108
G1 X122.942 Y117.285 E847.71217
G1 X188.37 Y182.713 E856.94477
G1 X186.956 Y182.713 E857.08586
G1 X121.528 Y117.285 E866.31846
G1 X120.114 Y117.285 E866.45955
G1 X185.541 Y182.713 E875.69207
G1 X184.127 Y182.713 E875.83316
G1 X118.699 Y117.285 E885.06576
G1 X117.285 Y117.285 E885.20685
G1 X182.713 Y182.713 E894.43945
G1 X181.299 Y182.713 E894.58054
G1 X115.871 Y117.285 E903.81314
G1 X114.457 Y117.285 E903.95423
G1 X179.885 Y182.713 E913.18682
G1 X178.47 Y182.713 E913.32801
G1 X113.043 Y117.285 E922.56054
G1 X111.628 Y117.285 E922.70173
G1 X177.056 Y182.713 E931.93433
G1 X175.642 Y182.713 E932.07542
G1 X110.214 Y117.285 E941.30801
