;FLAVOR:Marlin
;TIME:5695
;Filament used:5.84046m
;Layer height: 0.2
;MINX:86.543
;MINY:116.069
;MINZ:0.24
;MAXX:213.457
;MAXY:183.93
;MAXZ:3.06
                             
;Creality Print GCode Generated by CXEngineDEV
;Generated Time:2022-06-30 15:03:19
;----------Machine Config--------------
;Machine Name:Creality CR-10S
;Machine Height:400
;Machine Width:300
;Machine Depth:300
;Material name:Castable
;Number of Extruders:1
;ExtruderParams[0] Nozzle Diameter1000
;----------Profile Config---------------
;Layer Height:0.2
;Wall Thickness:0.8
;Top/Bottom Thickness:1
;Out Wall Line Width:0.4
;Inner Wall Line Width:0.4
;Inital Layer Height:200
;Wall Line Count:2
;Infill Line Distance:4
;Infill Pattern:grid
;Infill Sparse Density:20
;Infill Wipe Distance:0
;Print Temperature:210
;Bed Temperature:60
;Support Enable:true
;Support Density:30
;Support Angle:1.0472
;Adhesion Type:simpleraft
;machine is belt:false
;machine belt offset:10
;machine belt offset Y:0
;Raft Base Line Spacing:1.6
;Wait Heatup Sync:true
;----------Shell Config----------------
;Outer Wall Wipe Distance:200
;Infill Before Walls:false
;Infill Overlap:0.16
;Fill Gaps Between Walls:everywhere
;Minimum Infill Area:1
;Top Surface Skin Layer:0
;Top Layers:3
;Z Seam Alignment:sharpest_corner
;Seam Corner Preference:z_seam_corner_inner
;Z Seam X:150
;Z Seam Y:150
;Horizontal Expansion:0
;Top/Bottom Pattern:zigzag
;Ironing Pattern:zigzag
;Vase Model:false
;----------Support Config----------------
;Support Type:everywhere
;Support Pattern:zigzag
;Support Infill Layer Thickness:0.2
;Minimum Support Area:10
;Enable Support Roof:false
;Support Roof Thickness:0.8
;Support Roof Pattern:lines
;Connect Support Lines:0
;Connect Support ZigZags:1
;Minimum Support X/Y Distance:0.2
;Support Line Distance:1.33
; ---------PrintSpeed & Travel----------
;Enable Print Cool:true
;Avoid Printed Parts Traveling:true
;Enable Retraction:true
;Retraction Distance:8
;Retraction Speed:100
;Retraction Prime Speed:100
;Maximum Retraction Count:100
;Minimum Extrusion Distance Window:1
;Z Hop When Retracted:false
;Z Hop Height:0.2
;Retract Before Outer Wall:true
;Print Speed:45
;Infill Speed:45

;Prime Tower Speed:45
;Travel Speed:120
;Initial Layer Speed:22.5
;Skirt/Brim Speed:22.5
;Combing Mode:off
; --------SpecialModel&Mesh Fixes--------
;Union Overlapping Volum:true
;Remove All Holes:false
;Maximum Travel Resolution:0.67
;Maximum Deviation:0.05
;Maximum Model Angle:0.872665
;IS Mold Print:false
;Make Overhang Printable:false
;Enable Coasting:false
;Coasting Volumes:0.06
;Coasting Speed:0.9
;Raft AirGap:0.25
;Layer0 ZOverLap:0.13
;---------------------End of Head--------------------------
M140 S60
M105
M104 S210
M105
M109 S210
M105
M190 S60
M82 ;absolute extrusion mode
M220 S100 ;Reset Feedrate
M221 S100 ;Reset Flowrate

G28 ;Home

G92 E0 ;Reset Extruder
G1 Z2.0 F3000 ;Move Z Axis up
G1 X10.1 Y20 Z0.28 F5000.0 ;Move to start position
G1 X10.1 Y145.0 Z0.28 F1500.0 E15 ;Draw the first line
G1 X10.4 Y145.0 Z0.28 F5000.0 ;Move to side a little
G1 X10.4 Y20 Z0.28 F1500.0 E30 ;Draw the second line
G92 E0  ;Reset Extruder
G1 E-1.0000 F1800 ;Retract a bit
G1 Z2.0 F3000 ;Move Z Axis up
G1 E0.0000 F1800 

G92 E0
G92 E0
G1 F6000 E-8

;LAYER_COUNT:10

;LAYER:-4
M107
G0 F7200 X89.6 Y119.739 Z0.24
;TYPE:SUPPORT-INTERFACE
G1 F6000 E0
G1 F1200 X89.6 Y180.258 E5.31398
G1 X89.358 Y179.993 E5.34549
G1 X89.21 Y179.816 E5.36575
G1 X88.851 Y179.345 E5.41775
G1 X88.724 Y179.162 E5.43731
G1 X88.387 Y178.628 E5.49275
G1 X88.308 Y178.488 E5.50687
G1 X88.017 Y177.917 E5.56314
G1 X88 Y177.879 E5.5668
G1 X88 Y122.119 E10.4629
G1 X88.01 Y122.096 E10.4651
G1 X88.085 Y121.942 E10.48014
G1 X88.387 Y121.376 E10.53647
G1 X88.496 Y121.193 E10.55518
G1 X88.819 Y120.702 E10.60678
G1 X88.968 Y120.495 E10.62918
G0 F7200 X88.967 Y120.495
G1 F1200 X89.332 Y120.035 E10.68074
G1 X89.451 Y119.897 E10.69674
G1 X89.956 Y119.363 E10.76128
G1 X90.479 Y118.886 E10.82343
G1 X90.656 Y118.738 E10.84369
G1 X91.127 Y118.379 E10.89569
G1 X91.2 Y118.328 E10.90351
G1 X91.2 Y181.67 E16.46536
G1 X91.665 Y181.976 E16.51424
G1 X91.829 Y182.074 E16.53102
G1 X92.41 Y182.385 E16.58888
G1 X92.562 Y182.459 E16.60373
G1 X92.8 Y182.56 E16.62643
G1 X92.8 Y117.436 E22.34476
G1 X93.302 Y117.234 E22.39227
G1 X93.515 Y117.159 E22.4121
G1 X94.093 Y116.985 E22.4651
G1 X94.295 Y116.933 E22.48342
G1 X94.4 Y116.911 E22.49284
G1 X94.4 Y183.086 E28.30345
G1 X94.716 Y183.158 E28.33191
G1 X94.928 Y183.196 E28.35082
G1 X95.541 Y183.28 E28.40515
G1 X95.72 Y183.295 E28.42092
G1 X96 Y183.306 E28.44552
G1 X96 Y116.687 E34.29512
G1 X96.51 Y116.67 E34.33993
G1 X97.6 Y116.67 E34.43564
G1 X97.6 Y183.33 E40.28884
G1 X99.2 Y183.33 E40.42933
G1 X99.2 Y116.67 E46.28253
G1 X100.8 Y116.67 E46.42302
G1 X100.8 Y183.33 E52.27621
G1 X102.4 Y183.33 E52.41671
G1 X102.4 Y116.67 E58.2699
G1 X104 Y116.67 E58.41039
G1 X104 Y183.33 E64.26359
G1 X105.6 Y183.33 E64.40408
G1 X105.6 Y116.67 E70.25728
G1 X107.2 Y116.67 E70.39777
G1 X107.2 Y183.33 E76.25097
G1 X108.8 Y183.33 E76.39146
G1 X108.8 Y116.67 E82.24466
G1 X110.4 Y116.67 E82.38515
G1 X110.4 Y183.33 E88.23835
G1 X112 Y183.33 E88.37884
G1 X112 Y116.67 E94.23204
G1 X113.6 Y116.67 E94.37253
G1 X113.6 Y183.33 E100.22573
G1 X115.2 Y183.33 E100.36622
G1 X115.2 Y116.67 E106.21942
G1 X116.8 Y116.67 E106.35991
G1 X116.8 Y183.33 E112.21311
G1 X118.4 Y183.33 E112.3536
G1 X118.4 Y116.67 E118.2068
G1 X120 Y116.67 E118.34729
G1 X120 Y183.33 E124.20049
G1 X121.6 Y183.33 E124.34098
G1 X121.6 Y116.67 E130.19418
G1 X123.2 Y116.67 E130.33467
G1 X123.2 Y183.33 E136.18787
G1 X124.8 Y183.33 E136.32836
G1 X124.8 Y116.67 E142.18155
G1 X126.4 Y116.67 E142.32205
G1 X126.4 Y183.33 E148.17524
G1 X128 Y183.33 E148.31573
G1 X128 Y116.67 E154.16893
G1 X129.6 Y116.67 E154.30942
G1 X129.6 Y183.33 E160.16262
G1 X131.2 Y183.33 E160.30311
G1 X131.2 Y116.67 E166.15631
G1 X132.8 Y116.67 E166.2968
G1 X132.8 Y183.33 E172.15
G1 X134.4 Y183.33 E172.29049
G1 X134.4 Y116.67 E178.14369
G1 X136 Y116.67 E178.28418
G1 X136 Y183.33 E184.13738
G1 X137.6 Y183.33 E184.27787
G1 X137.6 Y116.67 E190.13107
G1 X139.2 Y116.67 E190.27156
G1 X139.2 Y183.33 E196.12476
G1 X140.8 Y183.33 E196.26525
G1 X140.8 Y116.67 E202.11845
G1 X142.4 Y116.67 E202.25894
G1 X142.4 Y183.33 E208.11214
G1 X144 Y183.33 E208.25263
G1 X144 Y116.67 E214.10583
G1 X145.6 Y116.67 E214.24632
G1 X145.6 Y183.33 E220.09952
G1 X147.2 Y183.33 E220.24001
G1 X147.2 Y116.67 E226.09321
G1 X148.8 Y116.67 E226.2337
G1 X148.8 Y183.33 E232.08689
G1 X150.4 Y183.33 E232.22739
G1 X150.4 Y116.67 E238.08058
G1 X152 Y116.67 E238.22107
G1 X152 Y183.33 E244.07427
G1 X153.6 Y183.33 E244.21476
G1 X153.6 Y116.67 E250.06796
G1 X155.2 Y116.67 E250.20845
G1 X155.2 Y183.33 E256.06165
G1 X156.8 Y183.33 E256.20214
G1 X156.8 Y116.67 E262.05534
G1 X158.4 Y116.67 E262.19583
G1 X158.4 Y183.33 E268.04903
G1 X160 Y183.33 E268.18952
G1 X160 Y116.67 E274.04272
G1 X161.6 Y116.67 E274.18321
G1 X161.6 Y183.33 E280.03641
G1 X163.2 Y183.33 E280.1769
G1 X163.2 Y116.67 E286.0301
G1 X164.8 Y116.67 E286.17059
G1 X164.8 Y183.33 E292.02379
G1 X166.4 Y183.33 E292.16428
G1 X166.4 Y116.67 E298.01748
G1 X168 Y116.67 E298.15797
G1 X168 Y183.33 E304.01117
G1 X169.6 Y183.33 E304.15166
G1 X169.6 Y116.67 E310.00486
G1 X171.2 Y116.67 E310.14535
G1 X171.2 Y183.33 E315.99855
G1 X172.8 Y183.33 E316.13904
G1 X172.8 Y116.67 E321.99223
G1 X174.4 Y116.67 E322.13273
G1 X174.4 Y183.33 E327.98592
G1 X176 Y183.33 E328.12641
G1 X176 Y116.67 E333.97961
G1 X177.6 Y116.67 E334.1201
G1 X177.6 Y183.33 E339.9733
G1 X179.2 Y183.33 E340.11379
G1 X179.2 Y116.67 E345.96699
G1 X180.8 Y116.67 E346.10748
G1 X180.8 Y183.33 E351.96068
G1 X182.4 Y183.33 E352.10117
G1 X182.4 Y116.67 E357.95437
G1 X184 Y116.67 E358.09486
G1 X184 Y183.33 E363.94806
G1 X185.6 Y183.33 E364.08855
G1 X185.6 Y116.67 E369.94175
G1 X187.2 Y116.67 E370.08224
G1 X187.2 Y183.33 E375.93544
G1 X188.8 Y183.33 E376.07593
G1 X188.8 Y116.67 E381.92913
G1 X190.4 Y116.67 E382.06962
G1 X190.4 Y183.33 E387.92282
G1 X192 Y183.33 E388.06331
G1 X192 Y116.67 E393.91651
G1 X193.6 Y116.67 E394.057
G1 X193.6 Y183.33 E399.9102
G1 X195.2 Y183.33 E400.05069
G1 X195.2 Y116.67 E405.90389
G1 X196.8 Y116.67 E406.04438
G1 X196.8 Y183.33 E411.89757
G1 X198.4 Y183.33 E412.03807
G1 X198.4 Y116.67 E417.89126
G1 X200 Y116.67 E418.03175
G1 X200 Y183.33 E423.88495
G1 X201.6 Y183.33 E424.02544
G1 X201.6 Y116.67 E429.87864
G1 X203.2 Y116.67 E430.01913
G1 X203.2 Y183.33 E435.87233
G1 X203.49 Y183.33 E435.8978
G1 X204.107 Y183.309 E435.952
G1 X204.271 Y183.297 E435.96644
G1 X204.8 Y183.237 E436.01319
G1 X204.8 Y116.767 E441.84971
G1 X205.072 Y116.804 E441.87381
G1 X205.284 Y116.842 E441.89272
G1 X205.881 Y116.978 E441.94648
G1 X206.079 Y117.032 E441.9645
G1 X206.4 Y117.137 E441.99416
G1 X206.4 Y182.867 E447.7657
G1 X206.485 Y182.841 E447.7735
G1 X206.698 Y182.766 E447.79333
G1 X207.264 Y182.538 E447.84691
G1 X207.445 Y182.455 E447.8644
G1 X208 Y182.173 E447.91906
G1 X208 Y117.835 E453.56837
G1 X208.166 Y117.923 E453.58487
G1 X208.335 Y118.024 E453.60215
G1 X208.826 Y118.347 E453.65376
G1 X209.033 Y118.496 E453.67616
G1 X209.504 Y118.87 E453.72896
G1 X209.6 Y118.953 E453.74011
G1 X209.6 Y181.043 E459.19203
G1 X210.045 Y180.636 E459.24498
G1 X210.549 Y180.103 E459.30939
G1 X210.668 Y179.965 E459.32539
G1 X211.033 Y179.505 E459.37695
G0 F7200 X211.032 Y179.505
G1 F1200 X211.181 Y179.298 E459.39935
G1 X211.504 Y178.807 E459.45096
G1 X211.609 Y178.631 E459.46895
G1 X211.915 Y178.058 E459.52599
G1 X211.992 Y177.9 E459.54142
G1 X212.245 Y177.305 E459.59819
G1 X212.297 Y177.162 E459.61155
G1 X212.503 Y176.526 E459.67026
G1 X212.553 Y176.342 E459.687
G1 X212.686 Y175.754 E459.73993
G1 X212.724 Y175.544 E459.75867
G1 X212.8 Y174.991 E459.80769
G1 X212.8 Y125.04 E464.19372
G1 X212.755 Y124.647 E464.22845
G1 X212.722 Y124.441 E464.24677
G0 F7200 X212.721 Y124.435
G1 F1200 X212.6 Y123.847 E464.29949
G1 X212.538 Y123.604 E464.32151
G1 X212.371 Y123.051 E464.37223
G1 X212.294 Y122.83 E464.39278
G1 X212.066 Y122.264 E464.44636
G1 X211.983 Y122.083 E464.46384
G1 X211.7 Y121.527 E464.51862
G1 X211.605 Y121.359 E464.53557
G1 X211.276 Y120.838 E464.58967
G1 X211.2 Y120.729 E464.60134
G1 X211.2 Y179.27 E469.74164
;;retract;;
G1 F6000 E461.74164
G0 F600 X211.2 Y179.27 Z0.54
G0 F7200 X213.025 Y123.929
;TIME_ELAPSED:275.626482

;LAYER:-3
;TYPE:SUPPORT
G1 F6000 E469.74164
G1 F1800 X205.6 Y116.505 E470.78932
G1 X205.978 Y116.59 E470.82797
G1 X206.184 Y116.646 E470.84927
G1 X206.813 Y116.85 E470.91526
G1 X206.99 Y116.916 E470.9341
G1 X207.595 Y117.173 E470.99969
G1 X207.766 Y117.256 E471.01866
G1 X212.264 Y121.754 E471.65337
G1 X212.347 Y121.916 E471.67154
G1 X212.43 Y122.097 E471.69141
G1 X212.672 Y122.698 E471.75605
G1 X212.749 Y122.919 E471.7794
G1 X212.926 Y123.505 E471.84048
G1 X212.988 Y123.748 E471.86551
G1 X213.114 Y124.36 E471.92785
G1 X213.15 Y124.583 E471.95039
G1 X213.224 Y125.228 E472.01517
G1 X213.237 Y125.399 E472.03229
G1 X213.241 Y125.56 E472.04836
G1 X203.972 Y116.291 E473.35631
G1 X203.465 Y116.27 E473.40694
G1 X202.536 Y116.269 E473.49964
G1 X213.257 Y126.99 E475.01249
G1 X213.257 Y128.404 E475.15358
G1 X201.122 Y116.269 E476.86596
G1 X199.708 Y116.269 E477.00705
G1 X213.257 Y129.818 E478.91896
G1 X213.257 Y131.232 E479.06005
G1 X198.293 Y116.269 E481.17156
G1 X196.879 Y116.269 E481.31265
G1 X213.257 Y132.646 E483.62369
G1 X213.257 Y134.061 E483.76488
G1 X195.465 Y116.269 E486.27552
G1 X194.051 Y116.269 E486.41661
G1 X213.257 Y135.475 E489.12679
G1 X213.257 Y136.889 E489.26788
G1 X192.637 Y116.269 E492.17758
G1 X191.222 Y116.269 E492.31877
G1 X213.256 Y138.303 E495.428
G1 X213.256 Y139.717 E495.56909
G1 X189.808 Y116.269 E498.87786
G1 X188.394 Y116.269 E499.01895
G1 X213.256 Y141.131 E502.52725
G1 X213.256 Y142.545 E502.66834
G1 X186.98 Y116.269 E506.37616
G1 X185.566 Y116.269 E506.51725
G1 X213.256 Y143.959 E510.42461
G1 X213.256 Y145.374 E510.5658
G1 X184.151 Y116.269 E514.67283
G1 X182.737 Y116.269 E514.81392
G1 X213.256 Y146.788 E519.12048
G1 X213.256 Y148.202 E519.26157
G1 X181.323 Y116.269 E523.76766
G1 X179.909 Y116.269 E523.90875
G1 X213.256 Y149.616 E528.61437
G1 X213.255 Y151.03 E528.75546
G1 X178.494 Y116.269 E533.66061
G1 X177.08 Y116.269 E533.8017
G1 X213.255 Y152.444 E538.90639
G1 X213.255 Y153.858 E539.04748
G1 X175.666 Y116.269 E544.35169
G1 X174.252 Y116.269 E544.49278
G1 X213.255 Y155.272 E549.99653
G1 X213.255 Y156.687 E550.13771
G1 X172.838 Y116.269 E555.84106
G1 X171.423 Y116.269 E555.98225
G1 X213.255 Y158.101 E561.8852
G1 X213.255 Y159.515 E562.02629
G1 X170.009 Y116.269 E568.12876
G1 X168.595 Y116.269 E568.26985
G1 X213.255 Y160.929 E574.57186
G1 X213.254 Y162.343 E574.71295
G1 X167.181 Y116.269 E581.21442
G1 X165.767 Y116.269 E581.35551
G1 X213.254 Y163.757 E588.05651
G1 X213.254 Y165.171 E588.1976
G1 X164.352 Y116.269 E595.0982
G1 X162.938 Y116.269 E595.23929
G1 X213.254 Y166.585 E602.33942
G1 X213.254 Y168 E602.48061
G1 X161.524 Y116.269 E609.78034
G1 X160.11 Y116.269 E609.92143
G1 X213.254 Y169.414 E617.42069
G1 X213.254 Y170.828 E617.56178
G1 X158.695 Y116.269 E625.26065
G1 X157.281 Y116.269 E625.40174
G1 X213.254 Y172.242 E633.30013
G1 X213.254 Y173.656 E633.44122
G1 X155.867 Y116.269 E641.53915
G1 X154.453 Y116.269 E641.68024
G1 X213.199 Y175.015 E649.96993
G1 X213.118 Y175.615 E650.03034
G1 X213.08 Y175.825 E650.05164
G1 X212.989 Y176.22 E650.09208
G1 X153.039 Y116.269 E658.55175
G1 X151.624 Y116.269 E658.69293
G1 X212.668 Y177.312 E667.30683
G1 X212.613 Y177.462 E667.32277
G1 X212.358 Y178.061 E667.38773
G1 X212.268 Y178.247 E667.40835
G1 X212.24 Y178.299 E667.41424
G1 X150.21 Y116.269 E676.16735
G1 X148.796 Y116.269 E676.30844
G1 X211.725 Y179.198 E685.1884
G1 X211.506 Y179.532 E685.22825
G1 X211.357 Y179.739 E685.2537
G1 X211.133 Y180.02 E685.28955
G1 X147.382 Y116.269 E694.28551
G1 X145.968 Y116.269 E694.4266
G1 X210.468 Y180.77 E703.52832
G1 X210.33 Y180.917 E703.54843
G1 X209.778 Y181.421 E703.62302
G1 X209.737 Y181.453 E703.62821
G1 X144.553 Y116.269 E712.82637
G1 X143.139 Y116.269 E712.96746
G1 X208.934 Y182.064 E722.25185
G1 X208.918 Y182.077 E722.25391
G1 X208.371 Y182.422 E722.31843
G1 X208.204 Y182.517 E722.33761
G1 X208.05 Y182.594 E722.35479
G1 X141.725 Y116.269 E731.71396
G1 X140.311 Y116.269 E731.85505
G1 X207.083 Y183.041 E741.2773
G1 X206.83 Y183.144 E741.30456
G1 X206.613 Y183.22 E741.3275
G1 X206.024 Y183.397 E741.38886
G1 X138.896 Y116.269 E750.86135
G1 X137.482 Y116.269 E751.00244
G1 X204.846 Y183.632 E760.50816
G1 X204.3 Y183.696 E760.56301
G1 X204.124 Y183.709 E760.58062
G1 X203.527 Y183.728 E760.64022
G1 X136.068 Y116.269 E770.15941
G1 X134.654 Y116.269 E770.3005
G1 X202.114 Y183.729 E779.81984
G1 X200.7 Y183.729 E779.96093
G1 X133.24 Y116.269 E789.48026
G1 X131.825 Y116.269 E789.62145
G1 X199.286 Y183.729 E799.14086
G1 X197.871 Y183.729 E799.28204
G1 X130.411 Y116.269 E808.80138
G1 X128.997 Y116.269 E808.94247
G1 X196.457 Y183.729 E818.4618
G1 X195.043 Y183.729 E818.60289
G1 X127.583 Y116.269 E828.12223
G1 X126.169 Y116.269 E828.26332
G1 X193.629 Y183.729 E837.78265
G1 X192.214 Y183.729 E837.92384
G1 X124.754 Y116.269 E847.44318
G1 X123.34 Y116.269 E847.58427
G1 X190.8 Y183.729 E857.1036
G1 X189.386 Y183.729 E857.24469
G1 X121.926 Y116.269 E866.76402
G1 X120.512 Y116.269 E866.90511
G1 X187.972 Y183.729 E876.42445
G1 X186.558 Y183.729 E876.56554
G1 X119.097 Y116.269 E886.08494
G1 X117.683 Y116.269 E886.22603
G1 X185.143 Y183.729 E895.74537
G1 X183.729 Y183.729 E895.88646
G1 X116.269 Y116.269 E905.40579
G1 X114.855 Y116.269 E905.54688
G1 X182.315 Y183.729 E915.06622
G1 X180.901 Y183.729 E915.20731
G1 X113.441 Y116.269 E924.72664
G1 X112.026 Y116.269 E924.86783
G1 X179.487 Y183.729 E934.38724
G1 X178.072 Y183.729 E934.52842
G1 X110.612 Y116.269 E944.04776
G1 X109.198 Y116.269 E944.18885
G1 X176.658 Y183.729 E953.70818
G1 X175.244 Y183.729 E953.84927
G1 X107.784 Y116.269 E963.36861
G1 X106.37 Y116.269 E963.5097
G1 X173.83 Y183.729 E973.02903
G1 X172.415 Y183.729 E973.17022
G1 X104.955 Y116.269 E982.68956
G1 X103.541 Y116.269 E982.83065
G1 X171.001 Y183.729 E992.34998
G1 X169.587 Y183.729 E992.49107
