;FLAVOR:Marlin
;TIME:43820
;Filament used:43.9223m
;Layer height: 0.2
;MINX:26.699
;MINY:13.401
;MINZ:0.24
;MAXX:273.3
;MAXY:286.61
;MAXZ:3.06
                               
;Creality Print GCode Generated by CXEngineDEV
;Generated Time:2022-06-30 15:03:19
;----------Machine Config--------------
;Machine Name:Creality CR-10S
;Machine Height:400
;Machine Width:300
;Machine Depth:300
;Material name:Castable
;Number of Extruders:1
;ExtruderParams[0] Nozzle Diameter1000
;----------Profile Config---------------
;Layer Height:0.2
;Wall Thickness:0.8
;Top/Bottom Thickness:1
;Out Wall Line Width:0.4
;Inner Wall Line Width:0.4
;Inital Layer Height:200
;Wall Line Count:2
;Infill Line Distance:4
;Infill Pattern:grid
;Infill Sparse Density:20
;Infill Wipe Distance:0
;Print Temperature:210
;Bed Temperature:60
;Support Enable:true
;Support Density:30
;Support Angle:1.0472
;Adhesion Type:simpleraft
;machine is belt:false
;machine belt offset:10
;machine belt offset Y:0
;Raft Base Line Spacing:1.6
;Wait Heatup Sync:true
;----------Shell Config----------------
;Outer Wall Wipe Distance:200
;Infill Before Walls:false
;Infill Overlap:0.16
;Fill Gaps Between Walls:everywhere
;Minimum Infill Area:1
;Top Surface Skin Layer:0
;Top Layers:3
;Z Seam Alignment:sharpest_corner
;Seam Corner Preference:z_seam_corner_inner
;Z Seam X:150
;Z Seam Y:150
;Horizontal Expansion:0
;Top/Bottom Pattern:zigzag
;Ironing Pattern:zigzag
;Vase Model:false
;----------Support Config----------------
;Support Type:everywhere
;Support Pattern:zigzag
;Support Infill Layer Thickness:0.2
;Minimum Support Area:10
;Enable Support Roof:false
;Support Roof Thickness:0.8
;Support Roof Pattern:lines
;Connect Support Lines:0
;Connect Support ZigZags:1
;Minimum Support X/Y Distance:0.2
;Support Line Distance:1.33
; ---------PrintSpeed & Travel----------
;Enable Print Cool:true
;Avoid Printed Parts Traveling:true
;Enable Retraction:true
;Retraction Distance:8
;Retraction Speed:100
;Retraction Prime Speed:100
;Maximum Retraction Count:100
;Minimum Extrusion Distance Window:1
;Z Hop When Retracted:false
;Z Hop Height:0.2
;Retract Before Outer Wall:true
;Print Speed:45
;Infill Speed:45

;Prime Tower Speed:45
;Travel Speed:120
;Initial Layer Speed:22.5
;Skirt/Brim Speed:22.5
;Combing Mode:off
; --------SpecialModel&Mesh Fixes--------
;Union Overlapping Volum:true
;Remove All Holes:false
;Maximum Travel Resolution:0.67
;Maximum Deviation:0.05
;Maximum Model Angle:0.872665
;IS Mold Print:false
;Make Overhang Printable:false
;Enable Coasting:false
;Coasting Volumes:0.06
;Coasting Speed:0.9
;Raft AirGap:0.25
;Layer0 ZOverLap:0.13
;---------------------End of Head--------------------------
M140 S60
M105
M104 S210
M105
M109 S210
M105
M190 S60
M82 ;absolute extrusion mode
M220 S100 ;Reset Feedrate
M221 S100 ;Reset Flowrate

G28 ;Home

G92 E0 ;Reset Extruder
G1 Z2.0 F3000 ;Move Z Axis up
G1 X10.1 Y20 Z0.28 F5000.0 ;Move to start position
G1 X10.1 Y145.0 Z0.28 F1500.0 E15 ;Draw the first line
G1 X10.4 Y145.0 Z0.28 F5000.0 ;Move to side a little
G1 X10.4 Y20 Z0.28 F1500.0 E30 ;Draw the second line
G92 E0  ;Reset Extruder
G1 E-1.0000 F1800 ;Retract a bit
G1 Z2.0 F3000 ;Move Z Axis up
G1 E0.0000 F1800 

G92 E0
G92 E0
G1 F6000 E-8

;LAYER_COUNT:10

;LAYER:-4
M107
G0 F7200 X28.8 Y18.574 Z0.24
;TYPE:SUPPORT-INTERFACE
G1 F6000 E0
G1 F1200 X28.8 Y135.731 E10.28718
G1 X28.458 Y135.129 E10.34797
G1 X28.175 Y134.574 E10.40267
G1 X28.092 Y134.393 E10.42016
G1 X27.864 Y133.827 E10.47374
G1 X27.787 Y133.606 E10.49429
G1 X27.618 Y133.047 E10.54556
G1 X27.558 Y132.81 E10.56703
G1 X27.436 Y132.216 E10.62028
G1 X27.403 Y132.01 E10.6386
G1 X27.333 Y131.4 E10.69251
G1 X27.32 Y131.224 E10.70801
G1 X27.3 Y130.64 E10.75931
G1 X27.3 Y23.683 E20.15086
G1 X27.334 Y22.857 E20.22345
G1 X27.349 Y22.678 E20.23922
G1 X27.434 Y22.059 E20.29409
G1 X27.472 Y21.847 E20.313
G1 X27.605 Y21.261 E20.36576
G1 X27.655 Y21.077 E20.3825
G1 X27.861 Y20.441 E20.44121
G1 X27.913 Y20.298 E20.45457
G1 X28.168 Y19.699 E20.51173
G1 X28.243 Y19.545 E20.52677
G1 X28.545 Y18.979 E20.5831
G1 X28.654 Y18.796 E20.6018
G1 X28.977 Y18.305 E20.65341
G1 X29.126 Y18.098 E20.67581
G0 F7200 X29.125 Y18.098
G1 F1200 X29.49 Y17.638 E20.72737
G1 X29.609 Y17.5 E20.74337
G1 X30.114 Y16.966 E20.8079
G1 X30.4 Y16.705 E20.8419
G1 X30.4 Y252.54 E41.54981
G1 X30.425 Y252.585 E41.55433
G1 X30.762 Y253.119 E41.60977
G1 X30.889 Y253.302 E41.62933
G1 X31.248 Y253.773 E41.68133
G1 X31.396 Y253.95 E41.70159
G1 X31.879 Y254.479 E41.76449
G1 X32 Y254.593 E41.77909
G1 X32 Y15.52 E62.77131
G1 X32.152 Y15.434 E62.78665
G1 X32.713 Y15.148 E62.84194
G1 X32.894 Y15.065 E62.85942
G1 X33.46 Y14.837 E62.913
G1 X33.6 Y14.787 E62.92606
G1 X33.6 Y255.865 E84.09433
G1 X33.703 Y255.933 E84.10517
G1 X33.872 Y256.034 E84.12246
G1 X34.448 Y256.342 E84.17981
G1 X34.6 Y256.416 E84.19466
G1 X35.193 Y256.669 E84.25127
G1 X35.2 Y256.671 E84.25191
G1 X35.2 Y14.388 E105.52599
G1 X35.277 Y14.376 E105.53283
G1 X35.887 Y14.306 E105.58675
G1 X36.051 Y14.294 E105.60119
G1 X36.668 Y14.273 E105.65539
G1 X36.8 Y14.274 E105.66699
G1 X36.8 Y257.123 E126.99077
G1 X36.966 Y257.153 E127.00558
G1 X37.579 Y257.237 E127.05991
G1 X37.758 Y257.252 E127.07568
G1 X38.4 Y257.281 E127.13211
G1 X38.4 Y14.274 E148.46977
G1 X40 Y14.274 E148.61026
G1 X40 Y257.284 E169.94818
G1 X41.6 Y257.284 E170.08867
G1 X41.6 Y14.274 E191.42659
G1 X43.2 Y14.274 E191.56708
G1 X43.2 Y257.284 E212.905
G1 X44.8 Y257.284 E213.04549
G1 X44.8 Y14.274 E234.38341
G1 X46.4 Y14.274 E234.5239
G1 X46.4 Y257.284 E255.86182
G1 X48 Y257.284 E256.00231
G1 X48 Y14.274 E277.34024
G1 X49.6 Y14.274 E277.48073
G1 X49.6 Y257.284 E298.81865
G1 X51.2 Y257.284 E298.95914
G1 X51.2 Y14.274 E320.29706
G1 X52.8 Y14.275 E320.43755
G1 X52.8 Y257.284 E341.77538
G1 X54.4 Y257.285 E341.91587
G1 X54.4 Y14.275 E363.25379
G1 X56 Y14.275 E363.39428
G1 X56 Y257.285 E384.7322
G1 X57.6 Y257.285 E384.87269
G1 X57.6 Y14.275 E406.21061
G1 X59.2 Y14.275 E406.35111
G1 X59.2 Y257.285 E427.68903
G1 X60.8 Y257.285 E427.82952
G1 X60.8 Y14.275 E449.16744
G1 X62.4 Y14.275 E449.30793
G1 X62.4 Y257.285 E470.64585
G1 X64 Y257.285 E470.78634
G1 X64 Y14.275 E492.12426
G1 X65.6 Y14.275 E492.26475
G1 X65.6 Y257.285 E513.60267
G1 X67.2 Y257.285 E513.74316
G1 X67.2 Y14.275 E535.08108
G1 X68.8 Y14.276 E535.22157
G1 X68.8 Y257.286 E556.55949
G1 X70.4 Y257.286 E556.69998
G1 X70.4 Y14.276 E578.0379
G1 X72 Y14.276 E578.17839
G1 X72 Y257.286 E599.51632
G1 X73.6 Y257.286 E599.65681
G1 X73.6 Y14.276 E620.99473
G1 X75.2 Y14.276 E621.13522
G1 X75.2 Y257.286 E642.47314
G1 X76.8 Y257.286 E642.61363
G1 X76.8 Y14.276 E663.95155
G1 X78.4 Y14.276 E664.09204
G1 X78.4 Y257.286 E685.42996
G1 X80 Y257.286 E685.57045
G1 X80 Y14.276 E706.90837
G1 X81.6 Y14.276 E707.04886
G1 X81.6 Y257.286 E728.38678
G1 X81.668 Y257.287 E728.39275
G1 X82.655 Y257.375 E728.47976
G1 X83.2 Y257.51 E728.52906
G1 X83.2 Y14.276 E749.88665
G1 X84.674 Y14.276 E750.01608
G1 X84.8 Y14.282 E750.02716
G1 X84.8 Y258.234 E771.44779
G1 X85.304 Y258.596 E771.50228
G1 X85.841 Y259.094 E771.56658
G1 X86.311 Y259.657 E771.63098
G1 X86.4 Y259.795 E771.6454
G1 X86.4 Y14.449 E793.18844
G1 X86.983 Y14.581 E793.24092
G1 X87.181 Y14.635 E793.25895
G1 X87.775 Y14.828 E793.31379
G1 X87.952 Y14.894 E793.33037
G1 X88 Y14.915 E793.33497
G1 X88 Y279.859 E816.59885
G1 X88.224 Y280.416 E816.65156
G1 X88.307 Y280.597 E816.66905
G1 X88.598 Y281.168 E816.72532
G1 X88.677 Y281.308 E816.73944
G1 X89.014 Y281.842 E816.79488
G1 X89.141 Y282.025 E816.81444
G1 X89.5 Y282.496 E816.86644
G1 X89.6 Y282.615 E816.88009
G1 X89.6 Y15.734 E840.31404
G1 X89.928 Y15.95 E840.34853
G1 X90.135 Y16.099 E840.37092
G1 X90.606 Y16.473 E840.42373
G1 X90.746 Y16.594 E840.43998
G1 X91.2 Y17.024 E840.49489
G1 X91.2 Y284.138 E863.9493
G1 X91.257 Y284.184 E863.95573
G1 X91.464 Y284.333 E863.97813
G1 X91.955 Y284.656 E864.02974
G1 X92.119 Y284.754 E864.04651
G1 X92.7 Y285.065 E864.10438
G1 X92.8 Y285.113 E864.11412
G1 X92.8 Y19.127 E887.46948
G0 F7200 X92.802 Y19.13
G1 F1200 X93.085 Y19.686 E887.52426
G1 X93.168 Y19.867 E887.54175
G1 X93.396 Y20.433 E887.59533
G1 X93.473 Y20.654 E887.61588
G1 X93.64 Y21.207 E887.6666
G1 X93.702 Y21.45 E887.68862
G1 X93.823 Y22.038 E887.74133
G0 F7200 X93.824 Y22.044
G1 F1200 X93.857 Y22.25 E887.75965
G1 X93.927 Y22.861 E887.81365
G1 X93.939 Y23.016 E887.8273
G1 X93.96 Y23.62 E887.88037
G1 X93.96 Y38.771 E889.21073
G1 X94.004 Y39.477 E889.27284
G1 X94.143 Y40.198 E889.33732
G1 X94.372 Y40.894 E889.40165
G1 X94.4 Y40.954 E889.40747
G1 X94.4 Y285.699 E910.89773
G1 X94.409 Y285.702 E910.89857
G1 X95.006 Y285.838 E910.95233
G1 X95.218 Y285.876 E910.97124
G1 X95.831 Y285.96 E911.02557
G1 X96 Y285.974 E911.04046
G1 X96 Y43.155 E932.36161
G1 X96.088 Y43.236 E932.37211
G1 X96.686 Y43.665 E932.43673
G1 X97.33 Y44.013 E932.50101
G1 X97.6 Y44.118 E932.52645
G1 X97.6 Y286.01 E953.7662
G1 X99.2 Y286.01 E953.90669
G1 X99.2 Y44.508 E975.1122
G1 X99.442 Y44.536 E975.13359
G1 X99.816 Y44.545 E975.16644
G1 X100.8 Y44.533 E975.25285
G1 X100.8 Y286.01 E996.45616
G1 X102.4 Y286.01 E996.59665
G1 X102.4 Y44.513 E1017.80172
G1 X104 Y44.494 E1017.94222
G1 X104 Y286.01 E1039.14896
G1 X105.6 Y286.01 E1039.28945
G1 X105.6 Y44.475 E1060.49785
G1 X107.2 Y44.456 E1060.63835
G1 X107.2 Y286.01 E1081.84843
G1 X108.8 Y286.01 E1081.98892
G1 X108.8 Y44.437 E1103.20066
G1 X110.4 Y44.417 E1103.34116
G1 X110.4 Y286.01 E1124.55466
G1 X112 Y286.01 E1124.69515
G1 X112 Y44.398 E1145.91032
G1 X113.6 Y44.379 E1146.05082
G1 X113.6 Y286.01 E1167.26765
G1 X115.2 Y286.01 E1167.40814
G1 X115.2 Y44.36 E1188.62665
G1 X116.8 Y44.341 E1188.76715
G1 X116.8 Y286.01 E1209.98732
G1 X118.4 Y286.01 E1210.12781
G1 X118.4 Y44.321 E1231.34974
G1 X120 Y44.302 E1231.49024
G1 X120 Y286.01 E1252.71383
G1 X121.6 Y286.01 E1252.85433
G1 X121.6 Y44.283 E1274.07959
G1 X123.2 Y44.264 E1274.22009
G1 X123.2 Y286.01 E1295.44702
G1 X124.8 Y286.01 E1295.58751
G1 X124.8 Y44.244 E1316.8162
G1 X126.4 Y44.225 E1316.9567
G1 X126.4 Y286.01 E1338.18706
G1 X128 Y286.01 E1338.32755
G1 X128 Y44.206 E1359.55958
G1 X129.6 Y44.187 E1359.70008
G1 X129.6 Y286.01 E1380.93377
G1 X131.2 Y286.01 E1381.07426
G1 X131.2 Y44.168 E1402.30962
G1 X132.8 Y44.148 E1402.45013
G1 X132.8 Y286.01 E1423.68724
G1 X134.4 Y286.01 E1423.82773
G1 X134.4 Y44.129 E1445.06652
G1 X136 Y44.11 E1445.20702
G1 X136 Y286.01 E1466.44748
G1 X137.6 Y286.01 E1466.58797
G1 X137.6 Y44.091 E1487.83009
G1 X139.2 Y44.071 E1487.97059
G1 X139.2 Y286.01 E1509.21447
G1 X140.8 Y286.01 E1509.35496
G1 X140.8 Y44.052 E1530.60051
G1 X142.4 Y44.033 E1530.74101
G1 X142.4 Y286.01 E1551.98823
G1 X144 Y286.01 E1552.12872
G1 X144 Y44.014 E1573.3776
G1 X145.6 Y43.995 E1573.5181
G1 X145.6 Y286.01 E1594.76866
G1 X147.2 Y286.01 E1594.90915
G1 X147.2 Y43.975 E1616.16146
G1 X148.8 Y43.956 E1616.30196
G1 X148.8 Y286.01 E1637.55593
G1 X150.4 Y286.01 E1637.69642
G1 X150.4 Y43.937 E1658.95207
G1 X152 Y43.918 E1659.09257
G1 X152 Y286.01 E1680.34988
G1 X153.6 Y286.01 E1680.49037
G1 X153.6 Y43.899 E1701.74936
G1 X155.2 Y43.879 E1701.88986
G1 X155.2 Y286.01 E1723.1506
G1 X156.8 Y286.01 E1723.29109
G1 X156.8 Y43.86 E1744.55349
G1 X158.4 Y43.841 E1744.69399
G1 X158.4 Y286.01 E1765.95807
G1 X160 Y286.01 E1766.09856
G1 X160 Y43.822 E1787.3643
G1 X161.6 Y43.802 E1787.50481
G1 X161.6 Y286.01 E1808.7723
G1 X163.2 Y286.01 E1808.9128
G1 X163.2 Y43.783 E1830.18196
G1 X164.8 Y43.764 E1830.32246
G1 X164.8 Y286.01 E1851.5933
G1 X166.4 Y286.01 E1851.73379
G1 X166.4 Y43.745 E1873.0063
G1 X168 Y43.726 E1873.1468
G1 X168 Y286.01 E1894.42097
G1 X169.6 Y286.01 E1894.56146
G1 X169.6 Y43.706 E1915.83739
G1 X171.2 Y43.687 E1915.97789
G1 X171.2 Y286.01 E1937.25549
G1 X172.8 Y286.01 E1937.39598
G1 X172.8 Y43.668 E1958.67524
G1 X174.4 Y43.649 E1958.81574
G1 X174.4 Y286.01 E1980.09668
G1 X176 Y286.01 E1980.23717
G1 X176 Y43.629 E2001.51986
G1 X177.6 Y43.61 E2001.66036
G1 X177.6 Y286.01 E2022.94472
G1 X179.2 Y286.01 E2023.08521
G1 X179.2 Y43.591 E2044.37123
G1 X180.8 Y43.572 E2044.51173
G1 X180.8 Y286.01 E2065.79943
G1 X182.4 Y286.01 E2065.93992
G1 X182.4 Y43.553 E2087.22928
G1 X184 Y43.533 E2087.36979
G1 X184 Y286.01 E2108.6609
G1 X185.6 Y286.01 E2108.8014
G1 X185.6 Y43.514 E2130.09418
G1 X187.2 Y43.495 E2130.23468
G1 X187.2 Y286.01 E2151.52914
G1 X188.8 Y286.01 E2151.66963
G1 X188.8 Y43.476 E2172.96575
G1 X190.4 Y43.457 E2173.10626
G1 X190.4 Y286.01 E2194.40405
G1 X192 Y286.01 E2194.54454
G1 X192 Y43.437 E2215.84409
G1 X193.6 Y43.418 E2215.98459
G1 X193.6 Y286.01 E2237.28581
G1 X195.2 Y286.01 E2237.4263
G1 X195.2 Y43.399 E2258.72918
G1 X196.8 Y43.38 E2258.86968
G1 X196.8 Y286.01 E2280.17424
G1 X198.4 Y286.01 E2280.31473
G1 X198.4 Y43.344 E2301.62244
G1 X198.853 Y43.31 E2301.66233
G1 X199.571 Y43.163 E2301.72668
G1 X200 Y43.017 E2301.76647
G1 X200 Y286.01 E2323.1029
G1 X201.6 Y286.01 E2323.24339
G1 X201.6 Y42.147 E2344.65621
G1 X202.094 Y41.724 E2344.71332
G1 X202.588 Y41.181 E2344.77778
G1 X203.006 Y40.579 E2344.84213
G1 X203.2 Y40.211 E2344.87866
G1 X203.2 Y286.01 E2366.46147
G1 X203.779 Y286.01 E2366.51231
G1 X204.396 Y285.989 E2366.56652
G1 X204.56 Y285.977 E2366.58096
G1 X204.8 Y285.95 E2366.60216
G1 X204.8 Y19.529 E2389.99573
G1 X204.89 Y19.357 E2390.01277
G1 X204.981 Y19.201 E2390.02863
G1 X205.304 Y18.696 E2390.08127
G1 X205.436 Y18.509 E2390.10137
G1 X205.834 Y17.994 E2390.15852
G0 F7200 X205.833 Y17.994
G1 F1200 X205.921 Y17.889 E2390.17055
G1 X206.363 Y17.409 E2390.22784
G1 X206.4 Y17.374 E2390.23231
G1 X206.4 Y285.634 E2413.78735
G1 X206.774 Y285.521 E2413.82166
G1 X206.987 Y285.446 E2413.84149
G1 X207.553 Y285.218 E2413.89507
G1 X207.734 Y285.135 E2413.91255
G1 X208 Y285 E2413.93875
G1 X208 Y16.066 E2437.55297
G1 X208.278 Y15.887 E2437.582
G1 X208.435 Y15.794 E2437.59802
G1 X209.011 Y15.491 E2437.65517
G1 X209.156 Y15.422 E2437.66927
G1 X209.6 Y15.236 E2437.71154
G1 X209.6 Y283.966 E2461.30785
G1 X209.651 Y283.927 E2461.31349
G1 X209.804 Y283.8 E2461.33095
G1 X210.334 Y283.316 E2461.39397
G1 X210.838 Y282.783 E2461.45838
G1 X210.957 Y282.645 E2461.47438
G1 X211.2 Y282.339 E2461.50869
G1 X211.2 Y14.762 E2485.00376
G1 X211.35 Y14.73 E2485.01723
G1 X211.519 Y14.701 E2485.03228
G1 X212.315 Y14.605 E2485.10269
G1 X212.8 Y14.582 E2485.14532
G1 X212.8 Y279.177 E2508.37855
G1 X212.842 Y279.022 E2508.39265
G1 X212.975 Y278.434 E2508.44558
G1 X213.013 Y278.224 E2508.46432
G1 X213.098 Y277.605 E2508.51919
G1 X213.113 Y277.426 E2508.53496
G1 X213.144 Y276.724 E2508.59666
G1 X213.147 Y263.297 E2509.77564
G1 X213.225 Y262.373 E2509.85706
G1 X213.393 Y261.652 E2509.92207
G1 X213.65 Y260.964 E2509.98655
G1 X213.992 Y260.316 E2510.05089
G1 X214.4 Y259.729 E2510.11366
G1 X214.4 Y14.558 E2531.64133
G1 X216 Y14.539 E2531.78183
G1 X216 Y258.34 E2553.18921
G1 X216.073 Y258.291 E2553.19693
G1 X216.733 Y257.967 E2553.26149
G1 X217.427 Y257.732 E2553.32582
G1 X217.6 Y257.697 E2553.34132
G1 X217.6 Y14.52 E2574.69391
G1 X219.2 Y14.501 E2574.83441
G1 X219.2 Y257.527 E2596.17373
G1 X220.8 Y257.508 E2596.31423
G1 X220.8 Y14.481 E2617.65365
G1 X222.4 Y14.462 E2617.79415
G1 X222.4 Y257.489 E2639.13356
G1 X224 Y257.47 E2639.27406
G1 X224 Y14.443 E2660.61347
G1 X225.6 Y14.424 E2660.75398
G1 X225.6 Y257.45 E2682.0933
G1 X227.2 Y257.431 E2682.2338
G1 X227.2 Y14.405 E2703.57313
G1 X228.8 Y14.386 E2703.71363
G1 X228.8 Y257.412 E2725.05295
G1 X230.4 Y257.392 E2725.19345
G1 X230.4 Y14.366 E2746.53278
G1 X232 Y14.347 E2746.67328
G1 X232 Y257.373 E2768.01261
G1 X233.6 Y257.354 E2768.15311
G1 X233.6 Y14.328 E2789.49243
G1 X235.2 Y14.309 E2789.63293
G1 X235.2 Y257.335 E2810.97226
G1 X236.8 Y257.315 E2811.11276
G1 X236.8 Y14.29 E2832.452
G1 X238.4 Y14.271 E2832.5925
G1 X238.4 Y257.296 E2853.93173
G1 X240 Y257.277 E2854.07224
G1 X240 Y14.252 E2875.41147
G1 X241.6 Y14.232 E2875.55197
G1 X241.6 Y257.258 E2896.8913
G1 X243.2 Y257.238 E2897.0318
G1 X243.2 Y14.213 E2918.37104
G1 X244.8 Y14.194 E2918.51154
G1 X244.8 Y257.219 E2939.85078
G1 X246.4 Y257.2 E2939.99128
G1 X246.4 Y14.175 E2961.33052
G1 X248 Y14.156 E2961.47102
G1 X248 Y257.181 E2982.81025
G1 X249.6 Y257.161 E2982.95076
G1 X249.6 Y14.137 E3004.28991
G1 X251.2 Y14.118 E3004.43041
