;FLAVOR:Marlin
;TIME:1835
;Filament used:1.96552m
;Layer height: 0.2
;MINX:114.801
;MINY:125.913
;MINZ:0.24
;MAXX:185.199
;MAXY:174.085
;MAXZ:3.06
                           
;Creality Print GCode Generated by CXEngineDEV
;Generated Time:2022-06-30 15:03:19
;----------Machine Config--------------
;Machine Name:Creality CR-10S
;Machine Height:400
;Machine Width:300
;Machine Depth:300
;Material name:Castable
;Number of Extruders:1
;ExtruderParams[0] Nozzle Diameter1000
;----------Profile Config---------------
;Layer Height:0.2
;Wall Thickness:0.8
;Top/Bottom Thickness:1
;Out Wall Line Width:0.4
;Inner Wall Line Width:0.4
;Inital Layer Height:200
;Wall Line Count:2
;Infill Line Distance:4
;Infill Pattern:grid
;Infill Sparse Density:20
;Infill Wipe Distance:0
;Print Temperature:210
;Bed Temperature:60
;Support Enable:true
;Support Density:30
;Support Angle:1.0472
;Adhesion Type:simpleraft
;machine is belt:false
;machine belt offset:10
;machine belt offset Y:0
;Raft Base Line Spacing:1.6
;Wait Heatup Sync:true
;----------Shell Config----------------
;Outer Wall Wipe Distance:200
;Infill Before Walls:false
;Infill Overlap:0.16
;Fill Gaps Between Walls:everywhere
;Minimum Infill Area:1
;Top Surface Skin Layer:0
;Top Layers:3
;Z Seam Alignment:sharpest_corner
;Seam Corner Preference:z_seam_corner_inner
;Z Seam X:150
;Z Seam Y:150
;Horizontal Expansion:0
;Top/Bottom Pattern:zigzag
;Ironing Pattern:zigzag
;Vase Model:false
;----------Support Config----------------
;Support Type:everywhere
;Support Pattern:zigzag
;Support Infill Layer Thickness:0.2
;Minimum Support Area:10
;Enable Support Roof:false
;Support Roof Thickness:0.8
;Support Roof Pattern:lines
;Connect Support Lines:0
;Connect Support ZigZags:1
;Minimum Support X/Y Distance:0.2
;Support Line Distance:1.33
; ---------PrintSpeed & Travel----------
;Enable Print Cool:true
;Avoid Printed Parts Traveling:true
;Enable Retraction:true
;Retraction Distance:8
;Retraction Speed:100
;Retraction Prime Speed:100
;Maximum Retraction Count:100
;Minimum Extrusion Distance Window:1
;Z Hop When Retracted:false
;Z Hop Height:0.2
;Retract Before Outer Wall:true
;Print Speed:45
;Infill Speed:45

;Prime Tower Speed:45
;Travel Speed:120
;Initial Layer Speed:22.5
;Skirt/Brim Speed:22.5
;Combing Mode:off
; --------SpecialModel&Mesh Fixes--------
;Union Overlapping Volum:true
;Remove All Holes:false
;Maximum Travel Resolution:0.67
;Maximum Deviation:0.05
;Maximum Model Angle:0.872665
;IS Mold Print:false
;Make Overhang Printable:false
;Enable Coasting:false
;Coasting Volumes:0.06
;Coasting Speed:0.9
;Raft AirGap:0.25
;Layer0 ZOverLap:0.13
;---------------------End of Head--------------------------
M140 S60
M105
M104 S210
M105
M109 S210
M105
M190 S60
M82 ;absolute extrusion mode
M220 S100 ;Reset Feedrate
M221 S100 ;Reset Flowrate

G28 ;Home

G92 E0 ;Reset Extruder
G1 Z2.0 F3000 ;Move Z Axis up
G1 X10.1 Y20 Z0.28 F5000.0 ;Move to start position
G1 X10.1 Y145.0 Z0.28 F1500.0 E15 ;Draw the first line
G1 X10.4 Y145.0 Z0.28 F5000.0 ;Move to side a little
G1 X10.4 Y20 Z0.28 F1500.0 E30 ;Draw the second line
G92 E0  ;Reset Extruder
G1 E-1.0000 F1800 ;Retract a bit
G1 Z2.0 F3000 ;Move Z Axis up
G1 E0.0000 F1800 

G92 E0
G92 E0
G1 F6000 E-8

;LAYER_COUNT:10

;LAYER:-4
M107
G0 F7200 X118.4 Y129.035 Z0.24
;TYPE:SUPPORT-INTERFACE
G1 F6000 E0
G1 F1200 X118.4 Y170.964 E3.68165
G1 X118.099 Y170.68 E3.71799
G1 X117.616 Y170.151 E3.78089
G1 X117.468 Y169.974 E3.80114
G1 X117.109 Y169.503 E3.85315
G1 X116.982 Y169.32 E3.8727
G1 X116.8 Y169.031 E3.90269
G1 X116.8 Y130.965 E7.24515
G1 X117.077 Y130.544 E7.2894
G1 X117.226 Y130.337 E7.31179
G0 F7200 X117.225 Y130.337
G1 F1200 X117.59 Y129.877 E7.36335
G1 X117.709 Y129.739 E7.37935
G1 X118.214 Y129.205 E7.44389
G1 X118.737 Y128.728 E7.50604
G1 X118.914 Y128.58 E7.5263
G1 X119.385 Y128.221 E7.5783
G1 X119.568 Y128.094 E7.59786
G1 X120 Y127.821 E7.64273
G1 X120 Y172.18 E11.53775
G1 X120.087 Y172.232 E11.54665
G1 X120.668 Y172.543 E11.60452
G1 X120.82 Y172.617 E11.61936
G1 X121.413 Y172.87 E11.67597
G1 X121.584 Y172.933 E11.69197
G1 X121.6 Y172.938 E11.69345
G1 X121.6 Y127.061 E15.72176
G1 X121.773 Y127.001 E15.73784
G1 X122.351 Y126.827 E15.79084
G1 X122.553 Y126.775 E15.80915
G1 X123.16 Y126.65 E15.86357
G1 X123.2 Y126.643 E15.86714
G1 X123.2 Y173.355 E19.96876
G1 X123.799 Y173.438 E20.02186
G1 X123.978 Y173.453 E20.03764
G1 X124.686 Y173.485 E20.09987
G1 X124.8 Y173.485 E20.10988
G1 X124.8 Y126.513 E24.23434
G1 X126.4 Y126.513 E24.37483
G1 X126.4 Y173.485 E28.49929
G1 X128 Y173.485 E28.63978
G1 X128 Y126.513 E32.76424
G1 X129.6 Y126.513 E32.90473
G1 X129.6 Y173.485 E37.02918
G1 X131.2 Y173.485 E37.16968
G1 X131.2 Y126.513 E41.29413
G1 X132.8 Y126.513 E41.43463
G1 X132.8 Y173.485 E45.55908
G1 X134.4 Y173.485 E45.69958
G1 X134.4 Y126.513 E49.82403
G1 X136 Y126.513 E49.96453
G1 X136 Y173.485 E54.08898
G1 X137.6 Y173.485 E54.22948
G1 X137.6 Y126.513 E58.35393
G1 X139.2 Y126.513 E58.49443
G1 X139.2 Y173.485 E62.61888
G1 X140.8 Y173.485 E62.75938
G1 X140.8 Y126.513 E66.88383
G1 X142.4 Y126.514 E67.02432
G1 X142.4 Y173.486 E71.14878
G1 X144 Y173.486 E71.28927
G1 X144 Y126.514 E75.41373
G1 X145.6 Y126.514 E75.55422
G1 X145.6 Y173.486 E79.67868
G1 X147.2 Y173.486 E79.81917
G1 X147.2 Y126.514 E83.94363
G1 X148.8 Y126.514 E84.08412
G1 X148.8 Y173.486 E88.20858
G1 X150.4 Y173.486 E88.34907
G1 X150.4 Y126.514 E92.47353
G1 X152 Y126.514 E92.61402
G1 X152 Y173.486 E96.73848
G1 X153.6 Y173.486 E96.87897
G1 X153.6 Y126.514 E101.00343
G1 X155.2 Y126.514 E101.14392
G1 X155.2 Y173.486 E105.26838
G1 X156.8 Y173.486 E105.40887
G1 X156.8 Y126.514 E109.53333
G1 X158.4 Y126.514 E109.67382
G1 X158.4 Y173.487 E113.79837
G1 X160 Y173.487 E113.93886
G1 X160 Y126.515 E118.06332
G1 X161.6 Y126.515 E118.20381
G1 X161.6 Y173.487 E122.32827
G1 X163.2 Y173.487 E122.46876
G1 X163.2 Y126.515 E126.59322
G1 X164.8 Y126.515 E126.73371
G1 X164.8 Y173.487 E130.85817
G1 X166.4 Y173.487 E130.99866
G1 X166.4 Y126.515 E135.12312
G1 X168 Y126.515 E135.26361
G1 X168 Y173.487 E139.38807
G1 X169.6 Y173.487 E139.52856
G1 X169.6 Y126.515 E143.65302
G1 X171.2 Y126.515 E143.79351
G1 X171.2 Y173.487 E147.91797
G1 X172.8 Y173.487 E148.05846
G1 X172.8 Y126.515 E152.18292
G1 X174.4 Y126.515 E152.32341
G1 X174.4 Y173.487 E156.44787
G1 X175.232 Y173.488 E156.52092
G1 X175.849 Y173.467 E156.57513
G1 X176 Y173.456 E156.58843
G1 X176 Y126.547 E160.70735
G1 X176.022 Y126.547 E160.70929
G1 X176.201 Y126.562 E160.72506
G1 X176.814 Y126.646 E160.77939
G1 X177.026 Y126.684 E160.7983
G1 X177.6 Y126.815 E160.85
G1 X177.6 Y173.186 E164.92168
G1 X177.649 Y173.173 E164.92613
G1 X178.227 Y172.999 E164.97914
G1 X178.44 Y172.924 E164.99896
G1 X179.006 Y172.696 E165.05254
G1 X179.187 Y172.613 E165.07003
G1 X179.2 Y172.607 E165.07129
G1 X179.2 Y127.394 E169.04129
G1 X179.328 Y127.455 E169.05374
G1 X179.908 Y127.765 E169.11149
G1 X180.077 Y127.866 E169.12878
G1 X180.568 Y128.189 E169.18038
G1 X180.775 Y128.338 E169.20278
G1 X180.8 Y128.358 E169.20559
G1 X180.8 Y171.638 E173.00586
G1 X181.104 Y171.405 E173.0395
G1 X181.257 Y171.278 E173.05696
G1 X181.787 Y170.794 E173.11998
G1 X182.291 Y170.261 E173.18439
G1 X182.41 Y170.123 E173.20039
G1 X182.775 Y169.663 E173.25195
G0 F7200 X182.774 Y169.663
G1 F1200 X182.923 Y169.456 E173.27435
G1 X183.246 Y168.965 E173.32595
G1 X183.351 Y168.789 E173.34395
G1 X183.657 Y168.216 E173.40099
G1 X183.734 Y168.058 E173.41642
G1 X183.987 Y167.463 E173.47319
G1 X184 Y167.428 E173.47647
G1 X184 Y132.583 E176.5361
G1 X183.808 Y132.106 E176.58125
G1 X183.725 Y131.925 E176.59873
G1 X183.442 Y131.369 E176.65351
G1 X183.347 Y131.201 E176.67046
G1 X183.018 Y130.68 E176.72456
G1 X182.887 Y130.491 E176.74475
G1 X182.532 Y130.026 E176.79612
G1 X182.4 Y129.869 E176.81413
G1 X182.4 Y170.135 E180.34976
;;retract;;
G1 F6000 E172.34976
G0 F600 X182.4 Y170.135 Z0.54
G0 F7200 X184.788 Y133.877
;TIME_ELAPSED:109.468575

;LAYER:-3
;TYPE:SUPPORT
G1 F6000 E180.34976
G1 F1800 X177.233 Y126.321 E181.41592
G1 X177.72 Y126.432 E181.46576
G1 X177.926 Y126.488 E181.48706
G1 X178.555 Y126.692 E181.55304
G1 X178.732 Y126.758 E181.57189
G1 X179.337 Y127.015 E181.63748
G1 X179.344 Y127.019 E181.63828
G1 X184.092 Y131.766 E182.30821
G1 X184.172 Y131.939 E182.32723
G1 X184.414 Y132.54 E182.39187
G1 X184.491 Y132.761 E182.41523
G1 X184.668 Y133.347 E182.47631
G1 X184.73 Y133.59 E182.50133
G1 X184.856 Y134.202 E182.56368
G1 X184.892 Y134.425 E182.58621
G1 X184.966 Y135.07 E182.651
G1 X184.979 Y135.241 E182.66811
G1 X184.986 Y135.489 E182.69286
G1 X175.626 Y126.128 E184.01373
G1 X175.332 Y126.115 E184.04309
G1 X174.198 Y126.115 E184.15624
G1 X184.998 Y136.915 E185.68024
G1 X184.998 Y138.329 E185.82133
G1 X172.784 Y126.115 E187.54486
G1 X171.37 Y126.115 E187.68595
G1 X184.998 Y139.744 E189.60908
G1 X184.998 Y141.158 E189.75017
G1 X169.955 Y126.115 E191.8729
G1 X168.541 Y126.115 E192.01399
G1 X184.998 Y142.572 E194.33625
G1 X184.998 Y143.986 E194.47734
G1 X167.127 Y126.115 E196.99913
G1 X165.713 Y126.115 E197.14022
G1 X184.998 Y145.4 E199.86154
G1 X184.998 Y146.814 E200.00263
G1 X164.298 Y126.114 E202.92362
G1 X162.884 Y126.114 E203.06471
G1 X184.998 Y148.228 E206.18523
G1 X184.998 Y149.642 E206.32632
G1 X161.469 Y126.114 E209.64645
G1 X160.055 Y126.114 E209.78754
G1 X184.997 Y151.056 E213.30712
G1 X184.997 Y152.47 E213.44821
G1 X158.641 Y126.114 E217.16733
G1 X157.227 Y126.114 E217.30842
G1 X184.997 Y153.884 E221.22707
G1 X184.997 Y155.299 E221.36826
G1 X155.813 Y126.114 E225.4865
G1 X154.398 Y126.113 E225.62769
G1 X184.997 Y156.713 E229.94561
G1 X184.996 Y158.126 E230.0866
G1 X152.983 Y126.113 E234.60398
G1 X151.569 Y126.113 E234.74507
G1 X184.996 Y159.54 E239.46198
G1 X184.996 Y160.955 E239.60317
G1 X150.155 Y126.113 E244.51969
G1 X148.741 Y126.113 E244.66077
G1 X184.996 Y162.369 E249.77682
G1 X184.996 Y163.783 E249.91791
G1 X147.327 Y126.113 E255.23348
G1 X145.912 Y126.113 E255.37467
G1 X184.945 Y165.146 E260.88265
G1 X184.86 Y165.773 E260.94578
G1 X184.822 Y165.983 E260.96708
G1 X184.738 Y166.353 E261.00493
G1 X144.497 Y126.113 E266.6833
G1 X143.083 Y126.113 E266.82439
G1 X184.417 Y167.447 E272.65707
G1 X184.355 Y167.62 E272.6754
G1 X184.1 Y168.219 E272.74036
G1 X184.01 Y168.405 E272.76098
G1 X183.993 Y168.437 E272.7646
G1 X141.669 Y126.113 E278.73697
G1 X140.255 Y126.113 E278.87806
G1 X183.479 Y169.337 E284.97743
G1 X183.248 Y169.69 E285.01953
G1 X183.099 Y169.897 E285.04498
G1 X182.889 Y170.161 E285.07864
G1 X138.841 Y126.113 E291.29428
G1 X137.426 Y126.113 E291.43547
G1 X182.225 Y170.911 E297.75703
G1 X182.072 Y171.075 E297.7794
G1 X181.52 Y171.579 E297.85399
G1 X181.496 Y171.597 E297.85698
G1 X136.012 Y126.113 E304.27527
G1 X134.597 Y126.112 E304.41645
G1 X180.694 Y172.209 E310.92124
G1 X180.66 Y172.235 E310.92551
G1 X180.113 Y172.58 E310.99004
G1 X179.946 Y172.675 E311.00921
G1 X179.813 Y172.741 E311.02402
G1 X133.183 Y126.112 E317.60395
G1 X131.769 Y126.112 E317.74504
G1 X178.847 Y173.19 E324.38825
G1 X178.572 Y173.302 E324.41788
G1 X178.355 Y173.378 E324.44082
G1 X177.789 Y173.547 E324.49976
G1 X130.355 Y126.112 E331.19328
G1 X128.94 Y126.112 E331.33447
G1 X176.616 Y173.787 E338.062
G1 X176.042 Y173.854 E338.11966
G1 X175.866 Y173.867 E338.13727
G1 X175.3 Y173.886 E338.19378
G1 X127.526 Y126.112 E344.93521
G1 X126.112 Y126.112 E345.0763
G1 X173.887 Y173.887 E351.81787
G1 X172.473 Y173.887 E351.95896
G1 X124.699 Y126.113 E358.70038
G1 X124.134 Y126.133 E358.7568
G1 X123.958 Y126.146 E358.7744
G1 X123.383 Y126.211 E358.83214
G1 X171.059 Y173.887 E365.55974
G1 X169.644 Y173.887 E365.70093
G1 X122.209 Y126.451 E372.39459
G1 X121.645 Y126.622 E372.4534
G1 X121.428 Y126.698 E372.47634
G1 X121.152 Y126.808 E372.50599
G1 X168.23 Y173.887 E379.14927
G1 X166.816 Y173.887 E379.29036
G1 X120.186 Y127.257 E385.87036
G1 X120.054 Y127.325 E385.88517
G1 X119.887 Y127.42 E385.90434
G1 X119.34 Y127.765 E385.96887
G1 X119.304 Y127.789 E385.97319
G1 X165.401 Y173.886 E392.47798
G1 X163.987 Y173.886 E392.61906
G1 X118.502 Y128.402 E399.03742
G1 X118.48 Y128.421 E399.04032
G1 X117.929 Y128.924 E399.11476
G1 X117.773 Y129.087 E399.13727
G1 X162.573 Y173.886 E405.45897
G1 X161.158 Y173.886 E405.60016
G1 X117.109 Y129.837 E411.81595
G1 X116.901 Y130.103 E411.84964
G1 X116.752 Y130.31 E411.87509
G1 X116.519 Y130.662 E411.91721
G1 X159.744 Y173.886 E418.01665
G1 X158.329 Y173.886 E418.15784
G1 X116.006 Y131.562 E424.13015
G1 X115.99 Y131.595 E424.1338
G1 X115.9 Y131.781 E424.15442
G1 X115.645 Y132.38 E424.21938
G1 X115.581 Y132.552 E424.23769
G1 X156.915 Y173.886 E430.07037
G1 X155.501 Y173.886 E430.21146
G1 X115.261 Y133.646 E435.88975
G1 X115.178 Y134.015 E435.92749
G1 X115.14 Y134.227 E435.94898
G1 X115.054 Y134.853 E436.01203
G1 X154.087 Y173.886 E441.52001
G1 X152.672 Y173.886 E441.6612
G1 X115.002 Y136.215 E446.97692
G1 X115.002 Y137.629 E447.118
G1 X151.258 Y173.886 E452.23419
G1 X149.843 Y173.885 E452.37538
G1 X115.002 Y139.044 E457.29182
G1 X115.002 Y140.458 E457.43291
G1 X148.429 Y173.885 E462.14982
G1 X147.015 Y173.885 E462.29091
G1 X115.002 Y141.872 E466.80829
G1 X115.001 Y143.285 E466.94928
G1 X145.601 Y173.885 E471.26727
G1 X144.186 Y173.885 E471.40846
G1 X115.001 Y144.7 E475.52678
G1 X115.001 Y146.114 E475.66787
G1 X142.772 Y173.885 E479.58666
G1 X141.357 Y173.884 E479.72784
G1 X115.001 Y147.528 E483.44696
G1 X115.001 Y148.942 E483.58805
G1 X139.943 Y173.884 E487.10764
G1 X138.529 Y173.884 E487.24873
G1 X115.001 Y150.356 E490.56878
G1 X115.001 Y151.77 E490.70987
G1 X137.115 Y173.884 E493.83039
G1 X135.7 Y173.884 E493.97158
G1 X115.001 Y153.184 E496.89251
G1 X115.001 Y154.598 E497.0336
G1 X134.286 Y173.884 E499.75499
G1 X132.871 Y173.883 E499.89618
G1 X115.001 Y156.013 E502.41783
G1 X115 Y157.426 E502.55882
G1 X131.457 Y173.883 E504.88108
G1 X130.043 Y173.883 E505.02217
G1 X115 Y158.84 E507.1449
G1 X115 Y160.255 E507.28609
G1 X128.629 Y173.883 E509.20922
G1 X127.214 Y173.883 E509.3504
G1 X115 Y161.669 E511.07393
G1 X115 Y163.083 E511.21502
G1 X125.8 Y173.883 E512.73902
G1 X124.668 Y173.885 E512.85197
G1 X124.373 Y173.87 E512.88144
G1 X115.012 Y164.509 E514.20238
G1 X115.02 Y164.743 E514.22574
G1 X115.033 Y164.92 E514.24345
G1 X115.108 Y165.575 E514.30924
G1 X115.144 Y165.798 E514.33177
G1 X115.27 Y166.41 E514.39412
G1 X115.331 Y166.65 E514.41883
G1 X115.509 Y167.239 E514.48022
G1 X115.586 Y167.46 E514.50358
G1 X115.828 Y168.061 E514.56822
G1 X115.906 Y168.232 E514.58698
G1 X120.654 Y172.98 E515.25697
G1 X120.663 Y172.985 E515.258
G1 X121.262 Y173.24 E515.32296
G1 X121.445 Y173.308 E515.34244
G1 X122.074 Y173.512 E515.40842
G1 X122.28 Y173.568 E515.42972
G1 X122.766 Y173.678 E515.47944
G1 X115.21 Y166.122 E516.54567
;;retract;;
G1 F6000 E508.54567
G0 F600 X115.21 Y166.122 Z0.74
G0 F7200 X121.695 Y173.6
;TIME_ELAPSED:227.029086

;LAYER:-2
;TYPE:SUPPORT-INTERFACE
G1 F6000 E516.54567
G1 F2400 X178.311 Y173.6 E518.42873
G1 X177.815 Y173.75 E518.44596
G1 X177.575 Y173.811 E518.4542
G1 X176.951 Y173.94 E518.47539
G1 X176.728 Y173.976 E518.4829
G1 X176.521 Y174 E518.48984
G1 X123.482 Y174 E520.25392
G1 X123.079 Y173.945 E520.26745
G1 X122.867 Y173.907 E520.27461
G1 X122.231 Y173.762 E520.29631
G1 X122.011 Y173.702 E520.30389
G1 X121.391 Y173.501 E520.32557
G1 X121.18 Y173.423 E520.33305
G1 X120.654 Y173.2 E520.35205
G1 X179.348 Y173.2 E522.30422
G1 X179.438 Y173.159 E522.30751
G1 X180.038 Y172.852 E522.32993
G1 X180.129 Y172.8 E522.33342
G1 X119.873 Y172.8 E524.33754
G1 X119.798 Y172.759 E524.34038
G1 X119.615 Y172.65 E524.34747
G1 X119.234 Y172.4 E524.36262
G1 X180.773 Y172.4 E526.40942
G1 X180.781 Y172.395 E526.40973
G1 X180.963 Y172.269 E526.41709
G1 X181.315 Y172 E526.43183
G1 X118.685 Y172 E528.51491
G1 X118.367 Y171.747 E528.52843
G1 X118.209 Y171.611 E528.53536
G1 X118.196 Y171.6 E528.53593
G1 X181.793 Y171.6 E530.65117
G1 X182.219 Y171.212 E530.67034
G1 X182.23 Y171.2 E530.67088
G1 X117.773 Y171.2 E532.81473
G1 X117.682 Y171.113 E532.81891
G1 X117.395 Y170.8 E532.83304
G1 X182.608 Y170.8 E535.00203
G1 X182.723 Y170.679 E535.00758
G1 X182.864 Y170.515 E535.01478
G1 X182.955 Y170.4 E535.01966
G1 X117.039 Y170.4 E537.21203
