;FLAVOR:Marlin
;TIME:39004
;Filament used:39.497m
;Layer height: 0.2
;MINX:18.414
;MINY:23.963
;MINZ:0.24
;MAXX:281.597
;MAXY:276.036
;MAXZ:3.06
                             
;Creality Print GCode Generated by CXEngineDEV
;Generated Time:2022-06-30 15:03:19
;----------Machine Config--------------
;Machine Name:Creality CR-10S
;Machine Height:400
;Machine Width:300
;Machine Depth:300
;Material name:Castable
;Number of Extruders:1
;ExtruderParams[0] Nozzle Diameter1000
;----------Profile Config---------------
;Layer Height:0.2
;Wall Thickness:0.8
;Top/Bottom Thickness:1
;Out Wall Line Width:0.4
;Inner Wall Line Width:0.4
;Inital Layer Height:200
;Wall Line Count:2
;Infill Line Distance:4
;Infill Pattern:grid
;Infill Sparse Density:20
;Infill Wipe Distance:0
;Print Temperature:210
;Bed Temperature:60
;Support Enable:true
;Support Density:30
;Support Angle:1.0472
;Adhesion Type:simpleraft
;machine is belt:false
;machine belt offset:10
;machine belt offset Y:0
;Raft Base Line Spacing:1.6
;Wait Heatup Sync:true
;----------Shell Config----------------
;Outer Wall Wipe Distance:200
;Infill Before Walls:false
;Infill Overlap:0.16
;Fill Gaps Between Walls:everywhere
;Minimum Infill Area:1
;Top Surface Skin Layer:0
;Top Layers:3
;Z Seam Alignment:sharpest_corner
;Seam Corner Preference:z_seam_corner_inner
;Z Seam X:150
;Z Seam Y:150
;Horizontal Expansion:0
;Top/Bottom Pattern:zigzag
;Ironing Pattern:zigzag
;Vase Model:false
;----------Support Config----------------
;Support Type:everywhere
;Support Pattern:zigzag
;Support Infill Layer Thickness:0.2
;Minimum Support Area:10
;Enable Support Roof:false
;Support Roof Thickness:0.8
;Support Roof Pattern:lines
;Connect Support Lines:0
;Connect Support ZigZags:1
;Minimum Support X/Y Distance:0.2
;Support Line Distance:1.33
; ---------PrintSpeed & Travel----------
;Enable Print Cool:true
;Avoid Printed Parts Traveling:true
;Enable Retraction:true
;Retraction Distance:8
;Retraction Speed:100
;Retraction Prime Speed:100
;Maximum Retraction Count:100
;Minimum Extrusion Distance Window:1
;Z Hop When Retracted:false
;Z Hop Height:0.2
;Retract Before Outer Wall:true
;Print Speed:45
;Infill Speed:45

;Prime Tower Speed:45
;Travel Speed:120
;Initial Layer Speed:22.5
;Skirt/Brim Speed:22.5
;Combing Mode:off
; --------SpecialModel&Mesh Fixes--------
;Union Overlapping Volum:true
;Remove All Holes:false
;Maximum Travel Resolution:0.67
;Maximum Deviation:0.05
;Maximum Model Angle:0.872665
;IS Mold Print:false
;Make Overhang Printable:false
;Enable Coasting:false
;Coasting Volumes:0.06
;Coasting Speed:0.9
;Raft AirGap:0.25
;Layer0 ZOverLap:0.13
;---------------------End of Head--------------------------
M140 S60
M105
M104 S210
M105
M109 S210
M105
M190 S60
M82 ;absolute extrusion mode
M220 S100 ;Reset Feedrate
M221 S100 ;Reset Flowrate

G28 ;Home

G92 E0 ;Reset Extruder
G1 Z2.0 F3000 ;Move Z Axis up
G1 X10.1 Y20 Z0.28 F5000.0 ;Move to start position
G1 X10.1 Y145.0 Z0.28 F1500.0 E15 ;Draw the first line
G1 X10.4 Y145.0 Z0.28 F5000.0 ;Move to side a little
G1 X10.4 Y20 Z0.28 F1500.0 E30 ;Draw the second line
G92 E0  ;Reset Extruder
G1 E-1.0000 F1800 ;Retract a bit
G1 Z2.0 F3000 ;Move Z Axis up
G1 E0.0000 F1800 

G92 E0
G92 E0
G1 F6000 E-8

;LAYER_COUNT:10

;LAYER:-4
M107
G0 F7200 X75.095 Y28.387 Z0.24
;TYPE:SUPPORT-INTERFACE
G1 F6000 E0
G1 F1200 X75.2 Y28.254 E0.01488
G1 X75.2 Y270.207 E21.25999
G1 X76.8 Y270.208 E21.40048
G1 X76.8 Y26.617 E42.78941
G1 X77.255 Y26.271 E42.83961
G1 X77.438 Y26.144 E42.85917
G1 X77.955 Y25.818 E42.91283
G1 X78.122 Y25.723 E42.9297
G1 X78.4 Y25.581 E42.95711
G1 X78.4 Y270.208 E64.43702
G1 X80 Y270.208 E64.57751
G1 X80 Y24.943 E86.11343
G1 X80.221 Y24.877 E86.13368
G1 X80.423 Y24.825 E86.152
G1 X81.03 Y24.7 E86.20642
G1 X81.247 Y24.665 E86.22572
G1 X81.6 Y24.624 E86.25692
G1 X81.6 Y270.208 E107.82086
G1 X83.2 Y270.208 E107.96135
G1 X83.2 Y24.563 E129.53064
G1 X84.8 Y24.563 E129.67113
G1 X84.8 Y270.208 E151.24042
G1 X86.4 Y270.209 E151.38091
G1 X86.4 Y24.563 E172.95029
G1 X88 Y24.563 E173.09078
G1 X88 Y270.209 E194.66016
G1 X89.6 Y270.209 E194.80065
G1 X89.6 Y24.563 E216.37003
G1 X91.2 Y24.563 E216.51052
G1 X91.2 Y270.209 E238.0799
G1 X92.8 Y270.209 E238.22039
G1 X92.8 Y24.563 E259.78977
G1 X94.4 Y24.563 E259.93026
G1 X94.4 Y270.209 E281.49964
G1 X95.179 Y270.21 E281.56804
G1 X95.796 Y270.189 E281.62225
G1 X95.96 Y270.177 E281.63669
G1 X96 Y270.173 E281.64022
G1 X96 Y24.563 E303.20644
G1 X97.6 Y24.563 E303.34693
G1 X97.6 Y269.894 E324.88865
G1 X98.175 Y269.721 E324.94137
G1 X98.415 Y269.636 E324.96373
G1 X98.787 Y269.52 E324.99794
G1 X99.2 Y269.434 E325.03498
G1 X99.2 Y24.563 E346.53631
G1 X100.8 Y24.564 E346.6768
G1 X100.8 Y269.341 E368.16988
G1 X100.957 Y269.349 E368.18368
G1 X101.345 Y269.416 E368.21826
G1 X101.358 Y269.359 E368.22339
G1 X102.4 Y269.695 E368.31952
G1 X102.4 Y24.564 E389.84368
G1 X104 Y24.564 E389.98417
G1 X104 Y270.098 E411.54372
G1 X104.521 Y270.17 E411.5899
G1 X104.7 Y270.185 E411.60567
G1 X105.408 Y270.217 E411.6679
G1 X105.6 Y270.217 E411.68476
G1 X105.6 Y24.564 E433.25475
G1 X107.2 Y24.564 E433.39525
G1 X107.2 Y270.217 E454.96524
G1 X108.8 Y270.217 E455.10573
G1 X108.8 Y24.564 E476.67572
G1 X110.4 Y24.564 E476.81621
G1 X110.4 Y270.217 E498.38621
G1 X112 Y270.217 E498.5267
G1 X112 Y24.564 E520.09669
G1 X113.6 Y24.564 E520.23718
G1 X113.6 Y270.217 E541.80718
G1 X115.2 Y270.218 E541.94767
G1 X115.2 Y24.564 E563.51775
G1 X116.8 Y24.565 E563.65824
G1 X116.8 Y270.218 E585.22823
G1 X118.4 Y270.218 E585.36872
G1 X118.4 Y24.565 E606.93872
G1 X120 Y24.565 E607.07921
G1 X120 Y270.218 E628.6492
G1 X121.6 Y270.218 E628.78969
G1 X121.6 Y24.565 E650.35969
G1 X123.2 Y24.565 E650.50018
G1 X123.2 Y270.218 E672.07017
G1 X124.8 Y270.219 E672.21066
G1 X124.8 Y24.565 E693.78074
G1 X126.4 Y24.565 E693.92123
G1 X126.4 Y270.219 E715.49132
G1 X128 Y270.219 E715.63181
G1 X128 Y24.565 E737.20189
G1 X129.6 Y24.565 E737.34238
G1 X129.6 Y270.219 E758.91246
G1 X131.2 Y270.219 E759.05295
G1 X131.2 Y24.565 E780.62303
G1 X132.8 Y24.565 E780.76352
G1 X132.8 Y270.226 E802.33422
G1 X133.046 Y270.235 E802.35583
G1 X133.762 Y270.332 E802.41928
G1 X134.4 Y270.502 E802.47725
G1 X134.4 Y24.658 E824.06402
G1 X134.684 Y24.696 E824.08918
G1 X134.896 Y24.734 E824.10809
G1 X135.493 Y24.87 E824.16185
G1 X135.691 Y24.924 E824.17987
G1 X136 Y25.025 E824.20842
G1 X136 Y271.316 E845.83443
G1 X136.377 Y271.599 E845.87583
G1 X136.886 Y272.09 E845.93792
G1 X137.349 Y272.598 E845.99828
G1 X137.507 Y272.758 E846.01802
G1 X137.6 Y272.844 E846.02914
G1 X137.6 Y25.72 E867.7283
G1 X137.778 Y25.815 E867.74602
G1 X137.947 Y25.916 E867.7633
G1 X138.438 Y26.239 E867.81491
G1 X138.645 Y26.388 E867.83731
G1 X139.116 Y26.762 E867.89011
G1 X139.2 Y26.835 E867.89989
G1 X139.2 Y274.081 E889.60976
G0 F7200 X139.203 Y274.083
G1 F1200 X139.367 Y274.181 E889.62653
G1 X139.948 Y274.492 E889.6844
G1 X140.1 Y274.566 E889.69924
G1 X140.693 Y274.819 E889.75585
G1 X140.8 Y274.858 E889.76585
G1 X140.8 Y28.422 E911.4046
G1 X141.367 Y28.845 E911.46671
G1 X142.005 Y29.206 E911.53108
G1 X142.4 Y29.367 E911.56853
G1 X142.4 Y275.291 E933.16232
G1 X142.466 Y275.303 E933.16821
G1 X143.079 Y275.387 E933.22254
G1 X143.258 Y275.402 E933.23831
G1 X143.966 Y275.434 E933.30054
G1 X144 Y275.434 E933.30353
G1 X144 Y29.754 E954.87589
G1 X144.11 Y29.768 E954.88563
G1 X144.519 Y29.783 E954.92157
G1 X145.6 Y29.784 E955.01649
G1 X145.6 Y275.434 E976.58622
G1 X147.2 Y275.434 E976.72671
G1 X147.2 Y29.784 E998.29644
G1 X148.8 Y29.784 E998.43693
G1 X148.8 Y275.434 E1020.00666
G1 X150.4 Y275.434 E1020.14715
G1 X150.4 Y29.784 E1041.71688
G1 X152 Y29.784 E1041.85737
G1 X152 Y275.434 E1063.4271
G1 X153.6 Y275.434 E1063.56759
G1 X153.6 Y29.784 E1085.13732
G1 X155.2 Y29.784 E1085.27781
G1 X155.2 Y275.434 E1106.84754
G1 X156.8 Y275.434 E1106.98803
G1 X156.8 Y29.784 E1128.55776
G1 X158.4 Y29.784 E1128.69826
G1 X158.4 Y275.434 E1150.26799
G1 X160 Y275.434 E1150.40848
G1 X160 Y29.784 E1171.97821
G1 X161.6 Y29.785 E1172.1187
G1 X161.6 Y275.435 E1193.68843
G1 X163.2 Y275.435 E1193.82892
G1 X163.2 Y29.785 E1215.39865
G1 X164.8 Y29.785 E1215.53914
G1 X164.8 Y275.435 E1237.10887
G1 X166.4 Y275.435 E1237.24936
G1 X166.4 Y29.785 E1258.81909
G1 X168 Y29.785 E1258.95958
G1 X168 Y275.435 E1280.52931
G1 X169.6 Y275.435 E1280.6698
G1 X169.6 Y29.785 E1302.23953
G1 X171.2 Y29.785 E1302.38002
G1 X171.2 Y275.435 E1323.94975
G1 X172.8 Y275.435 E1324.09024
G1 X172.8 Y29.785 E1345.65997
G1 X174.4 Y29.785 E1345.80047
G1 X174.4 Y275.435 E1367.3702
G1 X176 Y275.435 E1367.51069
G1 X176 Y29.785 E1389.08042
G1 X177.6 Y29.786 E1389.22091
G1 X177.6 Y275.435 E1410.79055
G1 X179.2 Y275.436 E1410.93104
G1 X179.2 Y29.786 E1432.50077
G1 X180.8 Y29.786 E1432.64126
G1 X180.8 Y275.436 E1454.21099
G1 X182.4 Y275.436 E1454.35148
G1 X182.4 Y29.786 E1475.92121
G1 X184 Y29.786 E1476.0617
G1 X184 Y275.436 E1497.63143
G1 X185.6 Y275.436 E1497.77193
G1 X185.6 Y29.786 E1519.34166
G1 X187.2 Y29.786 E1519.48215
G1 X187.2 Y275.436 E1541.05188
G1 X188.8 Y275.436 E1541.19237
G1 X188.8 Y29.786 E1562.7621
G1 X190.4 Y29.786 E1562.90259
G1 X190.4 Y275.436 E1584.47232
G1 X192 Y275.436 E1584.61281
G1 X192 Y29.786 E1606.18254
G1 X193.6 Y29.786 E1606.32303
G1 X193.6 Y275.436 E1627.89276
G1 X194.512 Y275.437 E1627.97284
G1 X195.129 Y275.416 E1628.02705
G1 X195.2 Y275.411 E1628.0333
G1 X195.2 Y29.883 E1649.59232
G1 X195.454 Y29.917 E1649.61482
G1 X195.666 Y29.955 E1649.63373
G1 X196.263 Y30.091 E1649.68749
G1 X196.461 Y30.145 E1649.70551
G1 X196.8 Y30.256 E1649.73684
G1 X196.8 Y275.156 E1671.24071
G1 X196.929 Y275.122 E1671.25242
G1 X197.507 Y274.948 E1671.30543
G1 X197.72 Y274.873 E1671.32525
G1 X198.286 Y274.645 E1671.37883
G1 X198.4 Y274.593 E1671.38984
G1 X198.4 Y30.957 E1692.78272
G1 X198.548 Y31.036 E1692.79745
G1 X198.717 Y31.137 E1692.81474
G1 X199.208 Y31.46 E1692.86635
G1 X199.415 Y31.609 E1692.88874
G1 X199.886 Y31.983 E1692.94155
G1 X200 Y32.082 E1692.95481
G1 X200 Y273.648 E1714.16594
G1 X200.384 Y273.354 E1714.2084
G1 X200.537 Y273.227 E1714.22586
G1 X201.073 Y272.737 E1714.28963
G1 X201.6 Y272.178 E1714.35709
G1 X201.6 Y33.868 E1735.28232
G1 X201.658 Y33.951 E1735.29121
G1 X201.984 Y34.468 E1735.34487
G1 X202.074 Y34.626 E1735.36084
G1 X202.365 Y35.196 E1735.41704
G1 X202.448 Y35.377 E1735.43452
G1 X202.676 Y35.943 E1735.4881
G1 X202.753 Y36.164 E1735.50865
G1 X202.94 Y36.781 E1735.56526
G1 X203.186 Y37.445 E1735.62744
G1 X203.2 Y37.472 E1735.63011
G1 X203.2 Y270.914 E1756.12789
G1 X203.796 Y270.632 E1756.18579
G1 X204.492 Y270.403 E1756.25012
G1 X204.8 Y270.344 E1756.27766
G1 X204.8 Y39.551 E1776.54284
G1 X204.995 Y39.717 E1776.56533
G1 X205.607 Y40.121 E1776.62972
G1 X206.267 Y40.443 E1776.6942
G1 X206.4 Y40.489 E1776.70656
G1 X206.4 Y270.22 E1796.87849
G1 X208 Y270.22 E1797.01899
G1 X208 Y40.852 E1817.15905
G1 X208.457 Y40.883 E1817.19927
G1 X209.6 Y40.884 E1817.29963
G1 X209.6 Y270.22 E1837.43688
G1 X211.2 Y270.22 E1837.57737
G1 X211.2 Y40.884 E1857.71462
G1 X212.8 Y40.884 E1857.85511
G1 X212.8 Y270.22 E1877.99236
G1 X214.4 Y270.22 E1878.13285
G1 X214.4 Y40.884 E1898.2701
G1 X216 Y40.884 E1898.4106
G1 X216 Y270.22 E1918.54785
G1 X217.6 Y270.22 E1918.68834
G1 X217.6 Y40.884 E1938.82559
G1 X219.2 Y40.884 E1938.96608
G1 X219.2 Y270.22 E1959.10333
G1 X220.8 Y270.22 E1959.24382
G1 X220.8 Y40.884 E1979.38107
G1 X222.4 Y40.884 E1979.52156
G1 X222.4 Y270.22 E1999.65881
G1 X224 Y270.22 E1999.7993
G1 X224 Y40.885 E2019.93647
G1 X225.6 Y40.885 E2020.07696
G1 X225.6 Y270.22 E2040.21412
G1 X227.2 Y270.22 E2040.35461
G1 X227.2 Y40.885 E2060.49177
G1 X228.8 Y40.885 E2060.63226
G1 X228.8 Y270.22 E2080.76943
G1 X230.4 Y270.22 E2080.90992
G1 X230.4 Y40.885 E2101.04708
G1 X232 Y40.885 E2101.18757
G1 X232 Y270.22 E2121.32473
G1 X233.079 Y270.22 E2121.41948
G1 X233.6 Y270.203 E2121.46525
G1 X233.6 Y40.885 E2141.60092
G1 X235.2 Y40.885 E2141.74141
G1 X235.2 Y269.977 E2161.85724
G1 X235.294 Y269.957 E2161.86568
G1 X235.496 Y269.905 E2161.88399
G1 X236.099 Y269.722 E2161.93932
G1 X236.377 Y269.626 E2161.96515
G1 X236.8 Y269.521 E2162.00342
G1 X236.8 Y40.885 E2182.0792
G1 X238.4 Y40.885 E2182.21969
G1 X238.4 Y269.327 E2202.27845
G1 X238.813 Y269.342 E2202.31473
G1 X239.351 Y269.429 E2202.36259
G1 X239.368 Y269.385 E2202.36673
G1 X240 Y269.588 E2202.42502
G1 X240 Y40.886 E2222.5066
G1 X241.6 Y40.886 E2222.64709
G1 X241.6 Y270.038 E2242.76818
G1 X241.809 Y270.076 E2242.78683
G1 X242.422 Y270.16 E2242.84116
G1 X242.601 Y270.175 E2242.85693
G1 X243.2 Y270.202 E2242.90958
G1 X243.2 Y40.886 E2263.04508
G1 X244.8 Y40.886 E2263.18557
G1 X244.8 Y270.207 E2283.3215
G1 X246.4 Y270.207 E2283.46199
G1 X246.4 Y40.886 E2303.59793
G1 X248 Y40.886 E2303.73842
G1 X248 Y270.207 E2323.87435
G1 X249.6 Y270.207 E2324.01484
G1 X249.6 Y40.886 E2344.15078
G1 X251.2 Y40.886 E2344.29127
G1 X251.2 Y270.207 E2364.4272
G1 X252.8 Y270.208 E2364.56769
G1 X252.8 Y40.886 E2384.70371
G1 X254.4 Y40.886 E2384.8442
G1 X254.4 Y270.208 E2404.98023
G1 X256 Y270.208 E2405.12072
G1 X256 Y40.987 E2425.24787
G1 X256.224 Y41.017 E2425.26771
G1 X256.436 Y41.055 E2425.28663
G1 X257.033 Y41.191 E2425.34039
G1 X257.231 Y41.245 E2425.35841
G1 X257.6 Y41.365 E2425.39248
G1 X257.6 Y270.208 E2445.48644
G1 X259.2 Y270.208 E2445.62693
G1 X259.2 Y42.073 E2465.65873
G1 X259.318 Y42.136 E2465.67047
G1 X259.487 Y42.237 E2465.68776
G1 X259.978 Y42.56 E2465.73937
G1 X260.185 Y42.709 E2465.76176
G1 X260.656 Y43.083 E2465.81457
G1 X260.796 Y43.204 E2465.83082
G1 X260.8 Y43.208 E2465.83132
G1 X260.8 Y270.208 E2485.76345
G1 X262.4 Y270.209 E2485.90394
G1 X262.4 Y45.011 E2505.67785
G1 X262.428 Y45.051 E2505.68214
G1 X262.754 Y45.568 E2505.7358
G1 X262.844 Y45.726 E2505.75177
G1 X263.135 Y46.296 E2505.80796
G1 X263.218 Y46.477 E2505.82545
G1 X263.446 Y47.043 E2505.87903
G1 X263.523 Y47.264 E2505.89958
G1 X263.69 Y47.817 E2505.9503
G1 X263.752 Y48.06 E2505.97232
G1 X263.874 Y48.654 E2506.02557
G1 X263.907 Y48.86 E2506.04389
G1 X263.977 Y49.471 E2506.09789
G1 X263.989 Y49.626 E2506.11154
G1 X264 Y49.943 E2506.13939
G1 X264 Y270.209 E2525.48023
G1 X265.6 Y270.209 E2525.62072
G1 X265.6 Y77.642 E2542.52941
G0 F7200 X265.601 Y77.643
G1 F1200 X266.138 Y78.141 E2542.59371
G1 X266.736 Y78.57 E2542.65834
G1 X267.2 Y78.821 E2542.70466
G1 X267.2 Y270.209 E2559.50982
G1 X268.8 Y270.209 E2559.65031
G1 X268.8 Y79.364 E2576.40779
G1 X269.774 Y79.45 E2576.49365
G1 X270.4 Y79.451 E2576.54861
G1 X270.4 Y270.209 E2593.29846
G1 X271.629 Y270.21 E2593.40637
G1 X272 Y270.198 E2593.43896
G1 X272 Y79.467 E2610.18643
G1 X272.41 Y79.485 E2610.22247
G1 X272.589 Y79.5 E2610.23824
G1 X273.202 Y79.584 E2610.29257
G1 X273.414 Y79.622 E2610.31148
G1 X273.6 Y79.665 E2610.32825
G1 X273.6 Y269.998 E2627.04077
G1 X273.844 Y269.947 E2627.06266
G1 X274.046 Y269.895 E2627.08097
G1 X274.634 Y269.717 E2627.13492
G1 X274.837 Y269.646 E2627.1538
G1 X275.2 Y269.501 E2627.18812
G1 X275.2 Y80.165 E2643.8131
G1 X275.557 Y80.316 E2643.84714
G1 X275.716 Y80.393 E2643.86265
G1 X276.296 Y80.703 E2643.9204
G1 X276.465 Y80.804 E2643.93768
G1 X276.8 Y81.025 E2643.97292
G1 X276.8 Y268.647 E2660.4474
G1 X276.829 Y268.628 E2660.45045
G1 X277.005 Y268.506 E2660.46925
G1 X277.501 Y268.127 E2660.52406
G1 X277.654 Y268 E2660.54152
G1 X278.184 Y267.516 E2660.60454
G1 X278.688 Y266.983 E2660.66896
G1 X278.807 Y266.845 E2660.68496
G1 X279.172 Y266.385 E2660.73652
G0 F7200 X279.171 Y266.385
G1 F1200 X279.32 Y266.178 E2660.75891
G1 X279.643 Y265.687 E2660.81052
G1 X279.748 Y265.511 E2660.82851
G1 X280 Y265.04 E2660.87542
G1 X280 Y84.641 E2676.71567
G1 X279.83 Y84.307 E2676.74858
G1 X279.735 Y84.139 E2676.76552
G1 X279.406 Y83.618 E2676.81963
G1 X279.275 Y83.429 E2676.83982
G1 X278.92 Y82.964 E2676.89119
G1 X278.772 Y82.787 E2676.91145
G1 X278.4 Y82.38 E2676.95987
G1 X278.4 Y267.288 E2693.19604
;;retract;;
G1 F6000 E2685.19604
G0 F7200 X19.2 Y208.557
G1 F6000 E2693.19604
G1 F1200 X19.2 Y262.638 E2697.94471
G1 X19.159 Y262.439 E2697.96256
G1 X19.126 Y262.233 E2697.98087
G1 X19.055 Y261.614 E2698.03558
G1 X19.042 Y261.436 E2698.05125
G1 X19.023 Y260.863 E2698.10159
G1 X19.025 Y210.296 E2702.54172
G1 X19.056 Y209.594 E2702.60342
