;FLAVOR:Marlin
;TIME:13802
;Filament used:14.0797m
;Layer height: 0.2
;MINX:68.074
;MINY:76.234
;MINZ:0.24
;MAXX:231.925
;MAXY:223.766
;MAXZ:3.06
                            
;Creality Print GCode Generated by CXEngineDEV
;Generated Time:2022-06-30 15:03:19
;----------Machine Config--------------
;Machine Name:Creality CR-10S
;Machine Height:400
;Machine Width:300
;Machine Depth:300
;Material name:Castable
;Number of Extruders:1
;ExtruderParams[0] Nozzle Diameter1000
;----------Profile Config---------------
;Layer Height:0.2
;Wall Thickness:0.8
;Top/Bottom Thickness:1
;Out Wall Line Width:0.4
;Inner Wall Line Width:0.4
;Inital Layer Height:200
;Wall Line Count:2
;Infill Line Distance:4
;Infill Pattern:grid
;Infill Sparse Density:20
;Infill Wipe Distance:0
;Print Temperature:210
;Bed Temperature:60
;Support Enable:true
;Support Density:30
;Support Angle:1.0472
;Adhesion Type:simpleraft
;machine is belt:false
;machine belt offset:10
;machine belt offset Y:0
;Raft Base Line Spacing:1.6
;Wait Heatup Sync:true
;----------Shell Config----------------
;Outer Wall Wipe Distance:200
;Infill Before Walls:false
;Infill Overlap:0.16
;Fill Gaps Between Walls:everywhere
;Minimum Infill Area:1
;Top Surface Skin Layer:0
;Top Layers:3
;Z Seam Alignment:sharpest_corner
;Seam Corner Preference:z_seam_corner_inner
;Z Seam X:150
;Z Seam Y:150
;Horizontal Expansion:0
;Top/Bottom Pattern:zigzag
;Ironing Pattern:zigzag
;Vase Model:false
;----------Support Config----------------
;Support Type:everywhere
;Support Pattern:zigzag
;Support Infill Layer Thickness:0.2
;Minimum Support Area:10
;Enable Support Roof:false
;Support Roof Thickness:0.8
;Support Roof Pattern:lines
;Connect Support Lines:0
;Connect Support ZigZags:1
;Minimum Support X/Y Distance:0.2
;Support Line Distance:1.33
; ---------PrintSpeed & Travel----------
;Enable Print Cool:true
;Avoid Printed Parts Traveling:true
;Enable Retraction:true
;Retraction Distance:8
;Retraction Speed:100
;Retraction Prime Speed:100
;Maximum Retraction Count:100
;Minimum Extrusion Distance Window:1
;Z Hop When Retracted:false
;Z Hop Height:0.2
;Retract Before Outer Wall:true
;Print Speed:45
;Infill Speed:45

;Prime Tower Speed:45
;Travel Speed:120
;Initial Layer Speed:22.5
;Skirt/Brim Speed:22.5
;Combing Mode:off
; --------SpecialModel&Mesh Fixes--------
;Union Overlapping Volum:true
;Remove All Holes:false
;Maximum Travel Resolution:0.67
;Maximum Deviation:0.05
;Maximum Model Angle:0.872665
;IS Mold Print:false
;Make Overhang Printable:false
;Enable Coasting:false
;Coasting Volumes:0.06
;Coasting Speed:0.9
;Raft AirGap:0.25
;Layer0 ZOverLap:0.13
;---------------------End of Head--------------------------
M140 S60
M105
M104 S210
M105
M109 S210
M105
M190 S60
M82 ;absolute extrusion mode
M220 S100 ;Reset Feedrate
M221 S100 ;Reset Flowrate

G28 ;Home

G92 E0 ;Reset Extruder
G1 Z2.0 F3000 ;Move Z Axis up
G1 X10.1 Y20 Z0.28 F5000.0 ;Move to start position
G1 X10.1 Y145.0 Z0.28 F1500.0 E15 ;Draw the first line
G1 X10.4 Y145.0 Z0.28 F5000.0 ;Move to side a little
G1 X10.4 Y20 Z0.28 F1500.0 E30 ;Draw the second line
G92 E0  ;Reset Extruder
G1 E-1.0000 F1800 ;Retract a bit
G1 Z2.0 F3000 ;Move Z Axis up
G1 E0.0000 F1800 

G92 E0
G92 E0
G1 F6000 E-8

;LAYER_COUNT:10

;LAYER:-4
M107
G0 F7200 X75.715 Y80.667 Z0.24
;TYPE:SUPPORT-INTERFACE
G1 F6000 E0
G1 F1200 X76.08 Y80.207 E0.05156
G1 X76.199 Y80.069 E0.06756
G1 X76.704 Y79.535 E0.1321
G1 X76.8 Y79.447 E0.14353
G1 X76.8 Y220.549 E12.53324
G1 X77.114 Y220.846 E12.57119
G1 X77.249 Y220.963 E12.58688
G1 X77.725 Y221.341 E12.64025
G1 X77.932 Y221.49 E12.66265
G1 X78.4 Y221.797 E12.71179
G1 X78.4 Y78.208 E25.31988
G1 X78.575 Y78.098 E25.33803
G1 X78.742 Y78.003 E25.3549
G1 X79.303 Y77.717 E25.41019
G1 X79.484 Y77.634 E25.42767
G1 X80 Y77.426 E25.47652
G1 X80 Y222.581 E38.22211
G1 X80.084 Y222.612 E38.22998
G1 X80.679 Y222.805 E38.2849
G1 X80.877 Y222.859 E38.30292
G1 X81.474 Y222.995 E38.35668
G1 X81.6 Y223.017 E38.36792
G1 X81.6 Y76.99 E51.19007
G1 X81.65 Y76.98 E51.19455
G1 X81.867 Y76.945 E51.21385
G1 X82.477 Y76.875 E51.26776
G1 X82.641 Y76.863 E51.2822
G1 X83.2 Y76.843 E51.33132
G1 X83.2 Y223.164 E64.17929
G1 X84.8 Y223.164 E64.31978
G1 X84.8 Y76.843 E77.16775
G1 X86.4 Y76.843 E77.30825
G1 X86.4 Y223.164 E90.15622
G1 X88 Y223.164 E90.29671
G1 X88 Y76.843 E103.14468
G1 X89.6 Y76.843 E103.28517
G1 X89.6 Y223.164 E116.13315
G1 X91.2 Y223.164 E116.27364
G1 X91.2 Y76.843 E129.12161
G1 X92.8 Y76.843 E129.2621
G1 X92.8 Y223.164 E142.11007
G1 X94.4 Y223.164 E142.25056
G1 X94.4 Y76.843 E155.09854
G1 X96 Y76.844 E155.23903
G1 X96 Y223.164 E168.08691
G1 X97.6 Y223.164 E168.2274
G1 X97.6 Y76.844 E181.07529
G1 X99.2 Y76.844 E181.21578
G1 X99.2 Y223.164 E194.06366
G1 X100.8 Y223.165 E194.20415
G1 X100.8 Y76.844 E207.05213
G1 X102.4 Y76.844 E207.19262
G1 X102.4 Y223.165 E220.04059
G1 X104 Y223.165 E220.18108
G1 X104 Y76.844 E233.02905
G1 X105.6 Y76.844 E233.16954
G1 X105.6 Y223.165 E246.01752
G1 X107.2 Y223.165 E246.15801
G1 X107.2 Y76.844 E259.00598
G1 X108.8 Y76.845 E259.14647
G1 X108.8 Y223.165 E271.99436
G1 X110.4 Y223.165 E272.13485
G1 X110.4 Y76.845 E284.98273
G1 X112 Y76.845 E285.12322
G1 X112 Y223.165 E297.97111
G1 X113.6 Y223.165 E298.1116
G1 X113.6 Y76.845 E310.95948
G1 X115.2 Y76.845 E311.09997
G1 X115.2 Y223.165 E323.94786
G1 X116.8 Y223.165 E324.08835
G1 X116.8 Y76.845 E336.93623
G1 X118.4 Y76.845 E337.07673
G1 X118.4 Y223.166 E349.9247
G1 X120 Y223.166 E350.06519
G1 X120 Y76.845 E362.91316
G1 X121.6 Y76.846 E363.05365
G1 X121.6 Y223.166 E375.90154
G1 X123.2 Y223.166 E376.04203
G1 X123.2 Y76.846 E388.88991
G1 X124.8 Y76.846 E389.0304
G1 X124.8 Y223.166 E401.87829
G1 X126.4 Y223.166 E402.01878
G1 X126.4 Y76.846 E414.86666
G1 X128 Y76.846 E415.00716
G1 X128 Y223.166 E427.85504
G1 X129.6 Y223.166 E427.99553
G1 X129.6 Y76.846 E440.84342
G1 X131.2 Y76.846 E440.98391
G1 X131.2 Y223.166 E453.83179
G1 X132.8 Y223.166 E453.97228
G1 X132.8 Y76.846 E466.82017
G1 X133.805 Y76.846 E466.90841
G1 X134.4 Y76.873 E466.96071
G1 X134.4 Y223.143 E479.80421
G1 X134.513 Y223.134 E479.81416
G1 X135.123 Y223.064 E479.86807
G1 X135.34 Y223.029 E479.88737
G1 X135.947 Y222.904 E479.94179
G1 X136 Y222.891 E479.94658
G1 X136 Y77.126 E492.74574
G1 X136.14 Y77.157 E492.75833
G1 X136.28 Y77.196 E492.77109
G1 X137.6 Y77.623 E492.89291
G1 X137.6 Y222.434 E505.60829
G1 X138.032 Y222.327 E505.64737
G1 X138.776 Y222.264 E505.71293
G1 X139.2 Y222.281 E505.75019
G1 X139.2 Y77.725 E518.44318
G1 X139.716 Y77.683 E518.48864
G1 X140.421 Y77.532 E518.55195
G1 X140.776 Y77.422 E518.58458
G1 X140.8 Y77.413 E518.58683
G1 X140.8 Y222.588 E531.33418
G1 X141.485 Y222.809 E531.39738
G1 X141.667 Y222.859 E531.41395
G1 X142.264 Y222.995 E531.46772
G1 X142.4 Y223.019 E531.47984
G1 X142.4 Y76.981 E544.30297
G1 X142.45 Y76.971 E544.30744
G1 X142.667 Y76.936 E544.32674
G1 X143.277 Y76.866 E544.38066
G1 X143.441 Y76.854 E544.3951
G1 X144 Y76.834 E544.44421
G1 X144 Y223.164 E557.29298
G1 X145.6 Y223.164 E557.43347
G1 X145.6 Y76.834 E570.28223
G1 X147.2 Y76.834 E570.42272
G1 X147.2 Y223.164 E583.27148
G1 X148.8 Y223.164 E583.41197
G1 X148.8 Y76.834 E596.26074
G1 X150.4 Y76.834 E596.40123
G1 X150.4 Y223.164 E609.24999
G1 X152 Y223.164 E609.39048
G1 X152 Y76.834 E622.23924
G1 X153.6 Y76.834 E622.37974
G1 X153.6 Y223.164 E635.2285
G1 X155.2 Y223.164 E635.36899
G1 X155.2 Y76.834 E648.21775
G1 X156.8 Y76.834 E648.35824
G1 X156.8 Y223.164 E661.20701
G1 X158.4 Y223.164 E661.3475
G1 X158.4 Y76.834 E674.19626
G1 X160 Y76.834 E674.33675
G1 X160 Y223.164 E687.18551
G1 X161.6 Y223.165 E687.326
G1 X161.6 Y76.835 E700.17477
G1 X163.2 Y76.835 E700.31526
G1 X163.2 Y223.165 E713.16402
G1 X164.8 Y223.165 E713.30451
G1 X164.8 Y76.835 E726.15327
G1 X166.4 Y76.835 E726.29377
G1 X166.4 Y223.165 E739.14253
G1 X168 Y223.165 E739.28302
G1 X168 Y76.835 E752.13178
G1 X169.6 Y76.835 E752.27227
G1 X169.6 Y223.165 E765.12104
G1 X171.2 Y223.165 E765.26153
G1 X171.2 Y76.835 E778.11029
G1 X172.8 Y76.835 E778.25078
G1 X172.8 Y223.165 E791.09954
G1 X174.4 Y223.165 E791.24003
G1 X174.4 Y76.835 E804.0888
G1 X176 Y76.835 E804.22929
G1 X176 Y223.165 E817.07805
G1 X177.6 Y223.165 E817.21854
G1 X177.6 Y76.835 E830.0673
G1 X179.2 Y76.836 E830.2078
G1 X179.2 Y223.166 E843.05656
G1 X180.8 Y223.166 E843.19705
G1 X180.8 Y76.836 E856.04581
G1 X182.4 Y76.836 E856.1863
G1 X182.4 Y223.166 E869.03507
G1 X184 Y223.166 E869.17556
G1 X184 Y76.836 E882.02432
G1 X185.6 Y76.836 E882.16481
G1 X185.6 Y223.166 E895.01357
G1 X187.2 Y223.166 E895.15406
G1 X187.2 Y76.836 E908.00283
G1 X188.8 Y76.836 E908.14332
G1 X188.8 Y223.166 E920.99208
G1 X190.4 Y223.166 E921.13257
G1 X190.4 Y76.836 E933.98133
G1 X192 Y76.836 E934.12183
G1 X192 Y223.166 E946.97059
G1 X193.6 Y223.166 E947.11108
G1 X193.6 Y76.836 E959.95984
G1 X194.604 Y76.836 E960.048
G1 X195.2 Y76.863 E960.10039
G1 X195.2 Y223.142 E972.94467
G1 X195.303 Y223.134 E972.95374
G1 X195.913 Y223.064 E973.00766
G1 X196.13 Y223.029 E973.02696
G1 X196.737 Y222.904 E973.08137
G1 X196.8 Y222.888 E973.08708
G1 X196.8 Y77.116 E985.88685
G1 X196.913 Y77.141 E985.89701
G1 X197.111 Y77.195 E985.91503
G1 X197.705 Y77.388 E985.96987
G1 X197.882 Y77.454 E985.98646
G1 X198.4 Y77.674 E986.03588
G1 X198.4 Y222.328 E998.73747
G1 X198.477 Y222.292 E998.74494
G1 X199.038 Y222.006 E998.80023
G1 X199.205 Y221.911 E998.8171
G1 X199.722 Y221.585 E998.87077
G1 X199.898 Y221.463 E998.88957
G1 X200 Y221.386 E998.90079
G1 X200 Y78.613 E1011.43723
G1 X200.065 Y78.659 E1011.44422
G1 X200.536 Y79.033 E1011.49703
G1 X200.676 Y79.154 E1011.51328
G1 X201.197 Y79.647 E1011.57626
G1 X201.6 Y80.089 E1011.62878
G1 X201.6 Y219.918 E1023.90671
G1 X201.7 Y219.802 E1023.92016
G1 X202.065 Y219.342 E1023.97172
G0 F7200 X202.064 Y219.342
G1 F1200 X202.213 Y219.135 E1023.99412
G1 X202.536 Y218.644 E1024.04572
G1 X202.641 Y218.468 E1024.06372
G1 X202.947 Y217.895 E1024.12075
G1 X203.024 Y217.737 E1024.13619
G1 X203.2 Y217.324 E1024.17561
G1 X203.2 Y82.681 E1035.99817
G1 X203.326 Y82.993 E1036.02772
G1 X203.403 Y83.214 E1036.04827
G1 X203.57 Y83.767 E1036.09899
G1 X203.632 Y84.01 E1036.12101
G1 X203.754 Y84.604 E1036.17426
G1 X203.787 Y84.81 E1036.19258
G1 X203.857 Y85.421 E1036.24658
G1 X203.869 Y85.576 E1036.26023
G1 X203.89 Y86.159 E1036.31145
G1 X203.89 Y109.636 E1038.37289
G1 X203.934 Y110.342 E1038.435
G1 X204.073 Y111.063 E1038.49948
G1 X204.302 Y111.759 E1038.56381
G1 X204.615 Y112.422 E1038.62819
G1 X204.8 Y112.711 E1038.65832
G1 X204.8 Y187.295 E1045.2073
G1 X205.199 Y186.738 E1045.26746
G1 X205.697 Y186.201 E1045.33177
G1 X206.26 Y185.731 E1045.39617
G1 X206.4 Y185.642 E1045.41073
G1 X206.4 Y114.376 E1051.66837
G1 X206.616 Y114.53 E1051.69166
G1 X207.26 Y114.878 E1051.75594
G1 X207.943 Y115.142 E1051.82024
G1 X208 Y115.157 E1051.82541
G1 X208 Y184.871 E1057.94677
G1 X208.237 Y184.793 E1057.96868
G1 X208.958 Y184.654 E1058.03315
G1 X209.6 Y184.614 E1058.08964
G1 X209.6 Y115.406 E1064.16657
G1 X209.654 Y115.41 E1064.17132
G1 X211.2 Y115.411 E1064.30707
G1 X211.2 Y184.61 E1070.38321
G1 X212.8 Y184.61 E1070.5237
G1 X212.8 Y115.411 E1076.59984
G1 X214.4 Y115.412 E1076.74033
G1 X214.4 Y184.61 E1082.81638
G1 X216 Y184.61 E1082.95687
G1 X216 Y115.412 E1089.03293
G1 X217.6 Y115.412 E1089.17342
G1 X217.6 Y184.61 E1095.24947
G1 X219.2 Y184.61 E1095.38996
G1 X219.2 Y115.413 E1101.46592
G1 X220.8 Y115.413 E1101.60641
G1 X220.8 Y184.61 E1107.68238
G1 X221.96 Y184.61 E1107.78423
G1 X222.4 Y184.596 E1107.82289
G1 X222.4 Y115.43 E1113.89613
G1 X222.749 Y115.445 E1113.9268
G1 X222.928 Y115.46 E1113.94258
G1 X223.541 Y115.544 E1113.99691
G1 X223.753 Y115.582 E1114.01582
G1 X224 Y115.639 E1114.03808
G1 X224 Y184.384 E1120.07435
G1 X224.175 Y184.347 E1120.09006
G1 X224.377 Y184.295 E1120.10837
G1 X224.955 Y184.121 E1120.16137
G1 X225.168 Y184.046 E1120.1812
G1 X225.6 Y183.872 E1120.2221
G1 X225.6 Y116.151 E1126.16846
G1 X225.896 Y116.276 E1126.19667
G1 X226.055 Y116.353 E1126.21218
G1 X226.635 Y116.663 E1126.26993
G1 X226.804 Y116.764 E1126.28722
G1 X227.2 Y117.025 E1126.32886
G1 X227.2 Y183.001 E1132.122
G1 X227.336 Y182.906 E1132.13657
G1 X227.832 Y182.527 E1132.19138
G1 X227.982 Y182.402 E1132.20852
G1 X228.517 Y181.914 E1132.27211
G1 X229.019 Y181.383 E1132.33627
G1 X229.138 Y181.245 E1132.35227
G1 X229.503 Y180.785 E1132.40383
G0 F7200 X229.502 Y180.785
G1 F1200 X229.651 Y180.578 E1132.42623
G1 X229.974 Y180.087 E1132.47783
G1 X230.079 Y179.911 E1132.49583
G1 X230.385 Y179.338 E1132.55287
G1 X230.4 Y179.308 E1132.55581
G1 X230.4 Y120.722 E1137.70006
G1 X230.161 Y120.253 E1137.74628
G1 X230.071 Y120.095 E1137.76224
G1 X229.745 Y119.578 E1137.81591
G1 X229.614 Y119.389 E1137.8361
G1 X229.259 Y118.924 E1137.88747
G1 X229.111 Y118.747 E1137.90773
G1 X228.8 Y118.407 E1137.94819
G1 X228.8 Y181.615 E1143.49828
;;retract;;
G1 F6000 E1135.49828
G0 F7200 X68.8 Y123.236
G1 F6000 E1143.49828
G1 F1200 X68.8 Y176.771 E1148.19902
G1 X68.776 Y176.623 E1148.21218
G1 X68.706 Y176.012 E1148.26618
G1 X68.692 Y175.825 E1148.28265
G1 X68.673 Y175.253 E1148.3329
G1 X68.676 Y124.678 E1152.77373
G1 X68.707 Y123.984 E1152.83473
G1 X68.722 Y123.805 E1152.8505
G1 X68.807 Y123.186 E1152.90536
G1 X68.845 Y122.974 E1152.92427
G1 X68.978 Y122.388 E1152.97704
G1 X69.028 Y122.204 E1152.99378
G1 X69.234 Y121.568 E1153.05248
G1 X69.286 Y121.425 E1153.06584
G1 X69.541 Y120.826 E1153.123
G1 X69.616 Y120.672 E1153.13804
G1 X69.922 Y120.099 E1153.19508
G1 X69.925 Y120.095 E1153.19552
G0 F7200 X69.926 Y120.092
G1 F1200 X70.027 Y119.923 E1153.21281
G1 X70.35 Y119.432 E1153.26442
G1 X70.4 Y119.362 E1153.27197
G1 X70.4 Y180.638 E1158.65242
G1 X70.741 Y181.087 E1158.70192
G1 X70.875 Y181.248 E1158.72031
G1 X71.378 Y181.798 E1158.78576
G1 X72 Y182.383 E1158.86074
G1 X72 Y117.624 E1164.54701
G1 X72.02 Y117.606 E1164.54938
G1 X72.511 Y117.097 E1164.61147
G1 X72.951 Y116.509 E1164.67596
G1 X73.312 Y115.87 E1164.7404
G1 X73.589 Y115.191 E1164.80479
G1 X73.6 Y115.149 E1164.80861
G1 X73.6 Y184.864 E1170.93005
G1 X73.717 Y185.22 E1170.96296
G1 X73.856 Y185.941 E1171.02743
G1 X73.9 Y186.647 E1171.08955
G1 X73.9 Y213.82 E1173.47552
G1 X73.919 Y214.393 E1173.52586
G1 X73.932 Y214.57 E1173.54144
G1 X74.003 Y215.19 E1173.59624
G1 X74.037 Y215.402 E1173.61509
G1 X74.158 Y215.99 E1173.6678
G1 X74.218 Y216.227 E1173.68927
G1 X74.387 Y216.786 E1173.74055
G1 X74.461 Y216.999 E1173.76035
G1 X74.692 Y217.573 E1173.81468
G1 X74.775 Y217.754 E1173.83216
G1 X75.066 Y218.325 E1173.88844
G1 X75.145 Y218.465 E1173.90255
G1 X75.2 Y218.552 E1173.91159
G1 X75.2 Y81.438 E1185.95112
G1 X75.244 Y81.365 E1185.95861
G1 X75.567 Y80.874 E1186.01021
G1 X75.716 Y80.667 E1186.03261
;;retract;;
G1 F6000 E1178.03261
G0 F600 X75.716 Y80.667 Z0.54
G0 F7200 X141.758 Y76.704
;TIME_ELAPSED:686.417632

;LAYER:-3
;TYPE:SUPPORT
G1 F6000 E1186.03261
G1 F1800 X231.724 Y166.67 E1198.72778
G1 X231.724 Y168.084 E1198.86887
G1 X140.673 Y77.034 E1211.71708
G1 X140.65 Y77.042 E1211.71951
G1 X140.32 Y77.145 E1211.75401
G1 X139.658 Y77.286 E1211.82154
G1 X139.522 Y77.297 E1211.83516
G1 X231.724 Y169.499 E1224.84585
G1 X231.724 Y170.913 E1224.98694
G1 X138.086 Y77.275 E1238.20028
G1 X137.622 Y77.196 E1238.24724
G1 X137.512 Y77.162 E1238.25873
G1 X137.508 Y77.172 E1238.2598
G1 X136.403 Y76.815 E1238.37567
G1 X136.235 Y76.768 E1238.39308
G1 X136.144 Y76.747 E1238.4024
G1 X231.724 Y172.327 E1251.88977
G1 X231.724 Y173.741 E1252.03086
G1 X134.457 Y76.474 E1265.75628
G1 X133.823 Y76.446 E1265.81961
G1 X133.014 Y76.446 E1265.90033
G1 X231.724 Y175.156 E1279.82938
G1 X231.725 Y175.342 E1279.84793
G1 X231.693 Y176.059 E1279.91955
G1 X231.678 Y176.238 E1279.93747
G1 X231.643 Y176.488 E1279.96266
G1 X131.6 Y76.446 E1294.07974
G1 X130.186 Y76.446 E1294.22083
G1 X231.419 Y177.678 E1308.50583
G1 X231.409 Y177.727 E1308.51082
G1 X231.354 Y177.929 E1308.53171
G1 X231.148 Y178.565 E1308.59841
G1 X231.083 Y178.742 E1308.61723
G1 X231.078 Y178.753 E1308.61843
G1 X128.771 Y76.446 E1323.05505
G1 X127.357 Y76.446 E1323.19614
G1 X230.633 Y179.721 E1337.76943
G1 X230.423 Y180.116 E1337.81407
G1 X230.318 Y180.292 E1337.83452
G1 X230.108 Y180.61 E1337.87254
G1 X125.943 Y76.446 E1352.57128
