;FLAVOR:Marlin
;TIME:21739
;Filament used:26.1262m
;Layer height: 0.26
;MINX:74
;MINY:34.313
;MINZ:0.2
;MAXX:226
;MAXY:265.688
;MAXZ:6.18
                                     
;Creality Print GCode Generated by CXEngineDEV
;Generated Time:2022-06-30 15:03:19
;----------Machine Config--------------
;Machine Name:Creality CR-10S
;Machine Height:400
;Machine Width:300
;Machine Depth:300
;Material name:Castable
;Number of Extruders:1
;ExtruderParams[0] Nozzle Diameter1000
;----------Profile Config---------------
;Layer Height:0.26
;Wall Thickness:0.8
;Top/Bottom Thickness:1
;Out Wall Line Width:0.4
;Inner Wall Line Width:0.4
;Inital Layer Height:200
;Wall Line Count:2
;Infill Line Distance:4
;Infill Pattern:grid
;Infill Sparse Density:10
;Infill Wipe Distance:0
;Print Temperature:210
;Bed Temperature:60
;Support Enable:true
;Support Density:30
;Support Angle:1.0472
;Adhesion Type:none
;machine is belt:false
;machine belt offset:10
;machine belt offset Y:0
;Raft Base Line Spacing:1.6
;Wait Heatup Sync:true
;----------Shell Config----------------
;Outer Wall Wipe Distance:200
;Infill Before Walls:false
;Infill Overlap:0.16
;Fill Gaps Between Walls:everywhere
;Minimum Infill Area:1
;Top Surface Skin Layer:0
;Top Layers:3
;Z Seam Alignment:sharpest_corner
;Seam Corner Preference:z_seam_corner_inner
;Z Seam X:150
;Z Seam Y:150
;Horizontal Expansion:0
;Top/Bottom Pattern:zigzag
;Ironing Pattern:zigzag
;Vase Model:false
;----------Support Config----------------
;Support Type:everywhere
;Support Pattern:zigzag
;Support Infill Layer Thickness:0.26
;Minimum Support Area:10
;Enable Support Roof:false
;Support Roof Thickness:0.8
;Support Roof Pattern:lines
;Connect Support Lines:0
;Connect Support ZigZags:1
;Minimum Support X/Y Distance:0.2
;Support Line Distance:1.33
; ---------PrintSpeed & Travel----------
;Enable Print Cool:true
;Avoid Printed Parts Traveling:true
;Enable Retraction:true
;Retraction Distance:8
;Retraction Speed:100
;Retraction Prime Speed:100
;Maximum Retraction Count:100
;Minimum Extrusion Distance Window:1
;Z Hop When Retracted:false
;Z Hop Height:0.2
;Retract Before Outer Wall:true
;Print Speed:60
;Infill Speed:60

;Prime Tower Speed:60
;Travel Speed:120
;Initial Layer Speed:30
;Skirt/Brim Speed:30
;Combing Mode:off
; --------SpecialModel&Mesh Fixes--------
;Union Overlapping Volum:true
;Remove All Holes:false
;Maximum Travel Resolution:0.5
;Maximum Deviation:0.05
;Maximum Model Angle:0.872665
;IS Mold Print:false
;Make Overhang Printable:false
;Enable Coasting:false
;Coasting Volumes:0.06
;Coasting Speed:0.9
;Raft AirGap:0.25
;Layer0 ZOverLap:0.13
;---------------------End of Head--------------------------
M140 S60
M105
M104 S210
M105
M109 S210
M105
M190 S60
M82 ;absolute extrusion mode
M220 S100 ;Reset Feedrate
M221 S100 ;Reset Flowrate

G28 ;Home

G92 E0 ;Reset Extruder
G1 Z2.0 F3000 ;Move Z Axis up
G1 X10.1 Y20 Z0.28 F5000.0 ;Move to start position
G1 X10.1 Y145.0 Z0.28 F1500.0 E15 ;Draw the first line
G1 X10.4 Y145.0 Z0.28 F5000.0 ;Move to side a little
G1 X10.4 Y20 Z0.28 F1500.0 E30 ;Draw the second line
G92 E0  ;Reset Extruder
G1 E-1.0000 F1800 ;Retract a bit
G1 Z2.0 F3000 ;Move Z Axis up
G1 E0.0000 F1800 

G92 E0
G92 E0
G1 F6000 E-8

;LAYER_COUNT:24

;LAYER:0
M107
;MESH:
G0 F3600 X225.6 Y265.288 Z0.2
;TYPE:WALL-INNER
G1 F6000 E0
G1 F1800 X74.4 Y265.288 E5.53183
G1 X74.4 Y34.713 E13.96768
G1 X225.6 Y34.713 E19.4995
G1 X225.6 Y265.288 E27.93535
G0 F3600 X226 Y265.688
;TYPE:WALL-OUTER
G1 F1800 X74 Y265.688 E33.49645
G1 X74 Y34.313 E41.96157
G1 X226 Y34.313 E47.52266
G1 X226 Y265.688 E55.98778
G0 F3600 X225.8 Y265.688
G0 X225.56 Y265.248
;;retract;;
G1 F6000 E47.98778
G0 F3600 X74.64 Y265.046
;TYPE:SKIN
G1 F6000 E55.98778
G1 F1800 X74.976 Y265.046 E56.00008
G1 X74.639 Y264.709 E56.01751
G1 X74.639 Y264.143 E56.03822
G1 X75.542 Y265.046 E56.08494
G1 X76.108 Y265.046 E56.10565
G1 X74.639 Y263.578 E56.18163
G1 X74.639 Y263.012 E56.20234
G1 X76.673 Y265.046 E56.30758
G1 X77.239 Y265.046 E56.32829
G1 X74.639 Y262.446 E56.46281
G1 X74.639 Y261.881 E56.48348
G1 X77.805 Y265.046 E56.64727
G1 X78.37 Y265.046 E56.66794
G1 X74.639 Y261.315 E56.86098
G1 X74.639 Y260.749 E56.88169
G1 X78.936 Y265.046 E57.10402
G1 X79.502 Y265.046 E57.12473
G1 X74.639 Y260.184 E57.37632
G1 X74.639 Y259.618 E57.39703
G1 X80.067 Y265.046 E57.67787
G1 X80.633 Y265.046 E57.69858
G1 X74.639 Y259.052 E58.00872
G1 X74.639 Y258.487 E58.02939
G1 X81.199 Y265.046 E58.36878
G1 X81.764 Y265.046 E58.38945
G1 X74.639 Y257.921 E58.7581
G1 X74.639 Y257.355 E58.77881
G1 X82.33 Y265.046 E59.17675
G1 X82.896 Y265.046 E59.19745
G1 X74.639 Y256.79 E59.62465
G1 X74.639 Y256.224 E59.64536
G1 X83.461 Y265.046 E60.10181
G1 X84.027 Y265.046 E60.12252
G1 X74.639 Y255.658 E60.60826
G1 X74.639 Y255.093 E60.62893
G1 X84.593 Y265.046 E61.14394
G1 X85.158 Y265.046 E61.16461
G1 X74.639 Y254.527 E61.70887
G1 X74.639 Y253.961 E61.72957
G1 X85.724 Y265.046 E62.30312
G1 X86.29 Y265.046 E62.32383
G1 X74.639 Y253.395 E62.92666
G1 X74.639 Y252.83 E62.94733
G1 X86.856 Y265.046 E63.57942
G1 X87.421 Y265.046 E63.60009
G1 X74.639 Y252.264 E64.26144
G1 X74.639 Y251.698 E64.28214
G1 X87.987 Y265.046 E64.97278
G1 X88.553 Y265.046 E64.99349
G1 X74.639 Y251.133 E65.71338
G1 X74.639 Y250.567 E65.73409
G1 X89.118 Y265.046 E66.48324
G1 X89.684 Y265.046 E66.50395
G1 X74.639 Y250.001 E67.28239
G1 X74.639 Y249.436 E67.30306
G1 X90.25 Y265.046 E68.11075
G1 X90.815 Y265.046 E68.13142
G1 X74.639 Y248.87 E68.96838
G1 X74.639 Y248.304 E68.98909
G1 X91.381 Y265.046 E69.85533
G1 X91.947 Y265.046 E69.87604
G1 X74.639 Y247.739 E70.77154
G1 X74.639 Y247.173 E70.79225
G1 X92.512 Y265.046 E71.71701
G1 X93.078 Y265.046 E71.73771
G1 X74.639 Y246.607 E72.69176
G1 X74.639 Y246.042 E72.71243
G1 X93.644 Y265.046 E73.69574
G1 X94.209 Y265.046 E73.71641
G1 X74.639 Y245.476 E74.72897
G1 X74.639 Y244.91 E74.74968
G1 X94.775 Y265.046 E75.79153
G1 X95.341 Y265.046 E75.81224
G1 X74.639 Y244.344 E76.88337
G1 X74.639 Y243.779 E76.90404
G1 X95.907 Y265.046 E78.00444
G1 X96.472 Y265.046 E78.02511
G1 X74.639 Y243.213 E79.15476
G1 X74.639 Y242.647 E79.17547
G1 X97.038 Y265.046 E80.33441
G1 X97.604 Y265.046 E80.35511
G1 X74.639 Y242.082 E81.54331
G1 X74.639 Y241.516 E81.56402
G1 X98.169 Y265.046 E82.78148
G1 X98.735 Y265.046 E82.80218
G1 X74.639 Y240.95 E84.04893
G1 X74.639 Y240.385 E84.0696
G1 X99.301 Y265.046 E85.3456
G1 X99.866 Y265.046 E85.36627
G1 X74.639 Y239.819 E86.67153
G1 X74.639 Y239.253 E86.69224
G1 X100.432 Y265.046 E88.02678
G1 X100.998 Y265.046 E88.04749
G1 X74.639 Y238.688 E89.4113
G1 X74.639 Y238.122 E89.43201
G1 X101.563 Y265.046 E90.82507
G1 X102.129 Y265.046 E90.84578
G1 X74.639 Y237.556 E92.26813
G1 X74.639 Y236.991 E92.2888
G1 X102.695 Y265.046 E93.74041
G1 X103.26 Y265.046 E93.76108
G1 X74.639 Y236.425 E95.24195
G1 X74.639 Y235.859 E95.26266
G1 X103.826 Y265.046 E96.77281
G1 X104.392 Y265.046 E96.79352
G1 X74.639 Y235.294 E98.33293
G1 X74.639 Y234.728 E98.35364
G1 X104.957 Y265.046 E99.92231
G1 X105.523 Y265.046 E99.94302
G1 X74.639 Y234.162 E101.54098
G1 X74.639 Y233.596 E101.56168
G1 X106.089 Y265.046 E103.18893
G1 X106.655 Y265.046 E103.20963
G1 X74.639 Y233.031 E104.86614
G1 X74.639 Y232.465 E104.88684
G1 X107.22 Y265.046 E106.5726
G1 X107.786 Y265.046 E106.59331
G1 X74.639 Y231.899 E108.30836
G1 X74.639 Y231.334 E108.32903
G1 X108.352 Y265.046 E110.07334
G1 X108.917 Y265.046 E110.09401
G1 X74.639 Y230.768 E111.86757
G1 X74.639 Y230.202 E111.88828
G1 X109.483 Y265.046 E113.69113
G1 X110.049 Y265.046 E113.71184
G1 X74.639 Y229.637 E115.54395
G1 X74.639 Y229.071 E115.56466
G1 X110.614 Y265.046 E117.42602
G1 X111.18 Y265.046 E117.44673
G1 X74.639 Y228.505 E119.33739
G1 X74.639 Y227.94 E119.35806
G1 X111.746 Y265.046 E121.27797
G1 X112.311 Y265.046 E121.29864
G1 X74.639 Y227.374 E123.24782
G1 X74.639 Y226.808 E123.26852
G1 X112.877 Y265.046 E125.24698
G1 X113.443 Y265.046 E125.26769
G1 X74.639 Y226.243 E127.27541
G1 X74.639 Y225.677 E127.29611
G1 X114.008 Y265.046 E129.33309
G1 X114.574 Y265.046 E129.3538
G1 X74.639 Y225.111 E131.42006
G1 X74.639 Y224.546 E131.44073
G1 X115.14 Y265.046 E133.53625
G1 X115.706 Y265.046 E133.55696
G1 X74.639 Y223.98 E135.68177
G1 X74.639 Y223.414 E135.70248
G1 X116.271 Y265.046 E137.85654
G1 X116.837 Y265.046 E137.87725
G1 X74.639 Y222.848 E140.0606
G1 X74.639 Y222.283 E140.08127
G1 X117.403 Y265.046 E142.29388
G1 X117.968 Y265.046 E142.31455
G1 X74.639 Y221.717 E144.55642
G1 X74.639 Y221.151 E144.57713
G1 X118.534 Y265.046 E146.84829
G1 X119.1 Y265.046 E146.86899
G1 X74.639 Y220.586 E149.16941
G1 X74.639 Y220.02 E149.19011
G1 X119.665 Y265.046 E151.51979
G1 X120.231 Y265.046 E151.5405
G1 X74.639 Y219.454 E153.89945
G1 X74.639 Y218.889 E153.92013
G1 X120.797 Y265.046 E156.30834
G1 X121.362 Y265.046 E156.32902
G1 X74.639 Y218.323 E158.74649
G1 X74.639 Y217.757 E158.7672
G1 X121.928 Y265.046 E161.21396
G1 X122.494 Y265.046 E161.23467
G1 X74.639 Y217.192 E163.71069
G1 X74.639 Y216.626 E163.7314
G1 X123.059 Y265.046 E166.23668
G1 X123.625 Y265.046 E166.25739
G1 X74.639 Y216.06 E168.79196
G1 X74.639 Y215.495 E168.81263
G1 X124.191 Y265.046 E171.37645
G1 X124.756 Y265.046 E171.39712
G1 X74.639 Y214.929 E173.99021
G1 X74.639 Y214.363 E174.01092
G1 X125.322 Y265.046 E176.63329
G1 X125.888 Y265.046 E176.65399
G1 X74.639 Y213.797 E179.30565
G1 X74.639 Y213.232 E179.32632
G1 X126.454 Y265.046 E182.00724
G1 X127.019 Y265.046 E182.02791
G1 X74.639 Y212.666 E184.73808
G1 X74.639 Y212.1 E184.75879
G1 X127.585 Y265.046 E187.49825
G1 X128.151 Y265.046 E187.51896
G1 X74.639 Y211.535 E190.28767
G1 X74.639 Y210.969 E190.30838
G1 X128.716 Y265.046 E193.10636
G1 X129.282 Y265.046 E193.12707
G1 X74.639 Y210.403 E195.95433
G1 X74.639 Y209.838 E195.975
G1 X129.848 Y265.046 E198.83152
G1 X130.413 Y265.046 E198.8522
G1 X74.639 Y209.272 E201.73798
G1 X74.639 Y208.706 E201.75869
G1 X130.979 Y265.046 E204.67375
G1 X131.545 Y265.046 E204.69446
G1 X74.639 Y208.141 E207.63879
G1 X74.639 Y207.575 E207.65949
G1 X132.11 Y265.046 E210.63308
G1 X132.676 Y265.046 E210.65379
G1 X74.639 Y207.009 E213.65666
G1 X74.639 Y206.444 E213.67733
G1 X133.242 Y265.046 E216.70946
G1 X133.807 Y265.046 E216.73013
G1 X74.639 Y205.878 E219.79152
G1 X74.639 Y205.312 E219.81223
G1 X134.373 Y265.046 E222.9029
G1 X134.939 Y265.046 E222.92361
G1 X74.639 Y204.747 E226.04354
G1 X74.639 Y204.181 E226.06425
G1 X135.504 Y265.046 E229.21345
G1 X136.07 Y265.046 E229.23415
G1 X74.639 Y203.615 E232.41263
G1 X74.639 Y203.049 E232.43334
G1 X136.636 Y265.046 E235.6411
G1 X137.202 Y265.046 E235.66181
G1 X74.639 Y202.484 E238.89883
G1 X74.639 Y201.918 E238.91954
G1 X137.767 Y265.046 E242.18582
G1 X138.333 Y265.046 E242.20653
G1 X74.639 Y201.352 E245.5021
G1 X74.639 Y200.787 E245.52277
G1 X138.899 Y265.046 E248.8476
G1 X139.464 Y265.046 E248.86827
G1 X74.639 Y200.221 E252.22235
G1 X74.639 Y199.655 E252.24306
G1 X140.03 Y265.046 E255.62643
G1 X140.596 Y265.046 E255.64714
G1 X74.639 Y199.09 E259.05977
G1 X74.639 Y198.524 E259.08048
G1 X141.161 Y265.046 E262.52237
G1 X141.727 Y265.046 E262.54308
G1 X74.639 Y197.958 E266.01425
G1 X74.639 Y197.393 E266.03492
G1 X142.293 Y265.046 E269.53536
G1 X142.858 Y265.046 E269.55603
G1 X74.639 Y196.827 E273.08572
G1 X74.639 Y196.261 E273.10643
G1 X143.424 Y265.046 E276.66541
G1 X143.99 Y265.046 E276.68612
G1 X74.639 Y195.696 E280.27436
G1 X74.639 Y195.13 E280.29506
G1 X144.555 Y265.046 E283.91256
G1 X145.121 Y265.046 E283.93327
G1 X74.639 Y194.564 E287.58005
G1 X74.639 Y193.998 E287.60076
G1 X145.687 Y265.046 E291.27683
G1 X146.253 Y265.046 E291.29754
G1 X74.639 Y193.433 E295.00286
G1 X74.639 Y192.867 E295.02357
G1 X146.818 Y265.046 E298.75816
G1 X147.384 Y265.046 E298.77887
G1 X74.639 Y192.301 E302.54274
G1 X74.639 Y191.736 E302.56341
G1 X147.95 Y265.046 E306.35654
G1 X148.515 Y265.046 E306.37721
G1 X74.639 Y191.17 E310.1996
G1 X74.639 Y190.604 E310.22031
G1 X149.081 Y265.046 E314.07199
G1 X149.647 Y265.046 E314.09269
G1 X74.639 Y190.039 E317.97363
G1 X74.639 Y189.473 E317.99434
G1 X150.212 Y265.046 E321.90453
G1 X150.778 Y265.046 E321.92524
G1 X74.639 Y188.907 E325.86472
G1 X74.639 Y188.342 E325.88539
G1 X151.344 Y265.046 E329.85413
G1 X151.909 Y265.046 E329.8748
G1 X74.639 Y187.776 E333.8728
G1 X74.639 Y187.21 E333.89351
G1 X152.475 Y265.046 E337.92079
G1 X153.041 Y265.046 E337.9415
G1 X74.639 Y186.645 E341.99804
G1 X74.639 Y186.079 E342.01875
G1 X153.606 Y265.046 E346.10455
G1 X154.172 Y265.046 E346.12526
G1 X74.639 Y185.513 E350.24034
G1 X74.639 Y184.948 E350.26102
G1 X154.738 Y265.046 E354.40536
G1 X155.303 Y265.046 E354.42603
G1 X74.639 Y184.382 E358.59964
G1 X74.639 Y183.816 E358.62035
G1 X155.869 Y265.046 E362.82324
G1 X156.435 Y265.046 E362.84395
G1 X74.639 Y183.25 E367.07612
G1 X74.639 Y182.685 E367.09679
G1 X157.001 Y265.046 E371.35823
G1 X157.566 Y265.046 E371.3789
G1 X74.639 Y182.119 E375.6696
G1 X74.639 Y181.553 E375.6903
G1 X158.132 Y265.046 E380.01028
G1 X158.698 Y265.046 E380.03099
G1 X74.639 Y180.988 E384.38023
G1 X74.639 Y180.422 E384.40094
G1 X159.263 Y265.046 E388.77944
G1 X159.829 Y265.046 E388.80015
G1 X74.639 Y179.856 E393.20793
G1 X74.639 Y179.291 E393.2286
G1 X160.395 Y265.046 E397.66564
G1 X160.96 Y265.046 E397.68631
G1 X74.639 Y178.725 E402.15262
G1 X74.639 Y178.159 E402.17333
G1 X161.526 Y265.046 E406.66891
G1 X162.092 Y265.046 E406.68962
G1 X74.639 Y177.594 E411.21447
G1 X74.639 Y177.028 E411.23518
G1 X162.657 Y265.046 E415.78928
G1 X163.223 Y265.046 E415.80999
G1 X74.639 Y176.462 E420.39338
G1 X74.639 Y175.897 E420.41405
G1 X163.789 Y265.046 E425.0267
G1 X164.354 Y265.046 E425.04738
G1 X74.639 Y175.331 E429.68929
G1 X74.639 Y174.765 E429.70999
G1 X164.92 Y265.046 E434.38119
G1 X165.486 Y265.046 E434.4019
G1 X74.639 Y174.199 E439.10238
G1 X74.639 Y173.634 E439.12305
G1 X166.052 Y265.046 E443.85279
G1 X166.617 Y265.046 E443.87346
G1 X74.639 Y173.068 E448.63246
G1 X74.639 Y172.502 E448.65317
G1 X167.183 Y265.046 E453.44145
G1 X167.749 Y265.046 E453.46216
G1 X74.639 Y171.937 E458.2797
G1 X74.639 Y171.371 E458.30041
G1 X168.314 Y265.046 E463.14721
G1 X168.88 Y265.046 E463.16792
G1 X74.639 Y170.805 E468.04401
G1 X74.639 Y170.24 E468.06468
G1 X169.446 Y265.046 E472.97003
G1 X170.011 Y265.046 E472.9907
G1 X74.639 Y169.674 E477.92531
G1 X74.639 Y169.108 E477.94602
G1 X170.577 Y265.046 E482.90991
G1 X171.143 Y265.046 E482.93062
G1 X74.639 Y168.543 E487.92377
G1 X74.639 Y167.977 E487.94448
G1 X171.708 Y265.046 E492.96689
G1 X172.274 Y265.046 E492.98759
G1 X74.639 Y167.411 E498.03929
G1 X74.639 Y166.846 E498.05996
G1 X172.84 Y265.046 E503.14092
G1 X173.405 Y265.046 E503.16159
G1 X74.639 Y166.28 E508.2718
G1 X74.639 Y165.714 E508.29251
G1 X173.971 Y265.046 E513.43201
G1 X174.537 Y265.046 E513.45272
G1 X74.639 Y165.149 E518.62148
G1 X74.639 Y164.583 E518.64219
G1 X175.102 Y265.046 E523.8402
G1 X175.668 Y265.046 E523.86091
G1 X74.639 Y164.017 E529.08822
G1 X74.639 Y163.451 E529.10892
G1 X176.234 Y265.046 E534.36551
G1 X176.8 Y265.046 E534.38622
G1 X74.639 Y162.886 E539.67207
G1 X74.639 Y162.32 E539.69278
G1 X177.365 Y265.046 E545.00788
G1 X177.931 Y265.046 E545.02859
G1 X74.639 Y161.754 E550.37298
G1 X74.639 Y161.189 E550.39366
G1 X178.497 Y265.046 E555.76731
G1 X179.062 Y265.046 E555.78798
G1 X74.639 Y160.623 E561.19089
G1 X74.639 Y160.057 E561.2116
G1 X179.628 Y265.046 E566.6438
G1 X180.194 Y265.046 E566.6645
G1 X74.639 Y159.492 E572.12596
G1 X74.639 Y158.926 E572.14667
G1 X180.759 Y265.046 E577.63738
G1 X181.325 Y265.046 E577.65809
G1 X74.639 Y158.36 E583.17809
G1 X74.639 Y157.795 E583.19876
G1 X181.891 Y265.046 E588.74802
G1 X182.456 Y265.046 E588.76869
G1 X74.639 Y157.229 E594.34721
G1 X74.639 Y156.663 E594.36792
G1 X183.022 Y265.046 E599.97572
G1 X183.588 Y265.046 E599.99643
G1 X74.639 Y156.098 E605.6335
G1 X74.639 Y155.532 E605.6542
G1 X184.153 Y265.046 E611.32053
G1 X184.719 Y265.046 E611.34123
G1 X74.639 Y154.966 E617.03684
G1 X74.639 Y154.401 E617.05751
G1 X185.285 Y265.046 E622.78238
G1 X185.85 Y265.046 E622.80305
G1 X74.639 Y153.835 E628.55718
G1 X74.639 Y153.269 E628.57789
G1 X186.416 Y265.046 E634.3613
G1 X186.982 Y265.046 E634.38201
