;FLAVOR:Marlin
;TIME:22394
;Filament used:49.2919m
;Layer height: 0.4
;MINX:65.174
;MINY:25.486
;MINZ:0.24
;MAXX:234.825
;MAXY:274.512
;MAXZ:5.56
                            
;Creality Print GCode Generated by CXEngineDEV
;Generated Time:2022-06-30 15:03:19
;----------Machine Config--------------
;Machine Name:Creality CR-10S
;Machine Height:400
;Machine Width:300
;Machine Depth:300
;Material name:Castable
;Number of Extruders:1
;ExtruderParams[0] Nozzle Diameter1000
;----------Profile Config---------------
;Layer Height:0.4
;Wall Thickness:0.8
;Top/Bottom Thickness:1
;Out Wall Line Width:0.4
;Inner Wall Line Width:0.4
;Inital Layer Height:200
;Wall Line Count:4
;Infill Line Distance:4
;Infill Pattern:honeycomb
;Infill Sparse Density:5
;Infill Wipe Distance:0
;Print Temperature:210
;Bed Temperature:60
;Support Enable:true
;Support Density:30
;Support Angle:1.0472
;Adhesion Type:simpleraft
;machine is belt:false
;machine belt offset:10
;machine belt offset Y:0
;Raft Base Line Spacing:1.6
;Wait Heatup Sync:true
;----------Shell Config----------------
;Outer Wall Wipe Distance:200
;Infill Before Walls:false
;Infill Overlap:0.16
;Fill Gaps Between Walls:everywhere
;Minimum Infill Area:1
;Top Surface Skin Layer:0
;Top Layers:2
;Z Seam Alignment:sharpest_corner
;Seam Corner Preference:z_seam_corner_inner
;Z Seam X:150
;Z Seam Y:150
;Horizontal Expansion:0
;Top/Bottom Pattern:zigzag
;Ironing Pattern:zigzag
;Vase Model:false
;----------Support Config----------------
;Support Type:everywhere
;Support Pattern:zigzag
;Support Infill Layer Thickness:0.4
;Minimum Support Area:10
;Enable Support Roof:false
;Support Roof Thickness:0.8
;Support Roof Pattern:lines
;Connect Support Lines:0
;Connect Support ZigZags:1
;Minimum Support X/Y Distance:0.2
;Support Line Distance:1.33
; ---------PrintSpeed & Travel----------
;Enable Print Cool:true
;Avoid Printed Parts Traveling:true
;Enable Retraction:true
;Retraction Distance:8
;Retraction Speed:100
;Retraction Prime Speed:100
;Maximum Retraction Count:100
;Minimum Extrusion Distance Window:1
;Z Hop When Retracted:false
;Z Hop Height:0.2
;Retract Before Outer Wall:true
;Print Speed:80
;Infill Speed:80

;Prime Tower Speed:60
;Travel Speed:120
;Initial Layer Speed:30
;Skirt/Brim Speed:30
;Combing Mode:off
; --------SpecialModel&Mesh Fixes--------
;Union Overlapping Volum:true
;Remove All Holes:false
;Maximum Travel Resolution:0.5
;Maximum Deviation:0.05
;Maximum Model Angle:0.872665
;IS Mold Print:false
;Make Overhang Printable:false
;Enable Coasting:false
;Coasting Volumes:0.06
;Coasting Speed:0.9
;Raft AirGap:0.25
;Layer0 ZOverLap:0.13
;---------------------End of Head--------------------------
M140 S60
M105
M104 S210
M105
M109 S210
M105
M190 S60
M82 ;absolute extrusion mode
M220 S100 ;Reset Feedrate
M221 S100 ;Reset Flowrate

G28 ;Home

G92 E0 ;Reset Extruder
G1 Z2.0 F3000 ;Move Z Axis up
G1 X10.1 Y20 Z0.28 F5000.0 ;Move to start position
G1 X10.1 Y145.0 Z0.28 F1500.0 E15 ;Draw the first line
G1 X10.4 Y145.0 Z0.28 F5000.0 ;Move to side a little
G1 X10.4 Y20 Z0.28 F1500.0 E30 ;Draw the second line
G92 E0  ;Reset Extruder
G1 E-1.0000 F1800 ;Retract a bit
G1 Z2.0 F3000 ;Move Z Axis up
G1 E0.0000 F1800 

G92 E0
G92 E0
G1 F6000 E-8

;LAYER_COUNT:10

;LAYER:-4
M140 S60
M107
M204 S5000
M205 X30 Y30
G0 F7200 X67.6 Y29.912 Z0.24
M204 S500
M205 X8 Y8
;TYPE:SUPPORT-INTERFACE
G1 F6000 E0
G1 F1200 X67.965 Y29.452 E0.05156
G1 X68.084 Y29.314 E0.06756
G1 X68.589 Y28.78 E0.1321
G1 X69.112 Y28.303 E0.19425
G1 X69.289 Y28.155 E0.21451
G1 X69.76 Y27.796 E0.26651
G1 X69.943 Y27.669 E0.28607
G1 X70.4 Y27.38 E0.33355
G1 X70.4 Y272.618 E21.8671
G1 X70.462 Y272.656 E21.87349
G1 X71.043 Y272.967 E21.93135
G1 X71.195 Y273.041 E21.9462
G1 X71.788 Y273.294 E22.00281
G1 X71.959 Y273.357 E22.01881
G1 X72 Y273.37 E22.02259
G1 X72 Y26.628 E43.6882
G1 X72.148 Y26.576 E43.70197
G1 X72.726 Y26.402 E43.75498
G1 X72.928 Y26.35 E43.77329
G1 X73.535 Y26.225 E43.82771
G1 X73.6 Y26.214 E43.8335
G1 X73.6 Y273.783 E65.57173
G1 X74.174 Y273.862 E65.62261
G1 X74.353 Y273.877 E65.63838
G1 X75.185 Y273.912 E65.7115
G1 X75.2 Y273.912 E65.71281
G1 X75.2 Y26.087 E87.47352
G1 X76.8 Y26.087 E87.61402
G1 X76.8 Y273.912 E109.37473
G1 X78.4 Y273.912 E109.51522
G1 X78.4 Y26.087 E131.27593
G1 X80 Y26.087 E131.41642
G1 X80 Y273.912 E153.17713
G1 X81.6 Y273.912 E153.31762
G1 X81.6 Y26.087 E175.07833
G1 X83.2 Y26.087 E175.21882
G1 X83.2 Y273.912 E196.97953
G1 X84.8 Y273.912 E197.12002
G1 X84.8 Y26.087 E218.88073
G1 X86.4 Y26.087 E219.02122
G1 X86.4 Y273.912 E240.78193
G1 X88 Y273.912 E240.92242
G1 X88 Y26.087 E262.68313
G1 X89.6 Y26.087 E262.82362
G1 X89.6 Y273.912 E284.58433
G1 X91.2 Y273.912 E284.72482
G1 X91.2 Y26.087 E306.48553
G1 X92.8 Y26.087 E306.62602
G1 X92.8 Y273.912 E328.38673
G1 X94.4 Y273.912 E328.52722
G1 X94.4 Y26.087 E350.28793
G1 X96 Y26.087 E350.42842
G1 X96 Y273.912 E372.18913
G1 X97.6 Y273.912 E372.32962
G1 X97.6 Y26.087 E394.09033
G1 X99.2 Y26.087 E394.23083
G1 X99.2 Y273.912 E415.99154
G1 X100.8 Y273.912 E416.13203
G1 X100.8 Y26.087 E437.89274
G1 X102.4 Y26.087 E438.03323
G1 X102.4 Y273.912 E459.79394
G1 X104 Y273.912 E459.93443
G1 X104 Y26.087 E481.69514
G1 X105.6 Y26.087 E481.83563
G1 X105.6 Y273.912 E503.59634
G1 X107.2 Y273.912 E503.73683
G1 X107.2 Y26.087 E525.49754
G1 X108.8 Y26.087 E525.63803
G1 X108.8 Y273.912 E547.39874
G1 X110.4 Y273.912 E547.53923
G1 X110.4 Y26.087 E569.29994
G1 X112 Y26.087 E569.44043
G1 X112 Y273.912 E591.20114
G1 X113.6 Y273.912 E591.34163
G1 X113.6 Y26.087 E613.10234
G1 X115.2 Y26.087 E613.24283
G1 X115.2 Y273.912 E635.00354
G1 X116.8 Y273.912 E635.14403
G1 X116.8 Y26.087 E656.90474
G1 X118.4 Y26.087 E657.04523
G1 X118.4 Y273.912 E678.80594
G1 X120 Y273.912 E678.94644
G1 X120 Y26.087 E700.70714
G1 X121.6 Y26.087 E700.84764
G1 X121.6 Y273.912 E722.60835
G1 X123.2 Y273.912 E722.74884
G1 X123.2 Y26.087 E744.50955
G1 X124.8 Y26.087 E744.65004
G1 X124.8 Y273.912 E766.41075
G1 X126.4 Y273.912 E766.55124
G1 X126.4 Y26.087 E788.31195
G1 X128 Y26.087 E788.45244
G1 X128 Y273.912 E810.21315
G1 X129.6 Y273.912 E810.35364
G1 X129.6 Y26.087 E832.11435
G1 X131.2 Y26.087 E832.25484
G1 X131.2 Y273.912 E854.01555
G1 X132.8 Y273.912 E854.15604
G1 X132.8 Y26.087 E875.91675
G1 X134.4 Y26.087 E876.05724
G1 X134.4 Y273.912 E897.81795
G1 X136 Y273.912 E897.95844
G1 X136 Y26.087 E919.71915
G1 X137.6 Y26.087 E919.85964
G1 X137.6 Y273.912 E941.62035
G1 X139.2 Y273.912 E941.76084
G1 X139.2 Y26.087 E963.52155
G1 X140.8 Y26.087 E963.66204
G1 X140.8 Y273.912 E985.42275
G1 X142.4 Y273.912 E985.56325
G1 X142.4 Y26.087 E1007.32396
G1 X144 Y26.087 E1007.46445
G1 X144 Y273.912 E1029.22516
G1 X145.6 Y273.912 E1029.36565
G1 X145.6 Y26.087 E1051.12636
G1 X147.2 Y26.087 E1051.26685
G1 X147.2 Y273.912 E1073.02756
G1 X148.8 Y273.912 E1073.16805
G1 X148.8 Y26.087 E1094.92876
G1 X150.4 Y26.087 E1095.06925
G1 X150.4 Y273.912 E1116.82996
G1 X152 Y273.912 E1116.97045
G1 X152 Y26.087 E1138.73116
G1 X153.6 Y26.087 E1138.87165
G1 X153.6 Y273.912 E1160.63236
G1 X155.2 Y273.912 E1160.77285
G1 X155.2 Y26.087 E1182.53356
G1 X156.8 Y26.087 E1182.67405
G1 X156.8 Y273.912 E1204.43476
G1 X158.4 Y273.912 E1204.57525
G1 X158.4 Y26.087 E1226.33596
G1 X160 Y26.087 E1226.47645
G1 X160 Y273.912 E1248.23716
G1 X161.6 Y273.912 E1248.37765
G1 X161.6 Y26.087 E1270.13836
G1 X163.2 Y26.087 E1270.27885
G1 X163.2 Y273.912 E1292.03956
G1 X164.8 Y273.912 E1292.18006
G1 X164.8 Y26.087 E1313.94077
G1 X166.4 Y26.087 E1314.08126
G1 X166.4 Y273.912 E1335.84197
G1 X168 Y273.912 E1335.98246
G1 X168 Y26.087 E1357.74317
G1 X169.6 Y26.087 E1357.88366
G1 X169.6 Y273.912 E1379.64437
G1 X171.2 Y273.912 E1379.78486
G1 X171.2 Y26.087 E1401.54557
G1 X172.8 Y26.087 E1401.68606
G1 X172.8 Y273.912 E1423.44677
G1 X174.4 Y273.912 E1423.58726
G1 X174.4 Y26.087 E1445.34797
G1 X176 Y26.087 E1445.48846
G1 X176 Y273.912 E1467.24917
G1 X177.6 Y273.912 E1467.38966
G1 X177.6 Y26.087 E1489.15037
G1 X179.2 Y26.087 E1489.29086
G1 X179.2 Y273.912 E1511.05157
G1 X180.8 Y273.912 E1511.19206
G1 X180.8 Y26.087 E1532.95277
G1 X182.4 Y26.087 E1533.09326
G1 X182.4 Y273.912 E1554.85397
G1 X184 Y273.912 E1554.99446
G1 X184 Y26.087 E1576.75517
G1 X185.6 Y26.087 E1576.89566
G1 X185.6 Y273.912 E1598.65637
G1 X187.2 Y273.912 E1598.79687
G1 X187.2 Y26.087 E1620.55758
G1 X188.8 Y26.087 E1620.69807
G1 X188.8 Y273.912 E1642.45878
G1 X190.4 Y273.912 E1642.59927
G1 X190.4 Y26.087 E1664.35998
G1 X192 Y26.087 E1664.50047
G1 X192 Y273.912 E1686.26118
G1 X193.6 Y273.912 E1686.40167
G1 X193.6 Y26.087 E1708.16238
G1 X195.2 Y26.087 E1708.30287
G1 X195.2 Y273.912 E1730.06358
G1 X196.8 Y273.912 E1730.20407
G1 X196.8 Y26.087 E1751.96478
G1 X198.4 Y26.087 E1752.10527
G1 X198.4 Y273.912 E1773.86598
G1 X200 Y273.912 E1774.00647
G1 X200 Y26.087 E1795.76718
G1 X201.6 Y26.087 E1795.90767
G1 X201.6 Y273.912 E1817.66838
G1 X203.2 Y273.912 E1817.80887
G1 X203.2 Y26.087 E1839.56958
G1 X204.8 Y26.087 E1839.71007
G1 X204.8 Y273.912 E1861.47078
G1 X206.4 Y273.912 E1861.61127
G1 X206.4 Y26.087 E1883.37198
G1 X208 Y26.087 E1883.51247
G1 X208 Y273.912 E1905.27318
G1 X209.6 Y273.912 E1905.41368
G1 X209.6 Y26.087 E1927.17439
G1 X211.2 Y26.087 E1927.31488
G1 X211.2 Y273.912 E1949.07559
G1 X212.8 Y273.912 E1949.21608
G1 X212.8 Y26.087 E1970.97679
G1 X214.4 Y26.087 E1971.11728
G1 X214.4 Y273.912 E1992.87799
G1 X216 Y273.912 E1993.01848
G1 X216 Y26.087 E2014.77919
G1 X217.6 Y26.087 E2014.91968
G1 X217.6 Y273.912 E2036.68039
G1 X219.2 Y273.912 E2036.82088
G1 X219.2 Y26.087 E2058.58159
G1 X220.8 Y26.087 E2058.72208
G1 X220.8 Y273.912 E2080.48279
G1 X222.4 Y273.912 E2080.62328
G1 X222.4 Y26.087 E2102.38399
G1 X224 Y26.087 E2102.52448
G1 X224 Y273.912 E2124.28519
G1 X224.857 Y273.912 E2124.36044
G1 X225.474 Y273.891 E2124.41465
G1 X225.6 Y273.882 E2124.42574
G1 X225.6 Y26.121 E2146.18083
G1 X225.647 Y26.122 E2146.18496
G1 X225.826 Y26.137 E2146.20073
G1 X226.439 Y26.221 E2146.25506
G1 X226.651 Y26.259 E2146.27397
G1 X227.2 Y26.385 E2146.32343
G1 X227.2 Y273.617 E2168.03207
G1 X227.274 Y273.597 E2168.0388
G1 X227.852 Y273.423 E2168.09181
G1 X228.065 Y273.348 E2168.11163
G1 X228.631 Y273.12 E2168.16521
G1 X228.8 Y273.043 E2168.18152
G1 X228.8 Y26.956 E2189.78962
G1 X228.953 Y27.03 E2189.80455
G1 X229.533 Y27.34 E2189.86229
G1 X229.702 Y27.441 E2189.87958
G1 X230.193 Y27.764 E2189.93118
G1 X230.4 Y27.913 E2189.95358
G1 X230.4 Y272.081 E2211.39318
G1 X230.729 Y271.829 E2211.42957
G1 X230.882 Y271.702 E2211.44703
G1 X231.412 Y271.218 E2211.51005
G1 X231.916 Y270.685 E2211.57446
G1 X232.035 Y270.547 E2211.59046
G1 X232.4 Y270.087 E2211.64202
M204 S5000
M205 X30 Y30
G0 F7200 X232.399 Y270.087
M204 S500
M205 X8 Y8
G1 F1200 X232.548 Y269.88 E2211.66442
G1 X232.871 Y269.389 E2211.71603
G1 X232.976 Y269.213 E2211.73402
G1 X233.282 Y268.64 E2211.79106
G1 X233.359 Y268.482 E2211.80649
G1 X233.6 Y267.916 E2211.86051
G1 X233.6 Y32.096 E2232.5671
G1 X233.433 Y31.681 E2232.60638
G1 X233.35 Y31.5 E2232.62386
G1 X233.067 Y30.944 E2232.67864
G1 X232.972 Y30.776 E2232.69559
G1 X232.643 Y30.255 E2232.74969
G1 X232.512 Y30.066 E2232.76989
G1 X232.157 Y29.601 E2232.82126
G1 X232.009 Y29.424 E2232.84151
G1 X232 Y29.415 E2232.84263
G1 X232 Y270.588 E2254.01925
M204 S5000
M205 X30 Y30
;;retract;;
G1 F6000 E2246.01925
G0 F7200 X67.601 Y29.912
M204 S500
M205 X8 Y8
G1 F6000 E2254.01925
G1 F1200 X67.452 Y30.119 E2254.04165
G1 X67.2 Y30.502 E2254.0819
G1 X67.2 Y269.495 E2275.0671
G1 X67.357 Y269.744 E2275.09295
G1 X67.484 Y269.927 E2275.11251
G1 X67.843 Y270.398 E2275.16451
G1 X67.991 Y270.575 E2275.18477
G1 X68.474 Y271.104 E2275.24767
G1 X68.8 Y271.412 E2275.28705
G1 X68.8 Y28.587 E2296.60872
M204 S5000
M205 X30 Y30
;;retract;;
G1 F6000 E2288.60872
G0 F600 X68.8 Y28.587 Z0.84
G0 F7200 X234.451 Y33.632
;TIME_ELAPSED:1321.685862

;LAYER:-3
M204 S500
M205 X8 Y8
;TYPE:SUPPORT
G1 F6000 E2296.60872
G1 F1800 X226.675 Y25.856 E2298.80328
G1 X226.722 Y25.865 E2298.81283
G1 X227.345 Y26.007 E2298.94034
G1 X227.551 Y26.063 E2298.98295
G1 X228.18 Y26.267 E2299.11491
G1 X228.357 Y26.333 E2299.1526
G1 X228.72 Y26.488 E2299.23137
G1 X233.83 Y31.597 E2300.67338
G1 X234.039 Y32.115 E2300.78485
G1 X234.116 Y32.336 E2300.83156
G1 X234.293 Y32.922 E2300.95372
G1 X234.355 Y33.165 E2301.00376
G1 X234.481 Y33.777 E2301.12846
G1 X234.517 Y34 E2301.17353
G1 X234.591 Y34.645 E2301.3031
G1 X234.604 Y34.816 E2301.33732
G1 X234.617 Y35.213 E2301.41659
G1 X225.102 Y25.698 E2304.10193
G1 X224.832 Y25.687 E2304.15585
G1 X223.676 Y25.687 E2304.38654
G1 X234.625 Y36.635 E2307.47645
G1 X234.625 Y38.049 E2307.75863
G1 X222.262 Y25.687 E2311.24759
G1 X220.848 Y25.687 E2311.52977
G1 X234.625 Y39.463 E2315.4178
G1 X234.625 Y40.877 E2315.69998
G1 X219.434 Y25.687 E2319.98706
G1 X218.02 Y25.687 E2320.26924
G1 X234.625 Y42.292 E2324.95553
G1 X234.625 Y43.706 E2325.23771
G1 X216.605 Y25.687 E2330.3232
G1 X215.191 Y25.687 E2330.60538
G1 X234.625 Y45.12 E2336.08993
G1 X234.625 Y46.534 E2336.37211
G1 X213.777 Y25.687 E2342.25573
G1 X212.363 Y25.687 E2342.53791
G1 X234.625 Y47.948 E2348.82058
G1 X234.625 Y49.363 E2349.10296
G1 X210.949 Y25.687 E2355.78484
G1 X209.534 Y25.687 E2356.06722
G1 X234.625 Y50.777 E2363.1483
G1 X234.625 Y52.191 E2363.43048
G1 X208.12 Y25.687 E2370.91062
G1 X206.706 Y25.687 E2371.1928
G1 X234.625 Y53.605 E2379.07201
G1 X234.625 Y55.019 E2379.35418
G1 X205.292 Y25.687 E2387.63245
G1 X203.877 Y25.687 E2387.91483
G1 X234.625 Y56.434 E2396.59244
G1 X234.625 Y57.848 E2396.87462
G1 X202.463 Y25.687 E2405.95129
G1 X201.049 Y25.687 E2406.23346
G1 X234.625 Y59.262 E2415.7092
G1 X234.625 Y60.676 E2415.99138
G1 X199.635 Y25.687 E2425.86617
G1 X198.221 Y25.687 E2426.14835
G1 X234.625 Y62.091 E2436.42234
G1 X234.625 Y63.505 E2436.70452
G1 X196.806 Y25.687 E2447.37772
G1 X195.392 Y25.687 E2447.6599
G1 X234.625 Y64.919 E2458.73216
G1 X234.625 Y66.333 E2459.01434
G1 X193.978 Y25.687 E2470.48566
G1 X192.564 Y25.687 E2470.76784
G1 X234.625 Y67.747 E2482.63822
G1 X234.625 Y69.162 E2482.9206
G1 X191.15 Y25.687 E2495.19018
G1 X189.735 Y25.687 E2495.47256
G1 X234.625 Y70.576 E2508.14135
G1 X234.625 Y71.99 E2508.42352
G1 X188.321 Y25.687 E2521.49137
G1 X186.907 Y25.687 E2521.77355
G1 X234.625 Y73.404 E2535.24046
G1 X234.625 Y74.818 E2535.52264
G1 X185.493 Y25.687 E2549.38861
G1 X184.078 Y25.687 E2549.67099
G1 X234.625 Y76.233 E2563.9363
G1 X234.625 Y77.647 E2564.21848
G1 X182.664 Y25.687 E2578.88286
G1 X181.25 Y25.687 E2579.16504
G1 X234.625 Y79.061 E2594.22847
G1 X234.625 Y80.475 E2594.51065
G1 X179.836 Y25.687 E2609.97315
G1 X178.422 Y25.687 E2610.25533
G1 X234.625 Y81.89 E2626.11703
G1 X234.625 Y83.304 E2626.39921
G1 X177.007 Y25.687 E2642.66011
G1 X175.593 Y25.687 E2642.94229
G1 X234.625 Y84.718 E2659.60226
G1 X234.625 Y86.132 E2659.88444
G1 X174.179 Y25.687 E2676.94346
G1 X172.765 Y25.687 E2677.22564
G1 X234.625 Y87.546 E2694.68373
G1 X234.625 Y88.961 E2694.96611
G1 X171.351 Y25.687 E2712.8234
G1 X169.936 Y25.687 E2713.10578
G1 X234.625 Y90.375 E2731.36227
G1 X234.625 Y91.789 E2731.64445
G1 X168.522 Y25.687 E2750.3
G1 X167.108 Y25.687 E2750.58218
G1 X234.625 Y93.203 E2769.63679
G1 X234.625 Y94.617 E2769.91897
G1 X165.694 Y25.687 E2789.37265
G1 X164.279 Y25.687 E2789.65503
G1 X234.625 Y96.032 E2809.50805
G1 X234.625 Y97.446 E2809.79023
G1 X162.865 Y25.687 E2830.04231
G1 X161.451 Y25.687 E2830.32449
G1 X234.625 Y98.86 E2850.97563
G1 X234.625 Y100.274 E2851.25781
G1 X160.037 Y25.687 E2872.30801
G1 X158.623 Y25.687 E2872.59019
G1 X234.625 Y101.689 E2894.0396
G1 X234.625 Y103.103 E2894.32178
G1 X157.208 Y25.687 E2916.17039
G1 X155.794 Y25.687 E2916.45256
G1 X234.625 Y104.517 E2938.70024
G1 X234.625 Y105.931 E2938.98241
G1 X154.38 Y25.687 E2961.62915
G1 X152.966 Y25.687 E2961.91132
G1 X234.625 Y107.345 E2984.95712
G1 X234.625 Y108.76 E2985.2395
G1 X151.552 Y25.687 E3008.68449
G1 X150.137 Y25.687 E3008.96687
G1 X234.625 Y110.174 E3032.81107
G1 X234.625 Y111.588 E3033.09325
G1 X148.723 Y25.687 E3057.33651
G1 X147.309 Y25.687 E3057.61868
G1 X234.625 Y113.002 E3082.26101
G1 X234.625 Y114.416 E3082.54318
G1 X145.895 Y25.687 E3107.58457
G1 X144.481 Y25.687 E3107.86675
G1 X234.625 Y115.831 E3133.30733
