;FLAVOR:Marlin
;TIME:36403
;Filament used:32.6506m
;Layer height: 0.2
;MINX:102.128
;MINY:100.129
;MINZ:0.24
;MAXX:197.871
;MAXY:197.871
;MAXZ:56.46
                         
;Creality Print GCode Generated by CXEngineDEV
;Generated Time:2022-06-30 15:03:19
;----------Machine Config--------------
;Machine Name:Creality CR-10S
;Machine Height:400
;Machine Width:300
;Machine Depth:300
;Material name:Castable
;Number of Extruders:1
;ExtruderParams[0] Nozzle Diameter1000
;----------Profile Config---------------
;Layer Height:0.2
;Wall Thickness:0.8
;Top/Bottom Thickness:1
;Out Wall Line Width:0.4
;Inner Wall Line Width:0.4
;Inital Layer Height:200
;Wall Line Count:2
;Infill Line Distance:4
;Infill Pattern:grid
;Infill Sparse Density:20
;Infill Wipe Distance:0
;Print Temperature:210
;Bed Temperature:60
;Support Enable:true
;Support Density:30
;Support Angle:1.0472
;Adhesion Type:simpleraft
;machine is belt:false
;machine belt offset:10
;machine belt offset Y:0
;Raft Base Line Spacing:1.6
;Wait Heatup Sync:true
;----------Shell Config----------------
;Outer Wall Wipe Distance:200
;Infill Before Walls:false
;Infill Overlap:0.16
;Fill Gaps Between Walls:everywhere
;Minimum Infill Area:1
;Top Surface Skin Layer:0
;Top Layers:3
;Z Seam Alignment:sharpest_corner
;Seam Corner Preference:z_seam_corner_inner
;Z Seam X:150
;Z Seam Y:150
;Horizontal Expansion:0
;Top/Bottom Pattern:zigzag
;Ironing Pattern:zigzag
;Vase Model:false
;----------Support Config----------------
;Support Type:everywhere
;Support Pattern:zigzag
;Support Infill Layer Thickness:0.2
;Minimum Support Area:10
;Enable Support Roof:false
;Support Roof Thickness:0.8
;Support Roof Pattern:lines
;Connect Support Lines:0
;Connect Support ZigZags:1
;Minimum Support X/Y Distance:0.2
;Support Line Distance:1.33
; ---------PrintSpeed & Travel----------
;Enable Print Cool:true
;Avoid Printed Parts Traveling:true
;Enable Retraction:true
;Retraction Distance:8
;Retraction Speed:100
;Retraction Prime Speed:100
;Maximum Retraction Count:100
;Minimum Extrusion Distance Window:1
;Z Hop When Retracted:false
;Z Hop Height:0.2
;Retract Before Outer Wall:true
;Print Speed:45
;Infill Speed:45

;Prime Tower Speed:45
;Travel Speed:120
;Initial Layer Speed:22.5
;Skirt/Brim Speed:22.5
;Combing Mode:off
; --------SpecialModel&Mesh Fixes--------
;Union Overlapping Volum:true
;Remove All Holes:false
;Maximum Travel Resolution:0.67
;Maximum Deviation:0.05
;Maximum Model Angle:0.872665
;IS Mold Print:false
;Make Overhang Printable:false
;Enable Coasting:false
;Coasting Volumes:0.06
;Coasting Speed:0.9
;Raft AirGap:0.25
;Layer0 ZOverLap:0.13
;---------------------End of Head--------------------------
M140 S60
M105
M104 S210
M105
M109 S210
M105
M190 S60
M82 ;absolute extrusion mode
M220 S100 ;Reset Feedrate
M221 S100 ;Reset Flowrate

G28 ;Home

G92 E0 ;Reset Extruder
G1 Z2.0 F3000 ;Move Z Axis up
G1 X10.1 Y20 Z0.28 F5000.0 ;Move to start position
G1 X10.1 Y145.0 Z0.28 F1500.0 E15 ;Draw the first line
G1 X10.4 Y145.0 Z0.28 F5000.0 ;Move to side a little
G1 X10.4 Y20 Z0.28 F1500.0 E30 ;Draw the second line
G92 E0  ;Reset Extruder
G1 E-1.0000 F1800 ;Retract a bit
G1 Z2.0 F3000 ;Move Z Axis up
G1 E0.0000 F1800 

G92 E0
G92 E0
G1 F6000 E-8

;LAYER_COUNT:277

;LAYER:-4
M107
G0 F7200 X105.6 Y105.37 Z0.24
;TYPE:SUPPORT-INTERFACE
G1 F6000 E0
G1 F1200 X105.6 Y194.625 E7.83719
G1 X105.428 Y194.463 E7.85794
G1 X104.945 Y193.934 E7.92084
G1 X104.797 Y193.757 E7.9411
G1 X104.438 Y193.286 E7.9931
G1 X104.311 Y193.103 E8.01266
G1 X104 Y192.61 E8.06384
G1 X104 Y107.391 E15.54664
G1 X104.083 Y107.252 E15.56086
G1 X104.406 Y106.761 E15.61246
G1 X104.555 Y106.554 E15.63486
G0 F7200 X104.554 Y106.554
G1 F1200 X104.919 Y106.094 E15.68642
G1 X105.038 Y105.956 E15.70242
G1 X105.543 Y105.422 E15.76696
G1 X106.066 Y104.945 E15.82911
G1 X106.243 Y104.797 E15.84937
G1 X106.714 Y104.438 E15.90137
G1 X106.897 Y104.311 E15.92093
G1 X107.2 Y104.119 E15.95243
G1 X107.2 Y195.882 E24.00984
G1 X107.252 Y195.917 E24.01534
G1 X107.416 Y196.015 E24.03212
G1 X107.997 Y196.326 E24.08998
G1 X108.149 Y196.4 E24.10483
G1 X108.742 Y196.653 E24.16144
G1 X108.8 Y196.674 E24.16685
G1 X108.8 Y103.328 E32.36326
G1 X108.889 Y103.293 E32.37166
G1 X109.102 Y103.218 E32.39149
G1 X109.68 Y103.044 E32.44449
G1 X109.882 Y102.992 E32.46281
G1 X110.4 Y102.885 E32.50925
G1 X110.4 Y197.116 E40.78337
G1 X110.515 Y197.137 E40.79363
G1 X111.128 Y197.221 E40.84796
G1 X111.307 Y197.236 E40.86373
G1 X112 Y197.265 E40.92464
G1 X112 Y102.732 E49.22527
G1 X112.097 Y102.729 E49.2338
G1 X113.6 Y102.729 E49.36577
G1 X113.6 Y197.271 E57.6672
G1 X115.2 Y197.271 E57.80769
G1 X115.2 Y102.729 E66.10911
G1 X116.8 Y102.729 E66.2496
G1 X116.8 Y197.271 E74.55103
G1 X118.4 Y197.271 E74.69152
G1 X118.4 Y102.51 E83.01218
G1 X118.996 Y102.315 E83.06724
G1 X119.183 Y102.223 E83.08554
G1 X119.199 Y102.239 E83.08753
G1 X119.993 Y101.809 E83.16681
G1 X120 Y101.805 E83.16752
G1 X120 Y197.271 E91.55008
G1 X121.6 Y197.271 E91.69057
G1 X121.6 Y101.143 E100.13126
G1 X122.093 Y101.005 E100.17621
G1 X122.344 Y100.947 E100.19883
G1 X122.939 Y100.835 E100.25199
G1 X123.124 Y100.81 E100.26839
G1 X123.2 Y100.803 E100.27509
G1 X123.2 Y197.271 E108.74563
G1 X124.8 Y197.271 E108.88612
G1 X124.8 Y100.73 E117.36307
G1 X126.4 Y100.73 E117.50356
G1 X126.4 Y197.271 E125.98052
G1 X128 Y197.271 E126.12101
G1 X128 Y100.73 E134.59796
G1 X129.6 Y100.73 E134.73845
G1 X129.6 Y197.271 E143.2154
G1 X131.2 Y197.271 E143.35589
G1 X131.2 Y100.73 E151.83285
G1 X132.8 Y100.73 E151.97334
G1 X132.8 Y197.271 E160.45029
G1 X134.4 Y197.271 E160.59078
G1 X134.4 Y100.73 E169.06773
G1 X136 Y100.73 E169.20822
G1 X136 Y197.271 E177.68518
G1 X137.6 Y197.271 E177.82567
G1 X137.6 Y100.73 E186.30262
G1 X139.2 Y100.73 E186.44311
G1 X139.2 Y197.271 E194.92006
G1 X140.8 Y197.271 E195.06055
G1 X140.8 Y100.73 E203.5375
G1 X142.4 Y100.731 E203.678
G1 X142.4 Y197.271 E212.15486
G1 X144 Y197.271 E212.29535
G1 X144 Y100.731 E220.77222
G1 X145.6 Y100.731 E220.91271
G1 X145.6 Y197.271 E229.38957
G1 X147.2 Y197.271 E229.53006
G1 X147.2 Y100.731 E238.00693
G1 X148.8 Y100.731 E238.14742
G1 X148.8 Y197.271 E246.62428
G1 X150.4 Y197.271 E246.76477
G1 X150.4 Y100.731 E255.24164
G1 X152 Y100.731 E255.38213
G1 X152 Y197.271 E263.85899
G1 X153.6 Y197.271 E263.99948
G1 X153.6 Y100.731 E272.47635
G1 X155.2 Y100.731 E272.61684
G1 X155.2 Y197.271 E281.0937
G1 X156.8 Y197.271 E281.23419
G1 X156.8 Y100.731 E289.71106
G1 X158.4 Y100.731 E289.85155
G1 X158.4 Y197.271 E298.32841
G1 X160 Y197.271 E298.4689
G1 X160 Y100.731 E306.94577
G1 X161.6 Y100.732 E307.08626
G1 X161.6 Y197.271 E315.56304
G1 X163.2 Y197.271 E315.70353
G1 X163.2 Y100.732 E324.1803
G1 X164.8 Y100.732 E324.32079
G1 X164.8 Y197.271 E332.79757
G1 X166.4 Y197.271 E332.93806
G1 X166.4 Y100.732 E341.41484
G1 X168 Y100.732 E341.55533
G1 X168 Y197.271 E350.03211
G1 X169.6 Y197.271 E350.1726
G1 X169.6 Y100.732 E358.64937
G1 X171.2 Y100.732 E358.78986
G1 X171.2 Y197.271 E367.26664
G1 X172.8 Y197.271 E367.40713
G1 X172.8 Y100.732 E375.88391
G1 X174.4 Y100.732 E376.0244
G1 X174.4 Y197.271 E384.50118
G1 X176 Y197.271 E384.64167
G1 X176 Y100.732 E393.11844
G1 X177.6 Y100.732 E393.25893
G1 X177.6 Y197.271 E401.73571
G1 X179.2 Y197.271 E401.8762
G1 X179.2 Y100.782 E410.34859
G1 X179.792 Y100.863 E410.40105
G1 X180.004 Y100.901 E410.41996
G1 X180.601 Y101.037 E410.47373
G1 X180.799 Y101.091 E410.49175
G0 F7200 X180.8 Y101.092
G1 F1200 X180.8 Y197.271 E418.93692
G1 X182.4 Y197.271 E419.07741
G1 X182.4 Y101.723 E427.46717
G1 X183.722 Y102.429 E427.59876
G1 X183.75 Y102.374 E427.60418
G1 X183.829 Y102.407 E427.6117
G1 X184 Y102.455 E427.62729
G1 X184 Y197.271 E435.95278
G1 X185.6 Y197.271 E436.09327
G1 X185.6 Y102.725 E444.39505
G1 X185.721 Y102.729 E444.40568
G1 X187.2 Y102.731 E444.53555
G1 X187.2 Y197.271 E452.8368
G1 X187.903 Y197.271 E452.89853
G1 X188.52 Y197.25 E452.95273
G1 X188.684 Y197.238 E452.96717
G1 X188.8 Y197.225 E452.97742
G1 X188.8 Y102.773 E461.27095
G1 X188.872 Y102.779 E461.27729
G1 X189.485 Y102.863 E461.33162
G1 X189.697 Y102.901 E461.35053
G1 X190.294 Y103.037 E461.40429
G1 X190.4 Y103.066 E461.41394
G1 X190.4 Y196.932 E469.65601
G1 X190.898 Y196.782 E469.70168
G1 X191.111 Y196.707 E469.72151
G1 X191.677 Y196.479 E469.77509
G1 X191.858 Y196.396 E469.79257
G1 X192 Y196.324 E469.80655
G1 X192 Y103.673 E477.94194
G1 X192.579 Y103.982 E477.99956
G1 X192.748 Y104.083 E478.01685
G1 X193.239 Y104.406 E478.06846
G1 X193.446 Y104.555 E478.09085
G1 X193.6 Y104.678 E478.10816
G1 X193.6 Y195.322 E486.06731
G1 X193.775 Y195.188 E486.08667
G1 X193.928 Y195.061 E486.10413
G1 X194.458 Y194.577 E486.16715
G1 X194.962 Y194.044 E486.23156
G1 X195.081 Y193.906 E486.24756
G1 X195.446 Y193.446 E486.29912
G0 F7200 X195.445 Y193.446
G1 F1200 X195.594 Y193.239 E486.32152
G1 X195.917 Y192.748 E486.37312
G1 X196.022 Y192.572 E486.39112
G1 X196.328 Y191.999 E486.44816
G1 X196.405 Y191.841 E486.46359
G1 X196.658 Y191.246 E486.52036
G1 X196.71 Y191.103 E486.53372
G1 X196.8 Y190.826 E486.5593
G1 X196.8 Y109.163 E493.72986
G1 X196.784 Y109.11 E493.73472
G1 X196.707 Y108.889 E493.75527
G1 X196.479 Y108.323 E493.80885
G1 X196.396 Y108.142 E493.82633
G1 X196.113 Y107.586 E493.88111
G1 X196.018 Y107.418 E493.89806
G1 X195.689 Y106.897 E493.95217
G1 X195.558 Y106.708 E493.97236
G1 X195.203 Y106.243 E494.02373
G0 F7200 X195.2 Y106.24
G1 F1200 X195.2 Y193.757 E501.70831
;;retract;;
G1 F6000 E493.70831
G0 F600 X195.2 Y193.757 Z0.54
G0 F7200 X196.428 Y107.333
;TIME_ELAPSED:293.447967

;LAYER:-3
;TYPE:SUPPORT
G1 F6000 E501.70831
G1 F1800 X192.676 Y103.581 E502.23776
G1 X192.777 Y103.634 E502.24914
G1 X192.953 Y103.739 E502.26959
G1 X193.473 Y104.081 E502.33169
G1 X193.68 Y104.23 E502.35714
G1 X194.179 Y104.626 E502.4207
G1 X194.319 Y104.747 E502.43917
G1 X194.859 Y105.258 E502.51335
G1 X195.362 Y105.809 E502.58779
G1 X195.51 Y105.986 E502.61081
G1 X195.887 Y106.48 E502.67282
G1 X196.018 Y106.669 E502.69576
G1 X196.356 Y107.204 E502.75891
G1 X196.461 Y107.389 E502.78013
G1 X196.76 Y107.975 E502.84578
G1 X196.843 Y108.156 E502.86565
G1 X197.085 Y108.757 E502.93029
G1 X197.162 Y108.978 E502.95364
G1 X197.339 Y109.564 E503.01472
G1 X197.37 Y109.689 E503.02757
G1 X190.313 Y102.632 E504.02339
G1 X189.768 Y102.507 E504.07919
G1 X189.556 Y102.469 E504.10068
G1 X188.906 Y102.38 E504.16614
G1 X188.72 Y102.364 E504.18477
G1 X188.627 Y102.36 E504.19405
G1 X197.643 Y111.376 E505.46631
G1 X197.65 Y111.458 E505.47452
G1 X197.671 Y112.076 E505.53622
G1 X197.67 Y112.817 E505.61016
G1 X187.183 Y102.331 E507.08992
G1 X185.768 Y102.329 E507.23111
G1 X197.67 Y114.231 E508.91061
G1 X197.67 Y115.645 E509.0517
G1 X184.09 Y102.065 E510.96798
G1 X183.961 Y102.029 E510.98135
G1 X183.559 Y101.86 E511.02486
G1 X183.548 Y101.882 E511.02731
G1 X182.495 Y101.319 E511.14646
G1 X182.313 Y101.231 E511.16663
G1 X181.716 Y100.977 E511.23136
G1 X181.533 Y100.909 E511.25084
G1 X181.513 Y100.903 E511.25293
G1 X197.67 Y117.06 E513.53285
G1 X197.67 Y118.474 E513.67394
G1 X179.633 Y100.437 E516.21916
G1 X179.213 Y100.38 E516.26145
G1 X179.027 Y100.364 E516.28008
G1 X178.31 Y100.332 E516.35169
G1 X178.113 Y100.332 E516.37135
G1 X197.67 Y119.888 E519.13098
G1 X197.67 Y121.302 E519.27207
G1 X176.699 Y100.332 E522.23124
G1 X175.285 Y100.332 E522.37232
G1 X197.67 Y122.716 E525.53102
G1 X197.67 Y124.131 E525.67221
G1 X173.871 Y100.332 E529.0305
G1 X172.456 Y100.332 E529.17169
G1 X197.67 Y125.545 E532.72959
G1 X197.67 Y126.959 E532.87068
G1 X171.042 Y100.332 E536.62811
G1 X169.628 Y100.332 E536.7692
G1 X197.67 Y128.373 E540.72616
G1 X197.67 Y129.788 E540.86735
G1 X168.214 Y100.332 E545.02391
G1 X166.799 Y100.331 E545.1651
G1 X197.67 Y131.202 E549.52133
G1 X197.67 Y132.616 E549.66242
G1 X165.385 Y100.331 E554.21818
G1 X163.97 Y100.331 E554.35937
G1 X197.67 Y134.03 E559.11473
G1 X197.67 Y135.444 E559.25582
G1 X162.556 Y100.331 E564.21071
G1 X161.142 Y100.331 E564.3518
G1 X197.67 Y136.859 E569.5063
G1 X197.67 Y138.273 E569.64739
G1 X159.728 Y100.331 E575.00142
G1 X158.314 Y100.331 E575.1425
G1 X197.67 Y139.687 E580.69606
G1 X197.67 Y141.101 E580.83715
G1 X156.899 Y100.331 E586.59031
G1 X155.485 Y100.33 E586.7314
G1 X197.67 Y142.515 E592.68416
G1 X197.67 Y143.93 E592.82535
G1 X154.07 Y100.33 E598.97778
G1 X152.656 Y100.33 E599.11887
G1 X197.67 Y145.344 E605.47083
G1 X197.67 Y146.758 E605.61192
G1 X151.242 Y100.33 E612.16341
G1 X149.828 Y100.33 E612.3045
G1 X197.67 Y148.172 E619.05552
G1 X197.67 Y149.587 E619.19671
G1 X148.413 Y100.33 E626.14741
G1 X146.999 Y100.33 E626.2885
G1 X197.67 Y151.001 E633.43872
G1 X197.67 Y152.415 E633.57981
G1 X145.584 Y100.329 E640.92971
G1 X144.17 Y100.329 E641.0708
G1 X197.67 Y153.829 E648.62023
G1 X197.67 Y155.243 E648.76132
G1 X142.756 Y100.329 E656.51027
G1 X141.342 Y100.329 E656.65136
G1 X197.67 Y156.658 E664.59992
G1 X197.67 Y158.072 E664.74101
G1 X139.927 Y100.329 E672.88917
G1 X138.513 Y100.329 E673.03026
G1 X197.67 Y159.486 E681.37796
G1 X197.67 Y160.9 E681.51905
G1 X137.099 Y100.329 E690.06627
G1 X135.685 Y100.329 E690.20736
G1 X197.67 Y162.314 E698.95411
G1 X197.67 Y163.729 E699.0953
G1 X134.27 Y100.329 E708.04172
G1 X132.856 Y100.329 E708.18281
G1 X197.67 Y165.143 E717.32877
G1 X197.67 Y166.557 E717.46986
G1 X131.441 Y100.329 E726.81542
G1 X130.027 Y100.329 E726.95651
G1 X197.67 Y167.971 E736.50159
G1 X197.67 Y169.386 E736.64278
G1 X128.613 Y100.329 E746.38747
G1 X127.199 Y100.329 E746.52856
G1 X197.67 Y170.8 E756.47278
G1 X197.67 Y172.214 E756.61387
G1 X125.785 Y100.329 E766.75762
G1 X124.37 Y100.329 E766.89881
G1 X197.67 Y173.628 E777.24216
G1 X197.67 Y175.042 E777.38325
G1 X123.045 Y100.417 E787.91364
G1 X122.872 Y100.441 E787.93107
G1 X122.254 Y100.557 E787.99381
G1 X122.003 Y100.615 E788.01952
G1 X121.866 Y100.653 E788.0337
G1 X197.67 Y176.457 E798.73047
G1 X197.67 Y177.871 E798.87155
G1 X120.802 Y101.003 E809.71846
G1 X120.617 Y101.073 E809.7382
G1 X120.396 Y101.17 E809.76228
G1 X119.829 Y101.444 E809.82511
G1 X197.67 Y179.285 E820.80932
G1 X197.67 Y180.699 E820.95041
G1 X118.89 Y101.92 E832.06705
G1 X118.844 Y101.944 E832.07222
G1 X118.192 Y102.158 E832.1407
G1 X117.791 Y102.234 E832.18142
G1 X197.67 Y182.113 E843.45321
G1 X197.67 Y183.528 E843.5944
G1 X116.471 Y102.328 E855.05253
G1 X115.056 Y102.328 E855.19372
G1 X197.67 Y184.942 E866.85144
G1 X197.67 Y186.356 E866.99253
G1 X113.642 Y102.328 E878.84979
G1 X112.228 Y102.328 E878.99088
G1 X197.67 Y187.77 E891.04767
G1 X197.671 Y187.859 E891.05655
G1 X197.636 Y188.72 E891.14253
G1 X197.621 Y188.899 E891.16046
G1 X197.591 Y189.106 E891.18133
G1 X110.893 Y102.408 E903.41535
G1 X110.642 Y102.437 E903.44056
G1 X110.414 Y102.474 E903.46361
G1 X109.801 Y102.6 E903.52605
G1 X109.697 Y102.626 E903.53675
G1 X197.371 Y190.3 E915.9085
G1 X197.352 Y190.388 E915.91748
G1 X197.297 Y190.59 E915.93837
G1 X197.091 Y191.226 E916.00508
G1 X197.034 Y191.377 E916.02118
G1 X108.625 Y102.968 E928.49665
G1 X108.156 Y103.157 E928.5471
G1 X107.975 Y103.24 E928.56697
G1 X107.649 Y103.406 E928.60347
G1 X196.593 Y192.35 E941.15443
G1 X196.37 Y192.77 E941.20188
G1 X196.261 Y192.953 E941.22313
G1 X196.07 Y193.242 E941.2577
G1 X106.755 Y103.927 E953.86101
G1 X106.669 Y103.982 E953.8712
G1 X106.486 Y104.109 E953.89342
G1 X105.986 Y104.49 E953.95615
G1 X105.941 Y104.527 E953.96196
G1 X195.471 Y194.056 E966.59554
G1 X195.384 Y194.167 E966.60961
G1 X195.253 Y194.319 E966.62963
G1 X194.798 Y194.798 E966.69555
G1 X105.2 Y105.2 E979.3388
G1 X104.747 Y105.681 E979.40473
G1 X104.616 Y105.833 E979.42475
G1 X104.528 Y105.942 E979.43873
G1 X194.057 Y195.471 E992.07224
G1 X194.018 Y195.506 E992.07746
G1 X193.514 Y195.891 E992.14075
G1 X193.331 Y196.018 E992.16297
G1 X193.243 Y196.072 E992.17328
G1 X103.928 Y106.756 E1004.77666
G1 X103.739 Y107.047 E1004.81128
G1 X103.63 Y107.23 E1004.83253
G1 X103.405 Y107.648 E1004.8799
G1 X192.35 Y196.592 E1017.43093
G1 X192.025 Y196.76 E1017.46744
G1 X191.844 Y196.843 E1017.4873
G1 X191.374 Y197.031 E1017.53781
G1 X102.964 Y108.621 E1030.01342
G1 X102.909 Y108.774 E1030.02964
G1 X102.703 Y109.41 E1030.09635
G1 X102.648 Y109.612 E1030.11724
