;FLAVOR:Marlin
;TIME:39416
;Filament used:29.3348m
;Layer height: 0.2
;MINX:64.001
;MINY:82.049
;MINZ:0.24
;MAXX:236
;MAXY:217.95
;MAXZ:15.86
                                
;Creality Print GCode Generated by CXEngineDEV
;Generated Time:2022-06-30 15:03:19
;----------Machine Config--------------
;Machine Name:Creality CR-10S
;Machine Height:400
;Machine Width:300
;Machine Depth:300
;Material name:Castable
;Number of Extruders:1
;ExtruderParams[0] Nozzle Diameter1000
;----------Profile Config---------------
;Layer Height:0.2
;Wall Thickness:0.8
;Top/Bottom Thickness:1
;Out Wall Line Width:0.4
;Inner Wall Line Width:0.4
;Inital Layer Height:200
;Wall Line Count:2
;Infill Line Distance:4
;Infill Pattern:grid
;Infill Sparse Density:20
;Infill Wipe Distance:0
;Print Temperature:210
;Bed Temperature:60
;Support Enable:true
;Support Density:30
;Support Angle:1.0472
;Adhesion Type:simpleraft
;machine is belt:false
;machine belt offset:10
;machine belt offset Y:0
;Raft Base Line Spacing:1.6
;Wait Heatup Sync:true
;----------Shell Config----------------
;Outer Wall Wipe Distance:200
;Infill Before Walls:false
;Infill Overlap:0.16
;Fill Gaps Between Walls:everywhere
;Minimum Infill Area:1
;Top Surface Skin Layer:0
;Top Layers:3
;Z Seam Alignment:sharpest_corner
;Seam Corner Preference:z_seam_corner_inner
;Z Seam X:150
;Z Seam Y:150
;Horizontal Expansion:0
;Top/Bottom Pattern:zigzag
;Ironing Pattern:zigzag
;Vase Model:false
;----------Support Config----------------
;Support Type:everywhere
;Support Pattern:zigzag
;Support Infill Layer Thickness:0.2
;Minimum Support Area:10
;Enable Support Roof:false
;Support Roof Thickness:0.8
;Support Roof Pattern:lines
;Connect Support Lines:0
;Connect Support ZigZags:1
;Minimum Support X/Y Distance:0.2
;Support Line Distance:1.33
; ---------PrintSpeed & Travel----------
;Enable Print Cool:true
;Avoid Printed Parts Traveling:true
;Enable Retraction:true
;Retraction Distance:8
;Retraction Speed:100
;Retraction Prime Speed:100
;Maximum Retraction Count:100
;Minimum Extrusion Distance Window:1
;Z Hop When Retracted:false
;Z Hop Height:0.2
;Retract Before Outer Wall:true
;Print Speed:45
;Infill Speed:45

;Prime Tower Speed:45
;Travel Speed:120
;Initial Layer Speed:22.5
;Skirt/Brim Speed:22.5
;Combing Mode:off
; --------SpecialModel&Mesh Fixes--------
;Union Overlapping Volum:true
;Remove All Holes:false
;Maximum Travel Resolution:0.67
;Maximum Deviation:0.05
;Maximum Model Angle:0.872665
;IS Mold Print:false
;Make Overhang Printable:false
;Enable Coasting:false
;Coasting Volumes:0.06
;Coasting Speed:0.9
;Raft AirGap:0.25
;Layer0 ZOverLap:0.13
;---------------------End of Head--------------------------
M140 S60
M105
M104 S210
M105
M109 S210
M105
M190 S60
M82 ;absolute extrusion mode
M220 S100 ;Reset Feedrate
M221 S100 ;Reset Flowrate

G28 ;Home

G92 E0 ;Reset Extruder
G1 Z2.0 F3000 ;Move Z Axis up
G1 X10.1 Y20 Z0.28 F5000.0 ;Move to start position
G1 X10.1 Y145.0 Z0.28 F1500.0 E15 ;Draw the first line
G1 X10.4 Y145.0 Z0.28 F5000.0 ;Move to side a little
G1 X10.4 Y20 Z0.28 F1500.0 E30 ;Draw the second line
G92 E0  ;Reset Extruder
G1 E-1.0000 F1800 ;Retract a bit
G1 Z2.0 F3000 ;Move Z Axis up
G1 E0.0000 F1800 

G92 E0
G92 E0
G1 F6000 E-8

;LAYER_COUNT:74

;LAYER:-4
M107
G0 F7200 X67.2 Y85.569 Z0.24
;TYPE:SUPPORT-INTERFACE
G1 F6000 E0
G1 F1200 X67.2 Y108.606 E2.0228
G1 X66.816 Y108.186 E2.07277
G1 X66.668 Y108.009 E2.09303
G1 X66.309 Y107.538 E2.14503
G1 X66.182 Y107.355 E2.16459
G1 X65.845 Y106.821 E2.22004
G1 X65.766 Y106.681 E2.23415
G1 X65.6 Y106.355 E2.26628
G1 X65.6 Y87.815 E3.89421
G1 X65.845 Y87.356 E3.9399
G1 X65.954 Y87.173 E3.9586
G1 X66.277 Y86.682 E4.01021
G1 X66.426 Y86.475 E4.0326
G0 F7200 X66.425 Y86.475
G1 F1200 X66.79 Y86.015 E4.08416
G1 X66.909 Y85.877 E4.10016
G1 X67.414 Y85.343 E4.1647
G1 X67.937 Y84.866 E4.22685
G1 X68.114 Y84.718 E4.24711
G1 X68.585 Y84.359 E4.29911
G1 X68.768 Y84.232 E4.31867
G1 X68.8 Y84.211 E4.32203
G1 X68.8 Y109.956 E6.58262
G1 X69.137 Y110.178 E6.61805
G1 X69.302 Y110.277 E6.63495
G1 X69.83 Y110.561 E6.68759
G1 X70.016 Y110.65 E6.7057
G1 X70.4 Y110.813 E6.74233
G1 X70.4 Y83.359 E9.15297
G1 X70.76 Y83.214 E9.18705
G1 X70.973 Y83.139 E9.20688
G1 X71.551 Y82.965 E9.25988
G1 X71.753 Y82.913 E9.2782
G1 X72 Y82.862 E9.30034
G1 X72 Y111.723 E11.83453
G1 X72.069 Y111.773 E11.84202
G1 X72.606 Y112.271 E11.90632
G1 X73.076 Y112.834 E11.97072
G1 X73.472 Y113.452 E12.03517
G1 X73.6 Y113.723 E12.06149
G1 X73.6 Y82.662 E14.78885
G1 X73.968 Y82.65 E14.82118
G1 X75.2 Y82.65 E14.92936
G1 X75.2 Y217.35 E26.75693
G1 X74.011 Y217.35 E26.86133
G1 X73.6 Y217.332 E26.89746
G1 X73.6 Y161.014 E31.84256
G1 X73.328 Y161.523 E31.89323
G1 X72.901 Y162.12 E31.95768
G1 X72.405 Y162.661 E32.02213
G1 X72 Y162.999 E32.06845
G1 X72 Y217.138 E36.82222
G1 X71.578 Y217.042 E36.86022
G1 X71.38 Y216.988 E36.87824
G1 X70.785 Y216.795 E36.93316
G1 X70.614 Y216.732 E36.94916
G1 X70.4 Y216.64 E36.96962
G1 X70.4 Y163.91 E41.59967
G1 X70.184 Y163.998 E41.62015
G1 X70.029 Y164.069 E41.63512
G1 X69.462 Y164.359 E41.69104
G1 X69.293 Y164.455 E41.70811
G1 X68.8 Y164.765 E41.75924
G1 X68.8 Y215.782 E46.23888
G1 X68.633 Y215.673 E46.25639
G1 X68.426 Y215.524 E46.27878
G1 X67.95 Y215.146 E46.33216
G1 X67.815 Y215.029 E46.34784
G1 X67.3 Y214.542 E46.41008
G1 X67.2 Y214.432 E46.42313
G1 X67.2 Y166.122 E50.66508
G1 X66.909 Y166.43 E50.70228
G1 X66.79 Y166.568 E50.71828
G1 X66.425 Y167.028 E50.76985
G0 F7200 X66.426 Y167.028
G1 F1200 X66.277 Y167.235 E50.79224
G1 X65.944 Y167.741 E50.84543
G1 X65.842 Y167.912 E50.86291
G1 X65.552 Y168.452 E50.91673
G1 X65.466 Y168.631 E50.93417
G1 X65.218 Y169.215 E50.98988
G1 X65.163 Y169.363 E51.00374
G1 X64.955 Y170.007 E51.06317
G1 X64.905 Y170.191 E51.07991
G1 X64.772 Y170.777 E51.13267
G1 X64.734 Y170.989 E51.15159
G1 X64.649 Y171.608 E51.20645
G1 X64.634 Y171.787 E51.22222
G1 X64.603 Y172.489 E51.28392
G1 X64.601 Y208.003 E54.40229
G1 X64.62 Y208.576 E54.45263
G1 X64.633 Y208.753 E54.46822
G1 X64.704 Y209.373 E54.52301
G1 X64.738 Y209.585 E54.54186
G1 X64.859 Y210.173 E54.59458
G1 X64.919 Y210.41 E54.61604
G1 X65.088 Y210.969 E54.66732
G1 X65.162 Y211.182 E54.68712
G1 X65.393 Y211.756 E54.74145
G1 X65.476 Y211.937 E54.75893
G1 X65.6 Y212.18 E54.78289
G1 X65.6 Y168.362 E58.63041
;;retract;;
G1 F6000 E50.63041
G0 F7200 X78.4 Y82.65
G1 F6000 E58.63041
G1 F1200 X78.4 Y217.35 E70.45798
G1 X76.8 Y217.35 E70.59847
G1 X76.8 Y82.65 E82.42604
G1 X80 Y82.65 E82.70702
G1 X80 Y217.35 E94.53459
G1 X81.6 Y217.35 E94.67508
G1 X81.6 Y82.65 E106.50265
G1 X83.2 Y82.65 E106.64314
G1 X83.2 Y217.35 E118.47071
G1 X84.8 Y217.35 E118.6112
G1 X84.8 Y82.65 E130.43877
G1 X86.4 Y82.65 E130.57926
G1 X86.4 Y217.35 E142.40683
G1 X88 Y217.35 E142.54732
G1 X88 Y82.65 E154.37489
G1 X89.6 Y82.65 E154.51539
G1 X89.6 Y217.35 E166.34296
G1 X91.2 Y217.35 E166.48345
G1 X91.2 Y82.65 E178.31102
G1 X92.8 Y82.65 E178.45151
G1 X92.8 Y217.35 E190.27908
G1 X94.4 Y217.35 E190.41957
G1 X94.4 Y82.65 E202.24714
G1 X96 Y82.65 E202.38763
G1 X96 Y217.35 E214.2152
G1 X97.6 Y217.35 E214.35569
G1 X97.6 Y82.65 E226.18326
G1 X99.2 Y82.65 E226.32375
G1 X99.2 Y217.35 E238.15132
G1 X100.8 Y217.35 E238.29181
G1 X100.8 Y82.65 E250.11938
G1 X102.4 Y82.65 E250.25988
G1 X102.4 Y217.35 E262.08745
G1 X104 Y217.35 E262.22794
G1 X104 Y82.65 E274.05551
G1 X105.6 Y82.65 E274.196
G1 X105.6 Y217.35 E286.02357
G1 X107.2 Y217.35 E286.16406
G1 X107.2 Y82.65 E297.99163
G1 X108.8 Y82.65 E298.13212
G1 X108.8 Y217.35 E309.95969
G1 X110.4 Y217.35 E310.10018
G1 X110.4 Y82.65 E321.92775
G1 X112 Y82.65 E322.06824
G1 X112 Y217.35 E333.89581
G1 X113.6 Y217.35 E334.0363
G1 X113.6 Y82.65 E345.86387
G1 X115.2 Y82.65 E346.00436
G1 X115.2 Y217.35 E357.83193
G1 X116.8 Y217.35 E357.97243
G1 X116.8 Y82.65 E369.8
G1 X118.4 Y82.65 E369.94049
G1 X118.4 Y217.35 E381.76806
G1 X120 Y217.35 E381.90855
G1 X120 Y82.65 E393.73612
G1 X121.6 Y82.65 E393.87661
G1 X121.6 Y217.35 E405.70418
G1 X123.2 Y217.35 E405.84467
G1 X123.2 Y82.65 E417.67224
G1 X124.8 Y82.65 E417.81273
G1 X124.8 Y217.35 E429.6403
G1 X126.4 Y217.35 E429.78079
G1 X126.4 Y82.65 E441.60836
G1 X128 Y82.65 E441.74885
G1 X128 Y217.35 E453.57642
G1 X129.6 Y217.35 E453.71691
G1 X129.6 Y82.65 E465.54449
G1 X131.2 Y82.65 E465.68498
G1 X131.2 Y217.35 E477.51255
G1 X132.8 Y217.35 E477.65304
G1 X132.8 Y82.65 E489.48061
G1 X134.4 Y82.65 E489.6211
G1 X134.4 Y217.35 E501.44867
G1 X136 Y217.35 E501.58916
G1 X136 Y82.65 E513.41673
G1 X137.6 Y82.65 E513.55722
G1 X137.6 Y217.35 E525.38479
G1 X139.2 Y217.35 E525.52528
G1 X139.2 Y82.65 E537.35285
G1 X140.8 Y82.65 E537.49334
G1 X140.8 Y217.35 E549.32091
G1 X142.4 Y217.35 E549.4614
G1 X142.4 Y82.65 E561.28897
G1 X144 Y82.65 E561.42947
G1 X144 Y217.35 E573.25704
G1 X145.6 Y217.35 E573.39753
G1 X145.6 Y82.65 E585.2251
G1 X147.2 Y82.65 E585.36559
G1 X147.2 Y217.35 E597.19316
G1 X148.8 Y217.35 E597.33365
G1 X148.8 Y82.65 E609.16122
G1 X150.4 Y82.65 E609.30171
G1 X150.4 Y217.35 E621.12928
G1 X152 Y217.35 E621.26977
G1 X152 Y82.65 E633.09734
G1 X153.6 Y82.65 E633.23783
G1 X153.6 Y217.35 E645.0654
G1 X155.2 Y217.35 E645.20589
G1 X155.2 Y82.65 E657.03346
G1 X156.8 Y82.65 E657.17395
G1 X156.8 Y217.35 E669.00153
G1 X158.4 Y217.35 E669.14202
G1 X158.4 Y82.65 E680.96959
G1 X160 Y82.65 E681.11008
G1 X160 Y217.35 E692.93765
G1 X161.6 Y217.35 E693.07814
G1 X161.6 Y82.65 E704.90571
G1 X163.2 Y82.65 E705.0462
G1 X163.2 Y217.35 E716.87377
G1 X164.8 Y217.35 E717.01426
G1 X164.8 Y82.65 E728.84183
G1 X166.4 Y82.65 E728.98232
G1 X166.4 Y217.35 E740.80989
G1 X168 Y217.35 E740.95038
G1 X168 Y82.65 E752.77795
G1 X169.6 Y82.65 E752.91844
G1 X169.6 Y217.35 E764.74601
G1 X171.2 Y217.35 E764.88651
G1 X171.2 Y82.65 E776.71408
G1 X172.8 Y82.65 E776.85457
G1 X172.8 Y217.35 E788.68214
G1 X174.4 Y217.35 E788.82263
G1 X174.4 Y82.65 E800.6502
G1 X176 Y82.65 E800.79069
G1 X176 Y217.35 E812.61826
G1 X177.6 Y217.35 E812.75875
G1 X177.6 Y82.65 E824.58632
G1 X179.2 Y82.65 E824.72681
G1 X179.2 Y217.35 E836.55438
G1 X180.8 Y217.35 E836.69487
G1 X180.8 Y82.65 E848.52244
G1 X182.4 Y82.65 E848.66293
G1 X182.4 Y217.35 E860.4905
G1 X184 Y217.35 E860.63099
G1 X184 Y82.65 E872.45857
G1 X185.6 Y82.65 E872.59906
G1 X185.6 Y217.35 E884.42663
G1 X187.2 Y217.35 E884.56712
G1 X187.2 Y82.65 E896.39469
G1 X188.8 Y82.65 E896.53518
G1 X188.8 Y217.35 E908.36275
G1 X190.4 Y217.35 E908.50324
G1 X190.4 Y82.65 E920.33081
G1 X192 Y82.65 E920.4713
G1 X192 Y217.35 E932.29887
G1 X193.6 Y217.35 E932.43936
G1 X193.6 Y82.65 E944.26693
G1 X195.2 Y82.65 E944.40742
G1 X195.2 Y217.35 E956.23499
G1 X196.8 Y217.35 E956.37548
G1 X196.8 Y82.65 E968.20305
G1 X198.4 Y82.65 E968.34355
G1 X198.4 Y217.35 E980.17112
G1 X200 Y217.35 E980.31161
G1 X200 Y82.65 E992.13918
G1 X201.6 Y82.65 E992.27967
G1 X201.6 Y217.35 E1004.10724
G1 X203.2 Y217.35 E1004.24773
G1 X203.2 Y82.65 E1016.0753
G1 X204.8 Y82.65 E1016.21579
G1 X204.8 Y217.35 E1028.04336
G1 X206.4 Y217.35 E1028.18385
G1 X206.4 Y82.65 E1040.01142
G1 X208 Y82.65 E1040.15191
G1 X208 Y217.35 E1051.97948
G1 X209.6 Y217.35 E1052.11997
G1 X209.6 Y82.65 E1063.94754
G1 X211.2 Y82.65 E1064.08803
G1 X211.2 Y217.35 E1075.91561
G1 X212.8 Y217.35 E1076.0561
G1 X212.8 Y82.65 E1087.88367
G1 X214.4 Y82.65 E1088.02416
G1 X214.4 Y217.35 E1099.85173
G1 X216 Y217.35 E1099.99222
G1 X216 Y82.65 E1111.81979
G1 X217.6 Y82.65 E1111.96028
G1 X217.6 Y217.35 E1123.78785
G1 X219.2 Y217.35 E1123.92834
G1 X219.2 Y82.65 E1135.75591
G1 X220.8 Y82.65 E1135.8964
G1 X220.8 Y217.35 E1147.72397
G1 X222.4 Y217.35 E1147.86446
G1 X222.4 Y160.323 E1152.87182
G1 X222.684 Y160.766 E1152.91802
G1 X223.154 Y161.329 E1152.98242
G1 X223.691 Y161.827 E1153.04673
G1 X224 Y162.049 E1153.08014
G1 X224 Y217.35 E1157.93594
G1 X225.6 Y217.35 E1158.07643
G1 X225.6 Y162.862 E1162.86084
G1 X225.616 Y162.868 E1162.86235
G1 X226.322 Y163.042 E1162.92619
G1 X226.82 Y163.111 E1162.97034
G1 X226.995 Y163.126 E1162.98576
G1 X227.2 Y163.155 E1163.00394
G1 X227.2 Y217.273 E1167.75587
G1 X227.423 Y217.247 E1167.77558
G1 X227.64 Y217.212 E1167.79488
G1 X228.247 Y217.087 E1167.8493
G1 X228.449 Y217.035 E1167.86761
G1 X228.8 Y216.93 E1167.89978
G1 X228.8 Y163.497 E1172.59156
G1 X229.195 Y163.625 E1172.62802
G1 X229.401 Y163.701 E1172.6473
G1 X229.963 Y163.941 E1172.70096
G1 X230.147 Y164.029 E1172.71887
G1 X230.4 Y164.165 E1172.74409
G1 X230.4 Y216.265 E1177.31882
G1 X230.548 Y216.189 E1177.33343
G1 X230.715 Y216.094 E1177.3503
G1 X231.232 Y215.768 E1177.40397
G1 X231.408 Y215.646 E1177.42277
G1 X231.904 Y215.267 E1177.47758
G1 X232 Y215.188 E1177.4885
G1 X232 Y165.241 E1181.87418
G1 X232.047 Y165.278 E1181.87944
G1 X232.195 Y165.406 E1181.89662
G1 X232.7 Y165.884 E1181.95767
G1 X233.184 Y166.414 E1182.0207
G1 X233.332 Y166.591 E1182.04095
G1 X233.6 Y166.943 E1182.0798
G1 X233.6 Y213.489 E1186.16685
G1 X233.723 Y213.318 E1186.18535
G1 X234.046 Y212.827 E1186.23696
G1 X234.151 Y212.651 E1186.25495
G1 X234.457 Y212.078 E1186.31199
G1 X234.534 Y211.92 E1186.32742
G1 X234.787 Y211.325 E1186.38419
G1 X234.839 Y211.182 E1186.39756
G1 X235.045 Y210.546 E1186.45626
G1 X235.095 Y210.362 E1186.473
G1 X235.228 Y209.774 E1186.52593
G1 X235.266 Y209.564 E1186.54467
G1 X235.351 Y208.945 E1186.59954
G1 X235.366 Y208.766 E1186.61531
G1 X235.397 Y208.064 E1186.67701
G1 X235.4 Y172.408 E1189.80785
G1 X235.379 Y171.82 E1189.85951
G1 X235.367 Y171.665 E1189.87316
G1 X235.297 Y171.054 E1189.92716
G1 X235.264 Y170.848 E1189.94548
G1 X235.2 Y170.537 E1189.97336
G1 X235.2 Y209.898 E1193.42952
;;retract;;
G1 F6000 E1185.42952
G0 F7200 X233.574 Y107.699
G1 F6000 E1193.42952
G1 F1200 X233.209 Y108.159 E1193.48108
G1 X233.09 Y108.297 E1193.49708
G1 X232.586 Y108.83 E1193.56149
G1 X232.053 Y109.316 E1193.62483
G1 X232 Y109.361 E1193.63094
G1 X232 Y84.815 E1195.78624
G1 X231.574 Y84.476 E1195.83404
G1 X231.367 Y84.327 E1195.85644
G1 X230.876 Y84.004 E1195.90804
G1 X230.707 Y83.903 E1195.92533
G1 X230.4 Y83.739 E1195.95589
G1 X230.4 Y110.438 E1198.30025
G1 X229.986 Y110.649 E1198.34105
G1 X229.805 Y110.732 E1198.35853
G1 X229.239 Y110.96 E1198.41211
G1 X229.026 Y111.035 E1198.43194
G1 X228.8 Y111.104 E1198.45269
G1 X228.8 Y83.071 E1200.91418
G1 X228.62 Y83.012 E1200.93081
G1 X228.422 Y82.958 E1200.94883
G1 X227.825 Y82.822 E1201.00259
G1 X227.613 Y82.784 E1201.0215
G1 X227.2 Y82.728 E1201.0581
G1 X227.2 Y111.446 E1203.57973
G1 X226.669 Y111.507 E1203.62667
G1 X225.973 Y111.634 E1203.68879
G1 X225.6 Y111.752 E1203.72314
G1 X225.6 Y82.65 E1206.27849
G1 X222.4 Y82.65 E1206.55947
G1 X222.4 Y114.279 E1209.33671
G1 X222.479 Y114.137 E1209.35098
G1 X222.911 Y113.545 E1209.41533
G1 X223.416 Y113.013 E1209.47974
G1 X223.986 Y112.549 E1209.54428
G1 X224 Y112.541 E1209.54569
G1 X224 Y82.65 E1212.17032
;;retract;;
G1 F6000 E1204.17032
G0 F7200 X234.781 Y105.511
G1 F6000 E1212.17032
G1 F1200 X234.843 Y105.341 E1212.18621
G1 X235.039 Y104.738 E1212.24189
G1 X235.094 Y104.536 E1212.26027
G1 X235.2 Y104.068 E1212.30241
G1 X235.2 Y90.114 E1213.52766
G1 X235.141 Y89.827 E1213.55339
G1 X235.079 Y89.584 E1213.57541
G1 X234.912 Y89.031 E1213.62613
G1 X234.835 Y88.81 E1213.64668
G1 X234.607 Y88.244 E1213.70026
G1 X234.524 Y88.063 E1213.71775
G1 X234.241 Y87.507 E1213.77253
G1 X234.146 Y87.339 E1213.78947
G1 X233.817 Y86.818 E1213.84358
G1 X233.686 Y86.629 E1213.86377
G1 X233.6 Y86.517 E1213.87617
G1 X233.6 Y107.662 E1215.73284
G1 X233.573 Y107.699 E1215.73686
;;retract;;
G1 F6000 E1207.73686
G0 F600 X233.573 Y107.699 Z0.54
G0 F7200 X234.796 Y87.718
;TIME_ELAPSED:705.340915

;LAYER:-3
;TYPE:SUPPORT
G1 F6000 E1215.73686
G1 F1800 X230.321 Y83.243 E1216.36834
G1 X230.905 Y83.555 E1216.4344
G1 X231.081 Y83.66 E1216.45485
G1 X231.601 Y84.002 E1216.51695
G1 X231.808 Y84.151 E1216.5424
G1 X232.307 Y84.547 E1216.60597
G1 X232.447 Y84.668 E1216.62443
G1 X232.987 Y85.179 E1216.69861
G1 X233.49 Y85.73 E1216.77305
G1 X233.638 Y85.907 E1216.79608
G1 X234.015 Y86.401 E1216.85808
G1 X234.146 Y86.59 E1216.88103
G1 X234.484 Y87.125 E1216.94417
G1 X234.589 Y87.31 E1216.9654
G1 X234.888 Y87.896 E1217.03104
G1 X234.971 Y88.077 E1217.05091
G1 X235.213 Y88.678 E1217.11555
G1 X235.29 Y88.899 E1217.13891
G1 X235.467 Y89.485 E1217.19999
