;FLAVOR:Marlin
;TIME:7115
;Filament used:6.37887m
;Layer height: 0.2
;MINX:126.229
;MINY:49.189
;MINZ:0.24
;MAXX:173.77
;MAXY:250.81
;MAXZ:19.66
                             
;Creality Print GCode Generated by CXEngineDEV
;Generated Time:2022-06-30 15:03:19
;----------Machine Config--------------
;Machine Name:Creality CR-10S
;Machine Height:400
;Machine Width:300
;Machine Depth:300
;Material name:Castable
;Number of Extruders:1
;ExtruderParams[0] Nozzle Diameter1000
;----------Profile Config---------------
;Layer Height:0.2
;Wall Thickness:0.8
;Top/Bottom Thickness:1
;Out Wall Line Width:0.4
;Inner Wall Line Width:0.4
;Inital Layer Height:200
;Wall Line Count:2
;Infill Line Distance:4
;Infill Pattern:grid
;Infill Sparse Density:20
;Infill Wipe Distance:0
;Print Temperature:210
;Bed Temperature:60
;Support Enable:false
;Support Density:30
;Support Angle:1.0472
;Adhesion Type:simpleraft
;machine is belt:false
;machine belt offset:10
;machine belt offset Y:0
;Raft Base Line Spacing:1.6
;Wait Heatup Sync:true
;----------Shell Config----------------
;Outer Wall Wipe Distance:200
;Infill Before Walls:false
;Infill Overlap:0.16
;Fill Gaps Between Walls:everywhere
;Minimum Infill Area:1
;Top Surface Skin Layer:0
;Top Layers:3
;Z Seam Alignment:sharpest_corner
;Seam Corner Preference:z_seam_corner_inner
;Z Seam X:150
;Z Seam Y:150
;Horizontal Expansion:0
;Top/Bottom Pattern:zigzag
;Ironing Pattern:zigzag
;Vase Model:false
;----------Support Config----------------
;Support Type:everywhere
;Support Pattern:zigzag
;Support Infill Layer Thickness:0.2
;Minimum Support Area:10
;Enable Support Roof:false
;Support Roof Thickness:0.8
;Support Roof Pattern:lines
;Connect Support Lines:0
;Connect Support ZigZags:1
;Minimum Support X/Y Distance:0.2
;Support Line Distance:1.33
; ---------PrintSpeed & Travel----------
;Enable Print Cool:true
;Avoid Printed Parts Traveling:true
;Enable Retraction:true
;Retraction Distance:8
;Retraction Speed:100
;Retraction Prime Speed:100
;Maximum Retraction Count:100
;Minimum Extrusion Distance Window:1
;Z Hop When Retracted:false
;Z Hop Height:0.2
;Retract Before Outer Wall:true
;Print Speed:45
;Infill Speed:45

;Prime Tower Speed:45
;Travel Speed:120
;Initial Layer Speed:22.5
;Skirt/Brim Speed:22.5
;Combing Mode:off
; --------SpecialModel&Mesh Fixes--------
;Union Overlapping Volum:true
;Remove All Holes:false
;Maximum Travel Resolution:0.67
;Maximum Deviation:0.05
;Maximum Model Angle:0.872665
;IS Mold Print:false
;Make Overhang Printable:false
;Enable Coasting:false
;Coasting Volumes:0.06
;Coasting Speed:0.9
;Raft AirGap:0.25
;Layer0 ZOverLap:0.13
;---------------------End of Head--------------------------
M140 S60
M105
M104 S210
M105
M109 S210
M105
M190 S60
M82 ;absolute extrusion mode
M220 S100 ;Reset Feedrate
M221 S100 ;Reset Flowrate

G28 ;Home

G92 E0 ;Reset Extruder
G1 Z2.0 F3000 ;Move Z Axis up
G1 X10.1 Y20 Z0.28 F5000.0 ;Move to start position
G1 X10.1 Y145.0 Z0.28 F1500.0 E15 ;Draw the first line
G1 X10.4 Y145.0 Z0.28 F5000.0 ;Move to side a little
G1 X10.4 Y20 Z0.28 F1500.0 E30 ;Draw the second line
G92 E0  ;Reset Extruder
G1 E-1.0000 F1800 ;Retract a bit
G1 Z2.0 F3000 ;Move Z Axis up
G1 E0.0000 F1800 

G92 E0
G92 E0
G1 F6000 E-8

;LAYER_COUNT:93

;LAYER:-4
M107
G0 F7200 X128 Y54.519 Z0.24
;TYPE:SUPPORT-INTERFACE
G1 F6000 E0
G1 F1200 X128 Y245.488 E16.76837
G1 X127.99 Y245.472 E16.77003
G1 X127.908 Y245.321 E16.78511
G1 X127.626 Y244.739 E16.8419
G1 X127.545 Y244.553 E16.85971
G1 X127.322 Y243.965 E16.91493
G1 X127.265 Y243.789 E16.93118
G1 X127.106 Y243.224 E16.98271
G1 X127.048 Y242.975 E17.00516
G1 X126.934 Y242.366 E17.05957
G1 X126.909 Y242.182 E17.07587
G1 X126.841 Y241.407 E17.14418
G1 X126.83 Y241.01 E17.17906
G1 X126.83 Y59.083 E33.15348
G1 X126.864 Y58.257 E33.22607
G1 X126.879 Y58.078 E33.24184
G1 X126.964 Y57.459 E33.2967
G1 X127.002 Y57.247 E33.31561
G1 X127.135 Y56.661 E33.36838
G1 X127.185 Y56.477 E33.38512
G1 X127.391 Y55.841 E33.44382
G1 X127.443 Y55.698 E33.45718
G1 X127.698 Y55.099 E33.51434
G1 X127.773 Y54.945 E33.52938
G1 X128.075 Y54.379 E33.58572
G1 X128.184 Y54.196 E33.60442
G1 X128.507 Y53.705 E33.65602
G1 X128.656 Y53.498 E33.67842
G1 X129.018 Y53.041 E33.72961
G1 X129.151 Y52.887 E33.74748
G1 X129.586 Y52.429 E33.80294
G1 X129.6 Y52.415 E33.80468
G1 X129.6 Y247.577 E50.94122
G1 X129.928 Y247.89 E50.98103
G1 X130.057 Y248.002 E50.99603
G1 X130.538 Y248.384 E51.04997
G1 X130.745 Y248.533 E51.07236
G1 X131.2 Y248.832 E51.12017
G1 X131.2 Y51.171 E68.47614
G1 X131.568 Y50.95 E68.51383
G1 X131.719 Y50.868 E68.52892
G1 X132.284 Y50.594 E68.58406
G1 X132.486 Y50.506 E68.6034
G1 X132.8 Y50.386 E68.63292
G1 X132.8 Y249.619 E86.12692
G1 X132.897 Y249.655 E86.13601
G1 X133.492 Y249.848 E86.19093
G1 X133.69 Y249.902 E86.20895
G1 X134.287 Y250.038 E86.26272
G1 X134.4 Y250.058 E86.27279
G1 X134.4 Y49.944 E103.84416
G1 X134.66 Y49.896 E103.86737
G1 X134.845 Y49.871 E103.88376
G1 X135.634 Y49.801 E103.95331
G1 X136 Y49.79 E103.98547
G1 X136 Y250.207 E121.58343
G1 X137.6 Y250.207 E121.72392
G1 X137.6 Y49.791 E139.3218
G1 X139.2 Y49.791 E139.46229
G1 X139.2 Y250.207 E157.06017
G1 X140.8 Y250.207 E157.20066
G1 X140.8 Y49.791 E174.79854
G1 X142.4 Y49.791 E174.93903
G1 X142.4 Y250.207 E192.53691
G1 X144 Y250.207 E192.6774
G1 X144 Y49.791 E210.27528
G1 X145.6 Y49.792 E210.41577
G1 X145.6 Y250.208 E228.01365
G1 X147.2 Y250.208 E228.15414
G1 X147.2 Y49.792 E245.75202
G1 X148.8 Y49.792 E245.89252
G1 X148.8 Y250.208 E263.49039
G1 X150.4 Y250.208 E263.63089
G1 X150.4 Y49.792 E281.22876
G1 X152 Y49.792 E281.36926
G1 X152 Y250.208 E298.96713
G1 X153.6 Y250.208 E299.10763
G1 X153.6 Y49.792 E316.7055
G1 X155.2 Y49.793 E316.846
G1 X155.2 Y250.209 E334.44387
G1 X156.8 Y250.209 E334.58437
G1 X156.8 Y49.793 E352.18224
G1 X158.4 Y49.793 E352.32274
G1 X158.4 Y250.209 E369.92062
G1 X160 Y250.209 E370.06111
G1 X160 Y49.793 E387.65899
G1 X161.6 Y49.793 E387.79948
G1 X161.6 Y250.209 E405.39736
G1 X163.2 Y250.209 E405.53785
G1 X163.2 Y49.793 E423.13573
G1 X164.001 Y49.793 E423.20606
G1 X164.709 Y49.825 E423.26829
G1 X164.8 Y49.833 E423.27631
G1 X164.8 Y250.161 E440.86646
G1 X165.155 Y250.129 E440.89776
G1 X165.34 Y250.104 E440.91415
G1 X165.935 Y249.992 E440.96731
G1 X166.186 Y249.934 E440.98994
G1 X166.4 Y249.874 E441.00945
G1 X166.4 Y50.123 E458.54894
G1 X166.508 Y50.152 E458.55876
G1 X167.103 Y50.345 E458.61368
G1 X167.274 Y50.408 E458.62968
G1 X167.879 Y50.666 E458.68744
G1 X168 Y50.726 E458.69929
G1 X168 Y249.269 E476.13271
G1 X168.281 Y249.132 E476.16016
G1 X168.432 Y249.05 E476.17525
G1 X168.975 Y248.723 E476.23091
G1 X169.158 Y248.601 E476.25022
G1 X169.6 Y248.278 E476.29829
G1 X169.6 Y51.726 E493.55688
G1 X169.943 Y51.998 E493.59532
G1 X170.071 Y52.109 E493.6102
G1 X170.531 Y52.546 E493.66591
G1 X170.657 Y52.678 E493.68193
G1 X171.065 Y53.142 E493.73618
G1 X171.2 Y53.31 E493.75511
G1 X171.2 Y246.684 E510.73465
G1 X171.356 Y246.487 E510.75672
G1 X171.5 Y246.287 E510.77836
G0 F7200 X171.501 Y246.287
G1 F1200 X171.821 Y245.798 E510.82967
G1 X171.917 Y245.637 E510.84613
G0 F7200 X171.916 Y245.637
G1 F1200 X172.227 Y245.055 E510.90407
G1 X172.304 Y244.897 E510.91951
G1 X172.557 Y244.302 E510.97628
G1 X172.609 Y244.159 E510.98964
G1 X172.815 Y243.523 E511.04834
G1 X172.865 Y243.339 E511.06508
G1 X172.998 Y242.751 E511.11802
G1 X173.036 Y242.541 E511.13676
G1 X173.121 Y241.922 E511.19162
G1 X173.136 Y241.743 E511.20739
G1 X173.17 Y240.909 E511.28068
G1 X173.17 Y58.99 E527.2544
G1 X173.159 Y58.592 E527.28936
G1 X173.089 Y57.802 E527.359
G1 X173.066 Y57.634 E527.37389
G1 X172.952 Y57.025 E527.42829
G1 X172.894 Y56.774 E527.45091
G1 X172.8 Y56.44 E527.48138
G1 X172.8 Y243.57 E543.91266
;;retract;;
G1 F6000 E535.91266
G0 F600 X172.8 Y243.57 Z0.54
G0 F7200 X126.556 Y242.522
;TIME_ELAPSED:316.124260

;LAYER:-3
;TYPE:SUPPORT
G1 F6000 E543.91266
G1 F1800 X134.515 Y250.481 E545.03576
G1 X134.428 Y250.47 E545.04451
G1 X134.216 Y250.432 E545.066
G1 X133.593 Y250.29 E545.12976
G1 X133.387 Y250.234 E545.15106
G1 X132.758 Y250.03 E545.21704
G1 X132.585 Y249.965 E545.23548
G1 X127.084 Y244.463 E546.0118
G1 X126.948 Y244.107 E546.04982
G1 X126.881 Y243.902 E546.07134
G1 X126.716 Y243.315 E546.13219
G1 X126.658 Y243.065 E546.15779
G1 X126.541 Y242.44 E546.22124
G1 X126.513 Y242.236 E546.24179
G1 X126.441 Y241.42 E546.32352
G1 X126.43 Y241.01 E546.36445
G1 X126.429 Y240.98 E546.36744
G1 X136.054 Y250.605 E547.72563
G1 X137.468 Y250.605 E547.86672
G1 X126.429 Y239.566 E549.42445
G1 X126.429 Y238.152 E549.56553
G1 X138.882 Y250.605 E551.32279
G1 X140.297 Y250.605 E551.46398
G1 X126.429 Y236.737 E553.4209
G1 X126.429 Y235.323 E553.56199
G1 X141.711 Y250.606 E555.71852
G1 X143.126 Y250.606 E555.85971
G1 X126.429 Y233.909 E558.21583
G1 X126.429 Y232.495 E558.35692
G1 X144.54 Y250.606 E560.91258
G1 X145.954 Y250.606 E561.05367
G1 X126.429 Y231.081 E563.80886
G1 X126.429 Y229.666 E563.95005
G1 X147.369 Y250.607 E566.90498
G1 X148.783 Y250.607 E567.04607
G1 X126.429 Y228.252 E570.20053
G1 X126.429 Y226.838 E570.34162
G1 X150.197 Y250.607 E573.69561
G1 X151.612 Y250.607 E573.8368
G1 X126.429 Y225.424 E577.39039
G1 X126.429 Y224.01 E577.53148
G1 X153.027 Y250.607 E581.28468
G1 X154.441 Y250.607 E581.42577
G1 X126.429 Y222.595 E585.37856
G1 X126.429 Y221.181 E585.51965
G1 X155.855 Y250.607 E589.67198
G1 X157.269 Y250.607 E589.81307
G1 X126.429 Y219.767 E594.16493
G1 X126.429 Y218.353 E594.30601
G1 X158.684 Y250.608 E598.85754
G1 X160.098 Y250.608 E598.99863
G1 X126.429 Y216.938 E603.74976
G1 X126.429 Y215.524 E603.89085
G1 X161.513 Y250.608 E608.84158
G1 X162.927 Y250.608 E608.98267
G1 X126.429 Y214.11 E614.13294
G1 X126.429 Y212.696 E614.27403
G1 X164.331 Y250.598 E619.62241
G1 X164.379 Y250.599 E619.6272
G1 X165.205 Y250.526 E619.70994
G1 X165.407 Y250.498 E619.73029
G1 X165.606 Y250.459 E619.75052
G1 X126.429 Y211.282 E625.27882
G1 X126.429 Y209.867 E625.42001
G1 X166.75 Y250.189 E631.10981
G1 X166.866 Y250.158 E631.12179
G1 X167.075 Y250.089 E631.14375
G1 X167.665 Y249.865 E631.20672
G1 X167.786 Y249.81 E631.21998
G1 X126.429 Y208.453 E637.0559
G1 X126.429 Y207.039 E637.19699
G1 X168.727 Y249.337 E643.16569
G1 X169.191 Y249.06 E643.21962
G1 X169.38 Y248.934 E643.24228
G1 X169.586 Y248.782 E643.26782
G1 X126.429 Y205.625 E649.35774
G1 X126.429 Y204.211 E649.49883
G1 X170.369 Y248.151 E655.69924
G1 X170.546 Y247.998 E655.72259
G1 X170.7 Y247.85 E655.7439
G1 X171.08 Y247.448 E655.79909
G1 X126.429 Y202.796 E662.0999
G1 X126.429 Y201.382 E662.24099
G1 X171.717 Y246.67 E668.63162
G1 X171.825 Y246.521 E668.64998
G1 X172.161 Y246.009 E668.71109
G1 X172.269 Y245.826 E668.73229
G1 X172.275 Y245.814 E668.73363
G1 X126.429 Y199.968 E675.20299
G1 X126.429 Y198.554 E675.34408
G1 X172.749 Y244.873 E681.88027
G1 X172.925 Y244.459 E681.92515
G1 X172.99 Y244.282 E681.94397
G1 X173.132 Y243.842 E681.9901
G1 X126.429 Y197.139 E688.5804
G1 X126.429 Y195.725 E688.72149
G1 X173.412 Y242.709 E695.35137
G1 X173.43 Y242.612 E695.36121
G1 X173.52 Y241.955 E695.42738
G1 X173.535 Y241.776 E695.4453
G1 X173.549 Y241.431 E695.47975
G1 X126.429 Y194.311 E702.1289
G1 X126.429 Y192.897 E702.26999
G1 X173.569 Y240.038 E708.92202
G1 X173.569 Y238.623 E709.06321
G1 X126.429 Y191.483 E715.71517
G1 X126.429 Y190.068 E715.85636
G1 X173.569 Y237.209 E722.50839
G1 X173.569 Y235.795 E722.64948
G1 X126.429 Y188.654 E729.30152
G1 X126.429 Y187.24 E729.44261
G1 X173.569 Y234.381 E736.09464
G1 X173.569 Y232.966 E736.23583
G1 X126.429 Y185.826 E742.88779
G1 X126.429 Y184.412 E743.02888
G1 X173.569 Y231.552 E749.68085
G1 X173.569 Y230.138 E749.82194
G1 X126.429 Y182.997 E756.47397
G1 X126.429 Y181.583 E756.61506
G1 X173.569 Y228.724 E763.26709
G1 X173.569 Y227.31 E763.40818
G1 X126.429 Y180.169 E770.06022
G1 X126.429 Y178.755 E770.20131
G1 X173.569 Y225.895 E776.85327
G1 X173.569 Y224.481 E776.99436
G1 X126.429 Y177.34 E783.64639
G1 X126.429 Y175.926 E783.78748
G1 X173.569 Y223.067 E790.43952
G1 X173.569 Y221.653 E790.5806
G1 X126.429 Y174.512 E797.23264
G1 X126.429 Y173.098 E797.37373
G1 X173.569 Y220.239 E804.02576
G1 X173.569 Y218.824 E804.16695
G1 X126.429 Y171.684 E810.81891
G1 X126.429 Y170.269 E810.9601
G1 X173.569 Y217.41 E817.61214
G1 X173.569 Y215.996 E817.75323
G1 X126.429 Y168.855 E824.40526
G1 X126.429 Y167.441 E824.54635
G1 X173.569 Y214.582 E831.19838
G1 X173.569 Y213.167 E831.33957
G1 X126.429 Y166.027 E837.99154
G1 X126.429 Y164.613 E838.13263
G1 X173.569 Y211.753 E844.78459
G1 X173.569 Y210.339 E844.92568
G1 X126.429 Y163.198 E851.57771
G1 X126.429 Y161.784 E851.7188
G1 X173.569 Y208.925 E858.37084
G1 X173.569 Y207.511 E858.51192
G1 X126.429 Y160.37 E865.16396
G1 X126.429 Y158.956 E865.30505
G1 X173.569 Y206.096 E871.95701
G1 X173.569 Y204.682 E872.0981
G1 X126.429 Y157.541 E878.75013
G1 X126.429 Y156.127 E878.89122
G1 X173.569 Y203.268 E885.54326
G1 X173.569 Y201.854 E885.68435
G1 X126.429 Y154.713 E892.33638
G1 X126.429 Y153.299 E892.47747
G1 X173.569 Y200.44 E899.1295
G1 X173.569 Y199.025 E899.27069
G1 X126.429 Y151.885 E905.92266
G1 X126.429 Y150.47 E906.06385
G1 X173.569 Y197.611 E912.71588
G1 X173.569 Y196.197 E912.85697
G1 X126.429 Y149.056 E919.509
G1 X126.429 Y147.642 E919.65009
G1 X173.569 Y194.783 E926.30213
G1 X173.569 Y193.368 E926.44332
G1 X126.429 Y146.228 E933.09528
G1 X126.429 Y144.814 E933.23637
G1 X173.569 Y191.954 E939.88833
G1 X173.569 Y190.54 E940.02942
G1 X126.429 Y143.399 E946.68145
G1 X126.429 Y141.985 E946.82254
G1 X173.569 Y189.126 E953.47458
G1 X173.569 Y187.712 E953.61567
G1 X126.429 Y140.571 E960.2677
G1 X126.429 Y139.157 E960.40879
G1 X173.569 Y186.297 E967.06075
G1 X173.569 Y184.883 E967.20184
G1 X126.429 Y137.742 E973.85388
G1 X126.429 Y136.328 E973.99497
G1 X173.569 Y183.469 E980.647
G1 X173.569 Y182.055 E980.78809
G1 X126.429 Y134.914 E987.44012
G1 X126.429 Y133.5 E987.58121
G1 X173.569 Y180.641 E994.23325
G1 X173.569 Y179.226 E994.37444
G1 X126.429 Y132.086 E1001.0264
G1 X126.429 Y130.671 E1001.16759
G1 X173.569 Y177.812 E1007.81962
G1 X173.569 Y176.398 E1007.96071
G1 X126.429 Y129.257 E1014.61275
G1 X126.429 Y127.843 E1014.75384
G1 X173.569 Y174.984 E1021.40587
G1 X173.569 Y173.569 E1021.54706
G1 X126.429 Y126.429 E1028.19902
G1 X126.429 Y125.015 E1028.34011
G1 X173.569 Y172.155 E1034.99207
G1 X173.569 Y170.741 E1035.13316
G1 X126.429 Y123.6 E1041.7852
G1 X126.429 Y122.186 E1041.92629
G1 X173.569 Y169.327 E1048.57832
G1 X173.569 Y167.913 E1048.71941
G1 X126.429 Y120.772 E1055.37144
G1 X126.429 Y119.358 E1055.51253
G1 X173.569 Y166.498 E1062.1645
G1 X173.569 Y165.084 E1062.30559
G1 X126.429 Y117.943 E1068.95762
G1 X126.429 Y116.529 E1069.09871
G1 X173.569 Y163.67 E1075.75074
G1 X173.569 Y162.256 E1075.89183
G1 X126.429 Y115.115 E1082.54387
G1 X126.429 Y113.701 E1082.68496
G1 X173.569 Y160.842 E1089.33699
G1 X173.569 Y159.427 E1089.47818
G1 X126.429 Y112.287 E1096.13014
G1 X126.429 Y110.872 E1096.27133
G1 X173.569 Y158.013 E1102.92337
G1 X173.569 Y156.599 E1103.06446
G1 X126.429 Y109.458 E1109.71649
G1 X126.429 Y108.044 E1109.85758
G1 X173.569 Y155.185 E1116.50961
G1 X173.569 Y153.77 E1116.6508
G1 X126.429 Y106.63 E1123.30276
G1 X126.429 Y105.216 E1123.44385
G1 X173.569 Y152.356 E1130.09582
G1 X173.569 Y150.942 E1130.23691
G1 X126.429 Y103.801 E1136.88894
G1 X126.429 Y102.387 E1137.03003
G1 X173.569 Y149.528 E1143.68206
G1 X173.569 Y148.114 E1143.82315
G1 X126.429 Y100.973 E1150.47519
G1 X126.429 Y99.559 E1150.61628
G1 X173.569 Y146.699 E1157.26824
G1 X173.569 Y145.285 E1157.40933
G1 X126.429 Y98.145 E1164.06129
G1 X126.429 Y96.73 E1164.20248
G1 X173.569 Y143.871 E1170.85452
G1 X173.569 Y142.457 E1170.99561
G1 X126.429 Y95.316 E1177.64764
G1 X126.429 Y93.902 E1177.78873
G1 X173.569 Y141.043 E1184.44076
G1 X173.569 Y139.628 E1184.58195
G1 X126.429 Y92.488 E1191.23391
G1 X126.429 Y91.073 E1191.3751
G1 X173.569 Y138.214 E1198.02714
G1 X173.569 Y136.8 E1198.16823
G1 X126.429 Y89.659 E1204.82026
G1 X126.429 Y88.245 E1204.96135
G1 X173.569 Y135.386 E1211.61338
G1 X173.569 Y133.971 E1211.75457
G1 X126.429 Y86.831 E1218.40654
G1 X126.429 Y85.417 E1218.54763
G1 X173.569 Y132.557 E1225.19959
