;FLAVOR:Marlin
;TIME:8301
;Filament used:5.11307m
;Layer height: 0.2
;MINX:107.249
;MINY:96.25
;MINZ:0.24
;MAXX:192.75
;MAXY:203.75
;MAXZ:2.46
                               
;Creality Print GCode Generated by CXEngineDEV
;Generated Time:2022-06-30 15:03:19
;----------Machine Config--------------
;Machine Name:Creality CR-10S
;Machine Height:400
;Machine Width:300
;Machine Depth:300
;Material name:Castable
;Number of Extruders:1
;ExtruderParams[0] Nozzle Diameter1000
;----------Profile Config---------------
;Layer Height:0.2
;Wall Thickness:0.8
;Top/Bottom Thickness:1
;Out Wall Line Width:0.4
;Inner Wall Line Width:0.4
;Inital Layer Height:200
;Wall Line Count:2
;Infill Line Distance:4
;Infill Pattern:grid
;Infill Sparse Density:20
;Infill Wipe Distance:0
;Print Temperature:205
;Bed Temperature:60
;Support Enable:false
;Support Density:30
;Support Angle:1.0472
;Adhesion Type:simpleraft
;machine is belt:false
;machine belt offset:10
;machine belt offset Y:0
;Raft Base Line Spacing:1.6
;Wait Heatup Sync:true
;----------Shell Config----------------
;Outer Wall Wipe Distance:200
;Infill Before Walls:false
;Infill Overlap:0.16
;Fill Gaps Between Walls:everywhere
;Minimum Infill Area:1
;Top Surface Skin Layer:0
;Top Layers:3
;Z Seam Alignment:sharpest_corner
;Seam Corner Preference:z_seam_corner_inner
;Z Seam X:150
;Z Seam Y:150
;Horizontal Expansion:0
;Top/Bottom Pattern:zigzag
;Ironing Pattern:zigzag
;Vase Model:false
;----------Support Config----------------
;Support Type:everywhere
;Support Pattern:zigzag
;Support Infill Layer Thickness:0.2
;Minimum Support Area:10
;Enable Support Roof:false
;Support Roof Thickness:0.8
;Support Roof Pattern:lines
;Connect Support Lines:0
;Connect Support ZigZags:1
;Minimum Support X/Y Distance:0.2
;Support Line Distance:1.33
; ---------PrintSpeed & Travel----------
;Enable Print Cool:true
;Avoid Printed Parts Traveling:true
;Enable Retraction:true
;Retraction Distance:8
;Retraction Speed:100
;Retraction Prime Speed:100
;Maximum Retraction Count:100
;Minimum Extrusion Distance Window:1
;Z Hop When Retracted:false
;Z Hop Height:0.2
;Retract Before Outer Wall:true
;Print Speed:45
;Infill Speed:45

;Prime Tower Speed:45
;Travel Speed:120
;Initial Layer Speed:22.5
;Skirt/Brim Speed:22.5
;Combing Mode:off
; --------SpecialModel&Mesh Fixes--------
;Union Overlapping Volum:true
;Remove All Holes:false
;Maximum Travel Resolution:0.67
;Maximum Deviation:0.05
;Maximum Model Angle:0.872665
;IS Mold Print:false
;Make Overhang Printable:false
;Enable Coasting:false
;Coasting Volumes:0.06
;Coasting Speed:0.9
;Raft AirGap:0.25
;Layer0 ZOverLap:0.13
;---------------------End of Head--------------------------
M140 S60
M105
M104 S205
M105
M109 S205
M105
M190 S60
M82 ;absolute extrusion mode
M220 S100 ;Reset Feedrate
M221 S100 ;Reset Flowrate

G28 ;Home

G92 E0 ;Reset Extruder
G1 Z2.0 F3000 ;Move Z Axis up
G1 X10.1 Y20 Z0.28 F5000.0 ;Move to start position
G1 X10.1 Y145.0 Z0.28 F1500.0 E15 ;Draw the first line
G1 X10.4 Y145.0 Z0.28 F5000.0 ;Move to side a little
G1 X10.4 Y20 Z0.28 F1500.0 E30 ;Draw the second line
G92 E0  ;Reset Extruder
G1 E-1.0000 F1800 ;Retract a bit
G1 Z2.0 F3000 ;Move Z Axis up
G1 E0.0000 F1800 

G92 E0
G92 E0
G1 F6000 E-8

;LAYER_COUNT:7

;LAYER:-4
M107
G0 F7200 X110.4 Y99.705 Z0.24
;TYPE:SUPPORT-INTERFACE
G1 F6000 E0
G1 F1200 X110.4 Y200.3 E8.83292
G1 X110.355 Y200.253 E8.83863
G1 X109.933 Y199.772 E8.89482
G1 X109.816 Y199.626 E8.91125
G1 X109.455 Y199.131 E8.96504
G1 X109.329 Y198.943 E8.98492
G1 X109 Y198.396 E9.04096
G1 X108.925 Y198.256 E9.05491
G1 X108.8 Y197.997 E9.08016
G1 X108.8 Y101.991 E17.51014
G1 X109.095 Y101.439 E17.56509
G1 X109.204 Y101.256 E17.5838
G1 X109.527 Y100.765 E17.6354
G1 X109.676 Y100.558 E17.6578
G1 X110.038 Y100.101 E17.70899
G1 X110.171 Y99.947 E17.72686
G1 X110.606 Y99.489 E17.78232
G1 X110.738 Y99.363 E17.79834
G1 X111.202 Y98.955 E17.8526
G1 X111.391 Y98.803 E17.87389
G1 X111.862 Y98.459 E17.92511
G1 X112 Y98.367 E17.93967
G1 X112 Y201.627 E27.0066
G1 X112.256 Y201.796 E27.03353
G1 X112.425 Y201.897 E27.05082
G1 X113.001 Y202.205 E27.10817
G1 X113.153 Y202.279 E27.12302
G1 X113.6 Y202.469 E27.16566
G1 X113.6 Y97.53 E36.38002
G1 X114.079 Y97.348 E36.42501
G1 X114.275 Y97.283 E36.44314
G1 X114.834 Y97.126 E36.49413
G1 X115.085 Y97.068 E36.51675
G1 X115.2 Y97.046 E36.52703
G1 X115.2 Y202.953 E45.82638
G1 X115.307 Y202.978 E45.83603
G1 X115.519 Y203.016 E45.85494
G1 X116.132 Y203.1 E45.90927
G1 X116.311 Y203.115 E45.92504
G1 X116.8 Y203.137 E45.96802
G1 X116.8 Y96.856 E55.30021
G1 X117.055 Y96.85 E55.32261
G1 X118.4 Y96.851 E55.44071
G1 X118.4 Y203.147 E64.77421
G1 X120 Y203.147 E64.9147
G1 X120 Y96.851 E74.24821
G1 X121.6 Y96.851 E74.3887
G1 X121.6 Y203.147 E83.72221
G1 X123.2 Y203.147 E83.8627
G1 X123.2 Y96.851 E93.19621
G1 X124.8 Y96.851 E93.3367
G1 X124.8 Y203.147 E102.67021
G1 X126.4 Y203.148 E102.8107
G1 X126.4 Y96.851 E112.14429
G1 X128 Y96.851 E112.28478
G1 X128 Y203.148 E121.61838
G1 X129.6 Y203.148 E121.75887
G1 X129.6 Y96.851 E131.09246
G1 X131.2 Y96.851 E131.23295
G1 X131.2 Y203.148 E140.56655
G1 X132.8 Y203.148 E140.70704
G1 X132.8 Y96.851 E150.04063
G1 X134.4 Y96.851 E150.18112
G1 X134.4 Y203.148 E159.51472
G1 X136 Y203.149 E159.65521
G1 X136 Y96.851 E168.98889
G1 X137.6 Y96.851 E169.12938
G1 X137.6 Y203.149 E178.46307
G1 X139.2 Y203.149 E178.60356
G1 X139.2 Y96.852 E187.93715
G1 X140.8 Y96.852 E188.07764
G1 X140.8 Y203.149 E197.41124
G1 X142.4 Y203.149 E197.55173
G1 X142.4 Y96.852 E206.88532
G1 X144 Y96.852 E207.02582
G1 X144 Y203.13 E216.35774
G1 X144.685 Y203.069 E216.41813
G1 X144.87 Y203.044 E216.43452
G1 X145.465 Y202.932 E216.48768
G1 X145.6 Y202.901 E216.49984
G1 X145.6 Y96.852 E225.81166
G1 X147.2 Y96.852 E225.95215
G1 X147.2 Y202.366 E235.217
G1 X147.245 Y202.346 E235.22132
G1 X147.811 Y202.072 E235.27654
G1 X147.962 Y201.99 E235.29162
G1 X148.505 Y201.663 E235.34728
G1 X148.688 Y201.541 E235.36659
G1 X148.8 Y201.46 E235.37873
G1 X148.8 Y96.852 E244.56402
G1 X150.4 Y96.852 E244.70451
G1 X150.4 Y200.03 E253.76424
G1 X151.037 Y199.295 E253.84964
G1 X151.079 Y199.321 E253.85398
G1 X151.386 Y199.045 E253.89023
G1 X151.99 Y198.628 E253.95467
G1 X152 Y198.623 E253.95565
G1 X152 Y96.852 E262.89184
G1 X153.6 Y96.852 E263.03233
G1 X153.6 Y197.978 E271.91187
G1 X154.045 Y197.875 E271.95198
G1 X154.775 Y197.803 E272.01639
G1 X155.2 Y197.815 E272.05372
G1 X155.2 Y96.852 E280.91896
G1 X156.8 Y96.852 E281.05945
G1 X156.8 Y198.102 E289.94988
G1 X156.937 Y198.142 E289.96241
G1 X157.611 Y198.433 E290.02688
G1 X158.243 Y198.807 E290.09136
G1 X158.4 Y198.929 E290.10882
G1 X158.4 Y96.852 E299.07187
G1 X160 Y96.853 E299.21236
G1 X160 Y200.498 E308.31309
G1 X160.348 Y200.83 E308.35532
G1 X160.477 Y200.942 E308.37032
G1 X160.958 Y201.324 E308.42426
G1 X161.165 Y201.473 E308.44665
G1 X161.6 Y201.759 E308.49236
G1 X161.6 Y96.853 E317.70382
G1 X163.2 Y96.853 E317.84431
G1 X163.2 Y202.551 E327.12531
G1 X163.317 Y202.595 E327.13628
G1 X163.912 Y202.788 E327.19121
G1 X164.11 Y202.842 E327.20923
G1 X164.707 Y202.978 E327.26299
G1 X164.8 Y202.994 E327.27128
G1 X164.8 Y96.853 E336.59118
G1 X166.4 Y96.853 E336.73167
G1 X166.4 Y203.146 E346.06491
G1 X166.419 Y203.147 E346.06658
G1 X168 Y203.147 E346.2054
G1 X168 Y96.853 E355.53874
G1 X169.6 Y96.853 E355.67923
G1 X169.6 Y203.147 E365.01256
G1 X171.2 Y203.147 E365.15305
G1 X171.2 Y96.853 E374.48638
G1 X172.8 Y96.853 E374.62687
G1 X172.8 Y203.148 E383.96029
G1 X174.4 Y203.148 E384.10078
G1 X174.4 Y96.853 E393.4342
G1 X176 Y96.853 E393.57469
G1 X176 Y203.148 E402.90811
G1 X177.6 Y203.149 E403.0486
G1 X177.6 Y96.853 E412.38211
G1 X179.2 Y96.853 E412.5226
G1 X179.2 Y203.149 E421.85611
G1 X180.8 Y203.149 E421.9966
G1 X180.8 Y96.895 E431.32642
G1 X180.868 Y96.9 E431.3324
G1 X181.481 Y96.984 E431.38673
G1 X181.693 Y97.022 E431.40564
G1 X182.29 Y97.158 E431.45941
G1 X182.4 Y97.188 E431.46942
G1 X182.4 Y203.149 E440.77351
G1 X182.945 Y203.15 E440.82137
G1 X183.346 Y203.139 E440.85659
G1 X184 Y203.081 E440.91424
G1 X184 Y97.796 E450.15898
G1 X184.575 Y98.103 E450.21621
G1 X184.744 Y98.204 E450.2335
G1 X185.235 Y98.527 E450.2851
G1 X185.442 Y98.676 E450.3075
G1 X185.6 Y98.802 E450.32524
G1 X185.6 Y202.753 E459.45284
G1 X185.725 Y202.717 E459.46427
G1 X185.921 Y202.652 E459.4824
G1 X186.497 Y202.433 E459.53651
G1 X186.695 Y202.346 E459.5555
G1 X187.2 Y202.102 E459.60474
G1 X187.2 Y100.396 E468.53522
G1 X187.541 Y100.862 E468.58592
G1 X187.671 Y101.057 E468.6065
G1 X187.99 Y101.588 E468.66089
G1 X188.072 Y101.739 E468.67598
G1 X188.34 Y102.291 E468.72986
G1 X188.439 Y102.518 E468.7516
G1 X188.646 Y103.061 E468.80263
G1 X188.719 Y103.283 E468.82315
G1 X188.8 Y103.571 E468.84942
G1 X188.8 Y201.043 E477.40812
G1 X189.262 Y200.637 E477.46212
G1 X189.396 Y200.509 E477.4784
G1 X189.832 Y200.05 E477.53398
G1 X189.962 Y199.899 E477.55148
G1 X190.336 Y199.427 E477.60436
G1 X190.48 Y199.227 E477.626
G0 F7200 X190.481 Y199.227
G1 F1200 X190.801 Y198.738 E477.67731
G1 X190.897 Y198.577 E477.69377
G0 F7200 X190.896 Y198.577
G1 F1200 X191.207 Y197.995 E477.75171
G1 X191.284 Y197.837 E477.76715
G1 X191.537 Y197.242 E477.82392
G1 X191.589 Y197.099 E477.83728
G1 X191.795 Y196.463 E477.89598
G1 X191.845 Y196.279 E477.91272
G1 X191.978 Y195.691 E477.96566
G1 X192 Y195.57 E477.97646
G1 X192 Y186.849 E478.74222
G1 X191.932 Y186.485 E478.77473
G1 X191.874 Y186.234 E478.79735
G1 X191.719 Y185.683 E478.84761
G1 X191.646 Y185.461 E478.86813
G1 X191.439 Y184.918 E478.91916
G1 X191.34 Y184.691 E478.9409
G1 X191.072 Y184.139 E478.99478
G1 X190.99 Y183.988 E479.00987
G1 X190.671 Y183.457 E479.06426
G1 X190.551 Y183.277 E479.08326
G1 X190.4 Y183.071 E479.10569
G1 X190.4 Y199.339 E480.53413
;;retract;;
G1 F6000 E472.53413
G0 F600 X190.4 Y199.339 Z0.54
G0 F7200 X190.265 Y200.16
;TIME_ELAPSED:280.240571

;LAYER:-3
;TYPE:SUPPORT
G1 F6000 E480.53413
G1 F1800 X190.661 Y199.661 E480.59769
G1 X190.805 Y199.461 E480.62228
G1 X190.872 Y199.358 E480.63454
G1 X107.449 Y115.935 E492.40643
G1 X107.449 Y114.52 E492.54762
G1 X191.404 Y198.475 E504.39458
G1 X191.56 Y198.184 E504.42752
G1 X191.65 Y197.998 E504.44814
G1 X191.856 Y197.513 E504.50072
G1 X107.449 Y113.106 E516.41146
G1 X107.449 Y111.692 E516.55254
G1 X192.212 Y196.454 E528.51345
G1 X192.231 Y196.384 E528.52069
G1 X192.372 Y195.762 E528.58432
G1 X192.41 Y195.552 E528.60562
G1 X192.448 Y195.276 E528.63342
G1 X107.449 Y110.278 E540.62762
G1 X107.449 Y108.864 E540.76871
G1 X192.548 Y193.962 E552.77703
G1 X192.548 Y192.548 E552.91812
G1 X107.449 Y107.449 E564.92651
G1 X107.45 Y106.126 E565.05852
G1 X107.453 Y106.039 E565.0672
G1 X192.548 Y191.134 E577.07503
G1 X192.549 Y189.72 E577.21612
G1 X107.55 Y104.722 E589.21032
G1 X107.59 Y104.448 E589.23795
G1 X107.628 Y104.236 E589.25944
G1 X107.769 Y103.616 E589.32289
G1 X107.787 Y103.544 E589.33029
G1 X192.545 Y188.303 E601.29063
G1 X192.539 Y188.041 E601.31678
G1 X192.465 Y187.207 E601.40033
G1 X192.439 Y187.02 E601.41917
G1 X192.383 Y186.727 E601.44893
G1 X108.142 Y102.485 E613.33632
G1 X108.35 Y102.002 E613.38879
G1 X108.44 Y101.816 E613.40941
G1 X108.594 Y101.523 E613.44243
G1 X191.787 Y184.716 E625.18187
G1 X191.707 Y184.531 E625.20198
G1 X191.424 Y183.948 E625.26664
G1 X191.342 Y183.797 E625.28378
G1 X191.004 Y183.235 E625.34922
G1 X190.874 Y183.04 E625.37261
G1 X190.39 Y182.38 E625.45427
G1 X190.03 Y181.807 E625.52179
G1 X189.803 Y181.318 E625.57559
G1 X109.127 Y100.642 E636.95984
G1 X109.202 Y100.531 E636.97321
G1 X109.351 Y100.324 E636.99866
G1 X109.735 Y99.84 E637.06031
G0 F7200 X109.735 Y99.836
G1 F1800 X189.39 Y179.491 E648.30049
G1 X189.374 Y179.184 E648.33116
G1 X189.422 Y178.515 E648.39808
G1 X189.469 Y178.156 E648.43421
G1 X110.423 Y99.11 E659.58846
G1 X110.474 Y99.062 E659.59544
G1 X110.951 Y98.643 E659.65879
G1 X111.14 Y98.491 E659.68299
G1 X111.185 Y98.457 E659.68862
G1 X189.549 Y176.821 E670.74663
G1 X189.549 Y175.407 E670.88772
G1 X112.024 Y97.882 E681.82733
G1 X112.397 Y97.658 E681.87075
G1 X112.548 Y97.576 E681.88789
G1 X112.942 Y97.386 E681.93154
G1 X189.549 Y173.992 E692.74154
G1 X189.549 Y172.578 E692.88263
G1 X113.943 Y96.972 E703.55146
G0 F7200 X113.945 Y96.971
G1 F1800 X114.154 Y96.902 E703.57342
G1 X114.744 Y96.736 E703.63457
G1 X114.995 Y96.678 E703.66028
G1 X115.051 Y96.667 E703.66597
G1 X189.549 Y171.164 E714.17837
G1 X189.549 Y169.75 E714.31946
G1 X116.29 Y96.491 E724.6571
G1 X116.641 Y96.461 E724.69225
G1 X117.044 Y96.45 E724.73248
G1 X117.663 Y96.45 E724.79424
G1 X189.549 Y168.335 E734.93806
G1 X189.549 Y166.921 E735.07915
G1 X119.078 Y96.45 E745.02337
G1 X120.492 Y96.45 E745.16446
G1 X189.549 Y165.507 E754.90915
G1 X189.549 Y164.093 E755.05024
G1 X121.906 Y96.45 E764.5954
G1 X123.32 Y96.45 E764.73649
G1 X189.549 Y162.679 E774.08211
G1 X189.549 Y161.264 E774.2233
G1 X124.735 Y96.45 E783.36926
G1 X126.149 Y96.45 E783.51035
G1 X189.549 Y159.85 E792.45677
G1 X189.549 Y158.436 E792.59786
G1 X127.563 Y96.45 E801.34476
G1 X128.977 Y96.45 E801.48585
G1 X189.549 Y157.022 E810.03321
G1 X189.549 Y155.608 E810.1743
G1 X130.392 Y96.451 E818.52199
G1 X131.806 Y96.451 E818.66308
G1 X189.549 Y154.193 E826.81117
G1 X189.549 Y152.779 E826.95226
G1 X133.221 Y96.451 E834.90075
G1 X134.635 Y96.451 E835.04184
G1 X189.549 Y151.365 E842.7908
G1 X189.549 Y149.951 E842.93189
G1 X136.049 Y96.451 E850.48131
G1 X137.463 Y96.451 E850.6224
G1 X189.549 Y148.536 E857.97223
G1 X189.549 Y147.122 E858.11332
G1 X138.877 Y96.451 E865.26362
G1 X140.292 Y96.451 E865.40481
G1 X189.549 Y145.708 E872.3555
G1 X189.549 Y144.294 E872.49659
G1 X141.706 Y96.451 E879.24775
G1 X143.121 Y96.452 E879.38894
G1 X189.549 Y142.88 E885.94044
G1 X189.549 Y141.465 E886.08163
G1 X144.535 Y96.452 E892.43352
G1 X145.949 Y96.452 E892.57461
G1 X189.549 Y140.051 E898.72697
G1 X189.549 Y138.637 E898.86806
G1 X147.363 Y96.452 E904.82089
G1 X148.778 Y96.452 E904.96207
G1 X189.549 Y137.223 E910.7153
G1 X189.549 Y135.809 E910.85639
G1 X150.192 Y96.452 E916.41009
G1 X151.606 Y96.452 E916.55118
G1 X189.549 Y134.394 E921.90528
G1 X189.549 Y132.98 E922.04637
G1 X153.02 Y96.452 E927.20093
G1 X154.434 Y96.452 E927.34202
G1 X189.549 Y131.566 E932.29706
G1 X189.549 Y130.152 E932.43815
G1 X155.849 Y96.452 E937.19358
G1 X157.264 Y96.452 E937.33477
G1 X189.549 Y128.737 E941.89053
G1 X189.549 Y127.323 E942.03162
G1 X158.678 Y96.452 E946.38785
G1 X160.092 Y96.452 E946.52894
G1 X189.549 Y125.909 E950.68564
G1 X189.549 Y124.495 E950.82673
G1 X161.506 Y96.452 E954.7839
G1 X162.92 Y96.452 E954.92499
G1 X189.549 Y123.081 E958.68263
G1 X189.549 Y121.666 E958.82382
G1 X164.335 Y96.452 E962.38179
G1 X165.749 Y96.452 E962.52288
G1 X189.549 Y120.252 E965.88132
G1 X189.549 Y118.838 E966.02241
G1 X167.163 Y96.452 E969.18131
G1 X168.578 Y96.453 E969.3225
G1 X189.549 Y117.424 E972.28174
G1 X189.549 Y116.01 E972.42282
G1 X169.992 Y96.453 E975.18253
G1 X171.406 Y96.453 E975.32362
G1 X189.549 Y114.595 E977.88372
G1 X189.549 Y113.181 E978.02481
G1 X172.821 Y96.453 E980.38531
G1 X174.235 Y96.453 E980.5264
G1 X189.549 Y111.767 E982.68737
G1 X189.549 Y110.353 E982.82846
G1 X175.649 Y96.453 E984.7899
G1 X177.063 Y96.453 E984.93099
G1 X189.549 Y108.938 E986.69283
G1 X189.549 Y107.524 E986.83392
G1 X178.477 Y96.453 E988.39623
G1 X179.892 Y96.453 E988.53742
G1 X189.549 Y106.11 E989.90012
G1 X189.55 Y106.05 E989.90611
G1 X189.539 Y105.641 E989.94694
G1 X189.465 Y104.807 E990.03048
G1 X189.439 Y104.62 E990.04932
G1 X189.322 Y103.995 E990.11277
G1 X189.264 Y103.744 E990.13847
G1 X189.099 Y103.158 E990.19922
G1 X189.026 Y102.936 E990.22253
G1 X188.916 Y102.649 E990.2532
G1 X183.342 Y97.075 E991.03975
G1 X183.222 Y97.03 E991.05254
G1 X182.593 Y96.826 E991.11852
G1 X182.387 Y96.77 E991.13982
G1 X181.764 Y96.628 E991.20358
G1 X181.552 Y96.59 E991.22507
G1 X181.425 Y96.573 E991.23786
G1 X189.431 Y104.578 E992.36752
;;retract;;
G1 F6000 E984.36752
G0 F7200 X190.263 Y200.162
G1 F6000 E992.36752
G1 F1800 X107.449 Y117.349 E1004.0534
G1 X107.449 Y118.763 E1004.19449
G1 X189.575 Y200.889 E1015.78335
G1 X189.526 Y200.938 E1015.79027
G1 X189.049 Y201.357 E1015.85362
G1 X188.861 Y201.508 E1015.87768
