;FLAVOR:Marlin
;TIME:8539
;Filament used:5.22514m
;Layer height: 0.2
;MINX:108.749
;MINY:96.25
;MINZ:0.24
;MAXX:191.25
;MAXY:203.75
;MAXZ:2.46
                               
;Creality Print GCode Generated by CXEngineDEV
;Generated Time:2022-06-30 15:03:19
;----------Machine Config--------------
;Machine Name:Creality CR-10S
;Machine Height:400
;Machine Width:300
;Machine Depth:300
;Material name:cxsw
;Number of Extruders:1
;ExtruderParams[0] Nozzle Diameter1000
;----------Profile Config---------------
;Layer Height:0.2
;Wall Thickness:0.8
;Top/Bottom Thickness:1
;Out Wall Line Width:0.4
;Inner Wall Line Width:0.4
;Inital Layer Height:200
;Wall Line Count:2
;Infill Line Distance:2
;Infill Pattern:grid
;Infill Sparse Density:20
;Infill Wipe Distance:0
;Print Temperature:200
;Bed Temperature:60
;Support Enable:false
;Support Density:30
;Support Angle:1.0472
;Adhesion Type:simpleraft
;machine is belt:false
;machine belt offset:10
;machine belt offset Y:0
;Raft Base Line Spacing:1.6
;Wait Heatup Sync:true
;----------Shell Config----------------
;Outer Wall Wipe Distance:200
;Infill Before Walls:false
;Infill Overlap:0.16
;Fill Gaps Between Walls:everywhere
;Minimum Infill Area:1
;Top Surface Skin Layer:0
;Top Layers:3
;Z Seam Alignment:sharpest_corner
;Seam Corner Preference:z_seam_corner_inner
;Z Seam X:150
;Z Seam Y:150
;Horizontal Expansion:0
;Top/Bottom Pattern:zigzag
;Ironing Pattern:zigzag
;Vase Model:false
;----------Support Config----------------
;Support Type:everywhere
;Support Pattern:zigzag
;Support Infill Layer Thickness:0.2
;Minimum Support Area:10
;Enable Support Roof:false
;Support Roof Thickness:0.8
;Support Roof Pattern:lines
;Connect Support Lines:0
;Connect Support ZigZags:1
;Minimum Support X/Y Distance:0.2
;Support Line Distance:1.33
; ---------PrintSpeed & Travel----------
;Enable Print Cool:true
;Avoid Printed Parts Traveling:true
;Enable Retraction:true
;Retraction Distance:8
;Retraction Speed:100
;Retraction Prime Speed:100
;Maximum Retraction Count:100
;Minimum Extrusion Distance Window:1
;Z Hop When Retracted:false
;Z Hop Height:0.2
;Retract Before Outer Wall:true
;Print Speed:50
;Infill Speed:50

;Prime Tower Speed:50
;Travel Speed:120
;Initial Layer Speed:25
;Skirt/Brim Speed:25
;Combing Mode:off
; --------SpecialModel&Mesh Fixes--------
;Union Overlapping Volum:true
;Remove All Holes:false
;Maximum Travel Resolution:0.6
;Maximum Deviation:0.05
;Maximum Model Angle:0.872665
;IS Mold Print:false
;Make Overhang Printable:false
;Enable Coasting:false
;Coasting Volumes:0.06
;Coasting Speed:0.9
;Raft AirGap:0.25
;Layer0 ZOverLap:0.13
;---------------------End of Head--------------------------
M140 S60
M105
M104 S200
M105
M109 S200
M105
M190 S60
M82 ;absolute extrusion mode
M220 S100 ;Reset Feedrate
M221 S100 ;Reset Flowrate

G28 ;Home

G92 E0 ;Reset Extruder
G1 Z2.0 F3000 ;Move Z Axis up
G1 X10.1 Y20 Z0.28 F5000.0 ;Move to start position
G1 X10.1 Y145.0 Z0.28 F1500.0 E15 ;Draw the first line
G1 X10.4 Y145.0 Z0.28 F5000.0 ;Move to side a little
G1 X10.4 Y20 Z0.28 F1500.0 E30 ;Draw the second line
G92 E0  ;Reset Extruder
G1 E-1.0000 F1800 ;Retract a bit
G1 Z2.0 F3000 ;Move Z Axis up
G1 E0.0000 F1800 

G92 E0
G92 E0
G1 F6000 E-8

;LAYER_COUNT:7

;LAYER:-4
M107
G0 F7200 X110.4 Y101.804 Z0.24
;TYPE:SUPPORT-INTERFACE
G1 F6000 E0
G1 F1200 X110.4 Y198.204 E8.46457
G1 X110.146 Y197.68 E8.5157
G1 X110.065 Y197.493 E8.5336
G1 X109.842 Y196.905 E8.58882
G1 X109.785 Y196.729 E8.60506
G1 X109.626 Y196.164 E8.6566
G1 X109.568 Y195.915 E8.67905
G1 X109.454 Y195.306 E8.73345
G1 X109.429 Y195.122 E8.74975
G1 X109.361 Y194.347 E8.81807
G1 X109.35 Y193.95 E8.85294
G1 X109.35 Y106.143 E16.56299
G1 X109.384 Y105.317 E16.63558
G1 X109.399 Y105.138 E16.65135
G1 X109.484 Y104.519 E16.70621
G1 X109.522 Y104.307 E16.72512
G1 X109.655 Y103.721 E16.77789
G1 X109.705 Y103.537 E16.79463
G1 X109.911 Y102.901 E16.85333
G1 X109.963 Y102.758 E16.86669
G1 X110.218 Y102.159 E16.92386
G1 X110.293 Y102.005 E16.9389
G1 X110.595 Y101.439 E16.99523
G1 X110.704 Y101.256 E17.01393
G1 X111.027 Y100.765 E17.06554
G1 X111.176 Y100.558 E17.08793
G1 X111.538 Y100.101 E17.13912
G1 X111.671 Y99.947 E17.15699
G1 X112 Y99.6 E17.19898
G1 X112 Y200.403 E26.05016
G1 X112.448 Y200.83 E26.1045
G1 X112.577 Y200.942 E26.1195
G1 X113.058 Y201.324 E26.17344
G1 X113.265 Y201.473 E26.19583
G1 X113.6 Y201.693 E26.23102
G1 X113.6 Y98.303 E35.30937
G1 X114.088 Y98.01 E35.35935
G1 X114.239 Y97.928 E35.37443
G1 X114.804 Y97.654 E35.42957
G1 X115.006 Y97.566 E35.44892
G1 X115.2 Y97.492 E35.46715
G1 X115.2 Y202.512 E44.68861
G1 X115.246 Y202.532 E44.69302
G1 X115.417 Y202.595 E44.70902
G1 X116.012 Y202.788 E44.76395
G1 X116.21 Y202.842 E44.78197
G1 X116.8 Y202.976 E44.83509
G1 X116.8 Y97.027 E54.13813
G1 X117.18 Y96.956 E54.17207
G1 X117.365 Y96.931 E54.18847
G1 X118.154 Y96.861 E54.25802
G1 X118.4 Y96.854 E54.27963
G1 X118.4 Y203.141 E63.61234
G1 X118.519 Y203.147 E63.62281
G1 X120 Y203.147 E63.75285
G1 X120 Y96.851 E73.08635
G1 X121.6 Y96.851 E73.22685
G1 X121.6 Y203.147 E82.56035
G1 X123.2 Y203.147 E82.70084
G1 X123.2 Y96.851 E92.03435
G1 X124.8 Y96.851 E92.17484
G1 X124.8 Y203.147 E101.50835
G1 X126.4 Y203.147 E101.64884
G1 X126.4 Y96.851 E110.98235
G1 X128 Y96.851 E111.12284
G1 X128 Y203.148 E120.45643
G1 X129.6 Y203.148 E120.59692
G1 X129.6 Y96.851 E129.93052
G1 X131.2 Y96.851 E130.07101
G1 X131.2 Y203.148 E139.4046
G1 X132.8 Y203.148 E139.54509
G1 X132.8 Y96.851 E148.87869
G1 X134.4 Y96.851 E149.01918
G1 X134.4 Y203.148 E158.35278
G1 X136 Y203.148 E158.49327
G1 X136 Y96.851 E167.82686
G1 X137.6 Y96.851 E167.96735
G1 X137.6 Y203.149 E177.30103
G1 X139.2 Y203.149 E177.44153
G1 X139.2 Y96.851 E186.77521
G1 X140.8 Y96.852 E186.9157
G1 X140.8 Y203.149 E196.24929
G1 X142.4 Y203.149 E196.38979
G1 X142.4 Y96.852 E205.72338
G1 X144 Y96.852 E205.86387
G1 X144 Y203.149 E215.19747
G1 X144.995 Y203.15 E215.28483
G1 X145.396 Y203.139 E215.32006
G1 X145.6 Y203.121 E215.33804
G1 X145.6 Y96.852 E224.66918
G1 X147.2 Y96.852 E224.80967
G1 X147.2 Y202.878 E234.11947
G1 X147.216 Y202.874 E234.12091
G1 X147.775 Y202.717 E234.1719
G1 X147.971 Y202.652 E234.19003
G1 X148.547 Y202.433 E234.24414
G1 X148.745 Y202.346 E234.26313
G1 X148.8 Y202.32 E234.26847
G1 X148.8 Y96.852 E243.52927
G1 X150.4 Y96.852 E243.66976
G1 X150.4 Y201.387 E252.84864
G1 X150.675 Y201.185 E252.8786
G1 X150.835 Y201.056 E252.89665
G1 X151.312 Y200.637 E252.9524
G1 X151.446 Y200.509 E252.96867
G1 X151.884 Y200.048 E253.02451
G1 X152 Y199.915 E253.04
G1 X152 Y96.852 E262.08963
G1 X153.6 Y96.852 E262.23012
G1 X153.6 Y198.572 E271.16183
G1 X154.142 Y198.291 E271.21543
G1 X154.829 Y198.04 E271.27966
G1 X155.2 Y197.955 E271.31308
G1 X155.2 Y96.852 E280.1906
G1 X156.8 Y96.852 E280.33109
G1 X156.8 Y197.818 E289.19659
G1 X157.009 Y197.825 E289.21495
G1 X157.733 Y197.939 E289.27931
G1 X158.4 Y198.131 E289.34025
G1 X158.4 Y96.852 E298.23323
G1 X160 Y96.852 E298.37372
G1 X160 Y199.006 E307.34354
G1 X160.322 Y199.257 E307.37939
G1 X160.82 Y199.759 E307.44147
G1 X161.25 Y200.248 E307.49865
G1 X161.39 Y200.394 E307.51641
G1 X161.6 Y200.593 E307.54182
G1 X161.6 Y96.853 E316.65089
G1 X163.2 Y96.853 E316.79138
G1 X163.2 Y201.822 E326.00837
G1 X163.325 Y201.897 E326.02117
G1 X163.901 Y202.205 E326.07852
G1 X164.053 Y202.279 E326.09337
G1 X164.646 Y202.532 E326.14998
G1 X164.8 Y202.588 E326.16436
G1 X164.8 Y96.853 E335.44861
G1 X166.4 Y96.853 E335.5891
G1 X166.4 Y203.012 E344.91058
G1 X166.419 Y203.016 E344.91229
G1 X167.032 Y203.1 E344.96661
G1 X167.211 Y203.115 E344.98239
G1 X167.919 Y203.147 E345.04462
G1 X168 Y203.147 E345.05173
G1 X168 Y96.853 E354.38506
G1 X169.6 Y96.853 E354.52555
G1 X169.6 Y203.147 E363.85888
G1 X171.2 Y203.147 E363.99937
G1 X171.2 Y96.853 E373.33271
G1 X172.8 Y96.853 E373.4732
G1 X172.8 Y203.148 E382.80662
G1 X174.4 Y203.148 E382.94711
G1 X174.4 Y96.853 E392.28053
G1 X176 Y96.853 E392.42102
G1 X176 Y203.148 E401.75444
G1 X177.6 Y203.149 E401.89493
G1 X177.6 Y96.853 E411.22843
G1 X179.2 Y96.853 E411.36893
G1 X179.2 Y203.149 E420.70243
G1 X180.8 Y203.149 E420.84292
G1 X180.8 Y96.853 E430.17643
G1 X181.481 Y96.853 E430.23623
G1 X182.189 Y96.885 E430.29846
G1 X182.368 Y96.9 E430.31423
G1 X182.4 Y96.905 E430.31707
G1 X182.4 Y203.09 E439.64083
G1 X182.635 Y203.069 E439.66155
G1 X182.82 Y203.044 E439.67794
G1 X183.415 Y202.932 E439.73111
G1 X183.666 Y202.874 E439.75373
G1 X184 Y202.781 E439.78417
G1 X184 Y97.216 E449.05349
G1 X184.583 Y97.405 E449.1073
G1 X184.754 Y97.468 E449.12331
G1 X185.359 Y97.726 E449.18106
G1 X185.488 Y97.789 E449.19366
G1 X185.6 Y97.849 E449.20482
G1 X185.6 Y202.15 E458.36315
G1 X185.761 Y202.072 E458.37886
G1 X185.912 Y201.99 E458.39395
G1 X186.455 Y201.663 E458.44961
G1 X186.638 Y201.541 E458.46892
G1 X187.125 Y201.185 E458.52189
G1 X187.2 Y201.125 E458.53032
G1 X187.2 Y98.881 E467.50803
G1 X187.423 Y99.058 E467.53303
G1 X187.551 Y99.169 E467.54791
G1 X188.011 Y99.606 E467.60362
G1 X188.137 Y99.738 E467.61965
G1 X188.545 Y100.202 E467.6739
G1 X188.697 Y100.391 E467.6952
G1 X188.8 Y100.533 E467.7106
G1 X188.8 Y199.473 E476.3982
G1 X188.836 Y199.427 E476.40333
G1 X188.98 Y199.227 E476.42497
G0 F7200 X188.981 Y199.227
G1 F1200 X189.301 Y198.738 E476.47628
G1 X189.397 Y198.577 E476.49274
G0 F7200 X189.396 Y198.577
G1 F1200 X189.707 Y197.995 E476.55068
G1 X189.784 Y197.837 E476.56612
G1 X190.037 Y197.242 E476.62289
G1 X190.089 Y197.099 E476.63625
G1 X190.295 Y196.463 E476.69495
G1 X190.345 Y196.279 E476.71169
G1 X190.4 Y196.036 E476.73357
G1 X190.4 Y186.347 E477.58433
G1 X190.374 Y186.234 E477.59451
G1 X190.209 Y185.65 E477.6478
G1 X190.161 Y185.505 E477.66121
G1 X189.876 Y184.758 E477.73141
G1 X189.657 Y184.036 E477.79766
G1 X189.535 Y183.311 E477.86222
G1 X189.506 Y182.577 E477.92672
G1 X189.572 Y181.847 E477.99108
G1 X189.726 Y181.13 E478.05547
G1 X189.961 Y180.468 E478.11715
G1 X190.097 Y180.125 E478.14955
G1 X190.295 Y179.513 E478.20603
G1 X190.345 Y179.329 E478.22277
G1 X190.478 Y178.741 E478.27571
G1 X190.516 Y178.531 E478.29445
G1 X190.601 Y177.912 E478.34931
G1 X190.616 Y177.733 E478.36508
G1 X190.65 Y176.907 E478.43767
G1 X190.65 Y106.05 E484.65939
G1 X190.639 Y105.652 E484.69436
G1 X190.569 Y104.862 E484.76399
G1 X190.546 Y104.694 E484.77888
G1 X190.432 Y104.085 E484.83329
G1 X190.4 Y103.947 E484.84573
G1 X190.4 Y179.086 E491.44344
;;retract;;
G1 F6000 E483.44344
G0 F600 X190.4 Y179.086 Z0.54
G0 F7200 X190.731 Y196.384
;TIME_ELAPSED:286.709403

;LAYER:-3
;TYPE:SUPPORT
G1 F6000 E491.44344
G1 F1800 X190.872 Y195.762 E491.50708
G1 X190.91 Y195.552 E491.52837
G1 X190.957 Y195.2 E491.5638
G1 X108.948 Y113.191 E503.13616
G1 X108.948 Y111.777 E503.27725
G1 X191.047 Y193.875 E514.86223
G1 X191.048 Y192.462 E515.00322
G1 X108.948 Y110.363 E526.58835
G1 X108.948 Y108.948 E526.72954
G1 X191.048 Y191.048 E538.31474
G1 X191.049 Y189.635 E538.45573
G1 X108.948 Y107.534 E550.04106
G1 X108.95 Y106.126 E550.18156
G1 X108.948 Y106.12 E550.18219
G1 X191.043 Y188.214 E561.76661
G1 X191.039 Y188.041 E561.78387
G1 X190.965 Y187.207 E561.86742
G1 X190.939 Y187.02 E561.88626
G1 X190.864 Y186.621 E561.92677
G1 X109.041 Y104.798 E573.47287
G1 X109.09 Y104.448 E573.50814
G1 X109.128 Y104.236 E573.52963
G1 X109.269 Y103.616 E573.59307
G0 F7200 X109.269 Y103.612
G1 F1800 X190.24 Y184.583 E585.01896
G1 X190.047 Y183.944 E585.08556
G1 X189.934 Y183.27 E585.15375
G1 X189.917 Y182.846 E585.19609
G1 X109.617 Y102.546 E596.52729
G1 X109.85 Y102.002 E596.58634
G1 X109.94 Y101.816 E596.60696
G1 X110.065 Y101.58 E596.6336
G1 X190.042 Y181.557 E607.91922
G1 X190.112 Y181.24 E607.95161
G1 X190.336 Y180.609 E608.01843
G1 X190.384 Y180.485 E608.03169
G1 X110.593 Y100.694 E619.29107
G1 X110.702 Y100.531 E619.31063
G1 X110.851 Y100.324 E619.33608
G1 X111.198 Y99.884 E619.39199
G1 X190.734 Y179.42 E630.61538
G1 X190.872 Y178.812 E630.67759
G1 X190.91 Y178.602 E630.69889
G1 X190.96 Y178.232 E630.73614
G1 X111.879 Y99.151 E641.89532
G1 X111.974 Y99.062 E641.90831
G1 X112.451 Y98.643 E641.97166
G1 X112.636 Y98.494 E641.99536
G1 X191.049 Y176.907 E653.06029
G1 X191.049 Y175.493 E653.20138
G1 X113.47 Y97.914 E664.14861
G1 X113.897 Y97.658 E664.19829
G1 X114.048 Y97.576 E664.21543
G1 X114.383 Y97.413 E664.25261
G1 X191.049 Y174.079 E675.07101
G1 X191.049 Y172.664 E675.2122
G1 X115.38 Y96.995 E685.88991
G1 X115.445 Y96.971 E685.89682
G1 X115.654 Y96.902 E685.91878
G1 X116.244 Y96.736 E685.97994
G1 X116.48 Y96.682 E686.0041
G1 X191.049 Y171.25 E696.52652
G1 X191.049 Y169.836 E696.66761
G1 X117.712 Y96.498 E707.01632
G1 X118.141 Y96.461 E707.05928
G1 X118.544 Y96.45 E707.09951
G1 X119.078 Y96.45 E707.15279
G1 X191.049 Y168.422 E717.30875
G1 X191.049 Y167.008 E717.44984
G1 X120.492 Y96.45 E727.40627
G1 X121.906 Y96.45 E727.54735
G1 X191.049 Y165.593 E737.30418
G1 X191.049 Y164.179 E737.44527
G1 X123.32 Y96.45 E747.00256
G1 X124.735 Y96.45 E747.14375
G1 X191.049 Y162.765 E756.50144
G1 X191.049 Y161.351 E756.64253
G1 X126.149 Y96.45 E765.80069
G1 X127.563 Y96.45 E765.94178
G1 X191.049 Y159.936 E774.90034
G1 X191.049 Y158.522 E775.04143
G1 X128.977 Y96.45 E783.80046
G1 X130.391 Y96.45 E783.94155
G1 X191.049 Y157.108 E792.50105
G1 X191.049 Y155.694 E792.64214
G1 X131.806 Y96.45 E801.00204
G1 X133.22 Y96.45 E801.14313
G1 X191.049 Y154.28 E809.3035
G1 X191.049 Y152.865 E809.44469
G1 X134.635 Y96.451 E817.40531
G1 X136.049 Y96.451 E817.5464
G1 X191.049 Y151.451 E825.30749
G1 X191.049 Y150.037 E825.44858
G1 X137.463 Y96.451 E833.01015
G1 X138.877 Y96.451 E833.15124
G1 X191.049 Y148.623 E840.51327
G1 X191.049 Y147.209 E840.65436
G1 X140.292 Y96.451 E847.81679
G1 X141.706 Y96.451 E847.95788
G1 X191.049 Y145.794 E854.92071
G1 X191.049 Y144.38 E855.0618
G1 X143.12 Y96.451 E861.8251
G1 X144.534 Y96.451 E861.96619
G1 X191.049 Y142.966 E868.52996
G1 X191.049 Y141.552 E868.67105
G1 X145.948 Y96.451 E875.03529
G1 X147.363 Y96.451 E875.17647
G1 X191.049 Y140.137 E881.34104
G1 X191.049 Y138.723 E881.48213
G1 X148.777 Y96.451 E887.44717
G1 X150.192 Y96.452 E887.58836
G1 X191.049 Y137.309 E893.35372
G1 X191.049 Y135.895 E893.49481
G1 X151.606 Y96.452 E899.06064
G1 X153.02 Y96.452 E899.20173
G1 X191.049 Y134.481 E904.56803
G1 X191.049 Y133.066 E904.70922
G1 X154.434 Y96.452 E909.87593
G1 X155.849 Y96.452 E910.01711
G1 X191.049 Y131.652 E914.98421
G1 X191.049 Y130.238 E915.1253
G1 X157.263 Y96.452 E919.89287
G1 X158.677 Y96.452 E920.03396
G1 X191.049 Y128.824 E924.602
G1 X191.049 Y127.41 E924.74309
G1 X160.091 Y96.452 E929.1116
G1 X161.506 Y96.452 E929.25279
G1 X191.049 Y125.995 E933.42163
G1 X191.049 Y124.581 E933.56272
G1 X162.92 Y96.452 E937.53202
G1 X164.334 Y96.452 E937.67311
G1 X191.049 Y123.167 E941.44289
G1 X191.049 Y121.753 E941.58397
G1 X165.748 Y96.452 E945.15422
G1 X167.163 Y96.452 E945.29541
G1 X191.049 Y120.338 E948.66598
G1 X191.049 Y118.924 E948.80707
G1 X168.577 Y96.452 E951.97811
G1 X169.992 Y96.452 E952.1193
G1 X191.049 Y117.51 E955.09074
G1 X191.049 Y116.096 E955.23183
G1 X171.406 Y96.452 E958.00374
G1 X172.82 Y96.452 E958.14483
G1 X191.049 Y114.682 E960.71721
G1 X191.049 Y113.267 E960.8584
G1 X174.234 Y96.452 E963.23118
G1 X175.648 Y96.452 E963.37227
G1 X191.049 Y111.853 E965.54552
G1 X191.049 Y110.439 E965.6866
G1 X177.063 Y96.452 E967.66025
G1 X178.477 Y96.452 E967.80134
G1 X191.049 Y109.025 E969.57546
G1 X191.049 Y107.611 E969.71655
G1 X179.891 Y96.452 E971.29113
G1 X181.305 Y96.452 E971.43222
G1 X191.049 Y106.196 E972.8072
G1 X191.05 Y106.05 E972.82177
G1 X191.039 Y105.641 E972.8626
G1 X190.965 Y104.807 E972.94614
G1 X190.939 Y104.62 E972.96498
G1 X190.822 Y103.995 E973.02843
G1 X190.764 Y103.744 E973.05413
G1 X190.599 Y103.158 E973.11488
G1 X190.526 Y102.936 E973.13819
G1 X190.469 Y102.787 E973.15411
G1 X184.706 Y97.025 E973.96726
G1 X184.093 Y96.826 E974.03157
G1 X183.887 Y96.77 E974.05287
G1 X183.264 Y96.628 E974.11663
G1 X183.052 Y96.59 E974.13812
G1 X182.826 Y96.559 E974.16088
G1 X190.946 Y104.679 E975.3067
;;retract;;
G1 F6000 E967.3067
G0 F7200 X190.73 Y196.386
G1 F6000 E975.3067
G1 F1800 X108.948 Y114.605 E986.84695
G1 X108.948 Y116.019 E986.98804
G1 X190.382 Y197.453 E998.47926
