;FLAVOR:Marlin
;TIME:28664
;Filament used:26.2341m
;Layer height: 0.2
;MINX:80.669
;MINY:41.14
;MINZ:0.24
;MAXX:219.33
;MAXY:258.86
;MAXZ:21.06
                              
;Creality Print GCode Generated by CXEngineDEV
;Generated Time:2022-06-30 15:03:19
;----------Machine Config--------------
;Machine Name:Creality CR-10S
;Machine Height:400
;Machine Width:300
;Machine Depth:300
;Material name:Castable
;Number of Extruders:1
;ExtruderParams[0] Nozzle Diameter1000
;----------Profile Config---------------
;Layer Height:0.2
;Wall Thickness:0.8
;Top/Bottom Thickness:1
;Out Wall Line Width:0.4
;Inner Wall Line Width:0.4
;Inital Layer Height:200
;Wall Line Count:2
;Infill Line Distance:4
;Infill Pattern:grid
;Infill Sparse Density:20
;Infill Wipe Distance:0
;Print Temperature:210
;Bed Temperature:60
;Support Enable:false
;Support Density:30
;Support Angle:1.0472
;Adhesion Type:simpleraft
;machine is belt:false
;machine belt offset:10
;machine belt offset Y:0
;Raft Base Line Spacing:1.6
;Wait Heatup Sync:true
;----------Shell Config----------------
;Outer Wall Wipe Distance:200
;Infill Before Walls:false
;Infill Overlap:0.16
;Fill Gaps Between Walls:everywhere
;Minimum Infill Area:1
;Top Surface Skin Layer:0
;Top Layers:3
;Z Seam Alignment:sharpest_corner
;Seam Corner Preference:z_seam_corner_inner
;Z Seam X:150
;Z Seam Y:150
;Horizontal Expansion:0
;Top/Bottom Pattern:zigzag
;Ironing Pattern:zigzag
;Vase Model:false
;----------Support Config----------------
;Support Type:everywhere
;Support Pattern:zigzag
;Support Infill Layer Thickness:0.2
;Minimum Support Area:10
;Enable Support Roof:false
;Support Roof Thickness:0.8
;Support Roof Pattern:lines
;Connect Support Lines:0
;Connect Support ZigZags:1
;Minimum Support X/Y Distance:0.2
;Support Line Distance:1.33
; ---------PrintSpeed & Travel----------
;Enable Print Cool:true
;Avoid Printed Parts Traveling:true
;Enable Retraction:true
;Retraction Distance:8
;Retraction Speed:100
;Retraction Prime Speed:100
;Maximum Retraction Count:100
;Minimum Extrusion Distance Window:1
;Z Hop When Retracted:false
;Z Hop Height:0.2
;Retract Before Outer Wall:true
;Print Speed:45
;Infill Speed:45

;Prime Tower Speed:45
;Travel Speed:120
;Initial Layer Speed:22.5
;Skirt/Brim Speed:22.5
;Combing Mode:off
; --------SpecialModel&Mesh Fixes--------
;Union Overlapping Volum:true
;Remove All Holes:false
;Maximum Travel Resolution:0.67
;Maximum Deviation:0.05
;Maximum Model Angle:0.872665
;IS Mold Print:false
;Make Overhang Printable:false
;Enable Coasting:false
;Coasting Volumes:0.06
;Coasting Speed:0.9
;Raft AirGap:0.25
;Layer0 ZOverLap:0.13
;---------------------End of Head--------------------------
M140 S60
M105
M104 S210
M105
M109 S210
M105
M190 S60
M82 ;absolute extrusion mode
M220 S100 ;Reset Feedrate
M221 S100 ;Reset Flowrate

G28 ;Home

G92 E0 ;Reset Extruder
G1 Z2.0 F3000 ;Move Z Axis up
G1 X10.1 Y20 Z0.28 F5000.0 ;Move to start position
G1 X10.1 Y145.0 Z0.28 F1500.0 E15 ;Draw the first line
G1 X10.4 Y145.0 Z0.28 F5000.0 ;Move to side a little
G1 X10.4 Y20 Z0.28 F1500.0 E30 ;Draw the second line
G92 E0  ;Reset Extruder
G1 E-1.0000 F1800 ;Retract a bit
G1 Z2.0 F3000 ;Move Z Axis up
G1 E0.0000 F1800 

G92 E0
G92 E0
G1 F6000 E-8

;LAYER_COUNT:100

;LAYER:-4
M107
G0 F7200 X83.2 Y45.316 Z0.24
;TYPE:SUPPORT-INTERFACE
G1 F6000 E0
G1 F1200 X83.2 Y254.686 E18.3841
G1 X82.875 Y254.241 E18.43249
G1 X82.749 Y254.053 E18.45236
G1 X82.429 Y253.521 E18.50687
G1 X82.348 Y253.371 E18.52184
G1 X82.066 Y252.789 E18.57863
G1 X81.985 Y252.603 E18.59644
G1 X81.762 Y252.015 E18.65166
G1 X81.705 Y251.839 E18.6679
G1 X81.6 Y251.465 E18.70201
G1 X81.6 Y48.519 E36.52204
G1 X81.625 Y48.427 E36.53041
G1 X81.831 Y47.791 E36.58912
G1 X81.883 Y47.648 E36.60248
G1 X82.138 Y47.049 E36.65964
G1 X82.213 Y46.895 E36.67468
G1 X82.515 Y46.329 E36.73101
G1 X82.624 Y46.146 E36.74971
G1 X82.947 Y45.655 E36.80132
G1 X83.096 Y45.448 E36.82371
G1 X83.458 Y44.991 E36.87491
G1 X83.591 Y44.837 E36.89277
G1 X84.026 Y44.379 E36.94824
G1 X84.158 Y44.253 E36.96426
G1 X84.622 Y43.845 E37.01851
G1 X84.8 Y43.701 E37.03862
G1 X84.8 Y256.292 E55.70554
G1 X84.978 Y256.434 E55.72554
G1 X85.185 Y256.583 E55.74793
G1 X85.676 Y256.906 E55.79954
G1 X85.845 Y257.007 E55.81683
G1 X86.4 Y257.303 E55.87206
G1 X86.4 Y42.701 E74.71556
G1 X86.724 Y42.544 E74.74718
G1 X86.926 Y42.456 E74.76652
G1 X87.499 Y42.238 E74.82035
G1 X87.695 Y42.173 E74.83849
G1 X88 Y42.087 E74.86631
G1 X88 Y257.916 E93.81756
G1 X88.13 Y257.952 E93.8294
G1 X88.727 Y258.088 E93.88316
G1 X88.939 Y258.126 E93.90208
G1 X89.552 Y258.21 E93.9564
G1 X89.6 Y258.214 E93.96063
G1 X89.6 Y41.793 E112.96386
G1 X90.074 Y41.751 E113.00564
G1 X90.475 Y41.74 E113.04087
G1 X91.2 Y41.741 E113.10453
G1 X91.2 Y258.257 E132.1161
G1 X92.8 Y258.257 E132.25659
G1 X92.8 Y41.741 E151.26815
G1 X94.4 Y41.741 E151.40864
G1 X94.4 Y258.257 E170.42021
G1 X96 Y258.257 E170.5607
G1 X96 Y41.741 E189.57227
G1 X97.6 Y41.741 E189.71276
G1 X97.6 Y258.257 E208.72433
G1 X99.2 Y258.257 E208.86482
G1 X99.2 Y41.741 E227.87639
G1 X100.8 Y41.741 E228.01688
G1 X100.8 Y258.257 E247.02845
G1 X102.4 Y258.258 E247.16894
G1 X102.4 Y41.742 E266.18051
G1 X104 Y41.742 E266.321
G1 X104 Y258.258 E285.33257
G1 X105.6 Y258.258 E285.47306
G1 X105.6 Y41.742 E304.48463
G1 X107.2 Y41.742 E304.62512
G1 X107.2 Y258.258 E323.63668
G1 X108.8 Y258.258 E323.77718
G1 X108.8 Y41.742 E342.78874
G1 X110.4 Y41.742 E342.92923
G1 X110.4 Y258.258 E361.9408
G1 X112 Y258.258 E362.08129
G1 X112 Y41.742 E381.09286
G1 X113.6 Y41.742 E381.23335
G1 X113.6 Y258.258 E400.24492
G1 X115.2 Y258.259 E400.38541
G1 X115.2 Y41.743 E419.39698
G1 X116.8 Y41.743 E419.53747
G1 X116.8 Y258.259 E438.54904
G1 X118.4 Y258.259 E438.68953
G1 X118.4 Y41.743 E457.7011
G1 X120 Y41.743 E457.84159
G1 X120 Y258.259 E476.85316
G1 X121.6 Y258.259 E476.99365
G1 X121.6 Y41.743 E496.00521
G1 X123.2 Y41.743 E496.14571
G1 X123.2 Y258.259 E515.15727
G1 X124.8 Y258.259 E515.29776
G1 X124.8 Y41.743 E534.30933
G1 X126.061 Y41.743 E534.42006
G1 X126.4 Y41.759 E534.44986
G1 X126.4 Y258.25 E553.45923
G1 X126.426 Y258.249 E553.46151
G1 X127.215 Y258.179 E553.53107
G1 X127.4 Y258.154 E553.54746
G1 X127.995 Y258.042 E553.60062
G1 X128 Y258.041 E553.60107
G1 X128 Y41.964 E572.57409
G1 X128.37 Y42.048 E572.6074
G1 X128.568 Y42.102 E572.62542
G1 X129.163 Y42.295 E572.68035
G1 X129.334 Y42.358 E572.69635
G1 X129.6 Y42.472 E572.72176
G1 X129.6 Y257.533 E591.60557
G1 X129.775 Y257.456 E591.62236
G1 X130.341 Y257.182 E591.67758
G1 X130.492 Y257.1 E591.69266
G1 X131.035 Y256.773 E591.74832
G1 X131.2 Y256.663 E591.76573
G1 X131.2 Y43.342 E610.49676
G1 X131.315 Y43.417 E610.50881
G1 X131.522 Y43.566 E610.53121
G1 X132.003 Y43.948 E610.58514
G1 X132.131 Y44.059 E610.60002
G1 X132.591 Y44.496 E610.65573
G1 X132.717 Y44.628 E610.67175
G1 X132.8 Y44.723 E610.68283
G1 X132.8 Y255.278 E629.17098
G1 X132.912 Y255.16 E629.18527
G1 X133.042 Y255.009 E629.20276
G1 X133.416 Y254.537 E629.25564
G1 X133.56 Y254.337 E629.27728
G0 F7200 X133.561 Y254.337
G1 F1200 X133.881 Y253.848 E629.3286
G1 X133.985 Y253.673 E629.34647
G1 X134.206 Y253.26 E629.3876
G1 X134.4 Y252.926 E629.42152
G1 X134.4 Y47.087 E647.49557
G1 X134.585 Y47.427 E647.52956
G1 X134.638 Y47.4 E647.53478
G1 X134.944 Y47.8 E647.579
G1 X135.459 Y48.322 E647.64339
G1 X136 Y48.748 E647.70385
G1 X136 Y251.256 E665.48543
G1 X136.5 Y250.935 E665.5376
G1 X137.163 Y250.622 E665.60198
G1 X137.6 Y250.479 E665.64235
G1 X137.6 Y49.521 E683.28782
G1 X138.043 Y49.65 E683.32833
G1 X138.761 Y49.763 E683.39215
G1 X139.2 Y49.786 E683.43075
G1 X139.2 Y250.216 E701.02986
G1 X139.286 Y250.21 E701.03743
G1 X140.8 Y250.21 E701.17037
G1 X140.8 Y49.79 E718.7686
G1 X142.4 Y49.79 E718.90909
G1 X142.4 Y250.21 E736.50732
G1 X144 Y250.21 E736.64782
G1 X144 Y49.79 E754.24605
G1 X145.6 Y49.79 E754.38654
G1 X145.6 Y250.21 E771.98477
G1 X147.2 Y250.21 E772.12526
G1 X147.2 Y49.79 E789.72349
G1 X148.8 Y49.79 E789.86398
G1 X148.8 Y250.21 E807.46221
G1 X150.4 Y250.21 E807.6027
G1 X150.4 Y49.79 E825.20093
G1 X152 Y49.79 E825.34142
G1 X152 Y250.21 E842.93965
G1 X153.6 Y250.21 E843.08014
G1 X153.6 Y49.79 E860.67837
G1 X155.2 Y49.79 E860.81886
G1 X155.2 Y250.21 E878.4171
G1 X156.8 Y250.21 E878.55759
G1 X156.8 Y49.79 E896.15582
G1 X158.4 Y49.79 E896.29631
G1 X158.4 Y250.21 E913.89454
G1 X160 Y250.21 E914.03503
G1 X160 Y49.79 E931.63326
G1 X160.714 Y49.79 E931.69595
G1 X161.42 Y49.746 E931.75807
G1 X161.6 Y49.711 E931.77417
G1 X161.6 Y250.293 E949.38662
G1 X161.957 Y250.35 E949.41837
G1 X162.661 Y250.556 E949.48277
G1 X163.2 Y250.791 E949.5344
G1 X163.2 Y49.206 E967.23493
G1 X163.5 Y49.065 E967.26404
G1 X164.118 Y48.669 E967.32849
G1 X164.681 Y48.199 E967.39288
G1 X164.8 Y48.07 E967.40829
G1 X164.8 Y251.94 E985.30946
G1 X165.056 Y252.2 E985.3415
G1 X165.362 Y252.6 E985.38572
G1 X165.415 Y252.573 E985.39094
G1 X165.93 Y253.521 E985.48567
G1 X166.249 Y254.053 E985.54014
G1 X166.375 Y254.241 E985.56001
G1 X166.4 Y254.275 E985.56372
G1 X166.4 Y45.726 E1003.87573
G1 X166.447 Y45.655 E1003.8832
G1 X166.596 Y45.448 E1003.9056
G1 X166.958 Y44.991 E1003.95679
G1 X167.091 Y44.837 E1003.97466
G1 X167.526 Y44.379 E1004.03012
G1 X167.658 Y44.253 E1004.04614
G1 X168 Y43.952 E1004.08615
G1 X168 Y256.054 E1022.71014
G1 X168.478 Y256.434 E1022.76376
G1 X168.685 Y256.583 E1022.78615
G1 X169.176 Y256.906 E1022.83776
G1 X169.345 Y257.007 E1022.85504
G1 X169.6 Y257.143 E1022.88042
G1 X169.6 Y42.85 E1041.69679
G1 X169.659 Y42.818 E1041.70269
G1 X170.224 Y42.544 E1041.75782
G1 X170.426 Y42.456 E1041.77717
G1 X170.999 Y42.238 E1041.831
G1 X171.195 Y42.173 E1041.84913
G1 X171.2 Y42.171 E1041.84961
G1 X171.2 Y257.822 E1060.78522
G1 X171.432 Y257.898 E1060.80666
G1 X171.63 Y257.952 E1060.82468
G1 X172.227 Y258.088 E1060.87844
G1 X172.439 Y258.126 E1060.89736
G1 X172.8 Y258.175 E1060.92934
G1 X172.8 Y41.819 E1079.92686
G1 X173.574 Y41.751 E1079.99509
G1 X173.975 Y41.74 E1080.03031
G1 X174.4 Y41.741 E1080.06763
G1 X174.4 Y258.257 E1099.0792
G1 X176 Y258.257 E1099.21969
G1 X176 Y41.741 E1118.23126
G1 X177.6 Y41.741 E1118.37175
G1 X177.6 Y258.257 E1137.38332
G1 X179.2 Y258.257 E1137.52381
G1 X179.2 Y41.741 E1156.53537
G1 X180.8 Y41.741 E1156.67587
G1 X180.8 Y258.257 E1175.68743
G1 X182.4 Y258.257 E1175.82792
G1 X182.4 Y41.741 E1194.83949
G1 X184 Y41.741 E1194.97998
G1 X184 Y258.257 E1213.99155
G1 X185.6 Y258.257 E1214.13204
G1 X185.6 Y41.741 E1233.14361
G1 X187.2 Y41.742 E1233.2841
G1 X187.2 Y258.258 E1252.29567
G1 X188.8 Y258.258 E1252.43616
G1 X188.8 Y41.742 E1271.44773
G1 X190.4 Y41.742 E1271.58822
G1 X190.4 Y258.258 E1290.59979
G1 X192 Y258.258 E1290.74028
G1 X192 Y41.742 E1309.75185
G1 X193.6 Y41.742 E1309.89234
G1 X193.6 Y258.258 E1328.9039
G1 X195.2 Y258.258 E1329.0444
G1 X195.2 Y41.742 E1348.05596
G1 X196.8 Y41.742 E1348.19645
G1 X196.8 Y258.258 E1367.20802
G1 X198.4 Y258.259 E1367.34851
G1 X198.4 Y41.743 E1386.36008
G1 X200 Y41.743 E1386.50057
G1 X200 Y258.259 E1405.51214
G1 X201.6 Y258.259 E1405.65263
G1 X201.6 Y41.743 E1424.6642
G1 X203.2 Y41.743 E1424.80469
G1 X203.2 Y258.259 E1443.81626
G1 X204.8 Y258.259 E1443.95675
G1 X204.8 Y41.743 E1462.96832
G1 X206.4 Y41.743 E1463.10881
G1 X206.4 Y258.259 E1482.12038
G1 X208 Y258.259 E1482.26087
G1 X208 Y41.743 E1501.27243
G1 X209.561 Y41.743 E1501.4095
G1 X209.6 Y41.745 E1501.41293
G1 X209.6 Y258.258 E1520.42423
G1 X209.926 Y258.249 E1520.45287
G1 X210.715 Y258.179 E1520.52242
G1 X210.9 Y258.154 E1520.53881
G1 X211.2 Y258.098 E1520.56561
G1 X211.2 Y41.899 E1539.54934
G1 X211.273 Y41.912 E1539.55586
G1 X211.87 Y42.048 E1539.60962
G1 X212.068 Y42.102 E1539.62764
G1 X212.663 Y42.295 E1539.68256
G1 X212.8 Y42.346 E1539.6954
G1 X212.8 Y257.649 E1558.60046
G1 X213.077 Y257.543 E1558.6265
G1 X213.275 Y257.456 E1558.64549
G1 X213.841 Y257.182 E1558.70071
G1 X213.992 Y257.1 E1558.7158
G1 X214.4 Y256.855 E1558.75758
G1 X214.4 Y43.144 E1577.52285
G1 X214.815 Y43.417 E1577.56647
G1 X215.022 Y43.566 E1577.58887
G1 X215.503 Y43.948 E1577.6428
G1 X215.631 Y44.059 E1577.65768
G1 X216 Y44.41 E1577.70239
G1 X216 Y255.594 E1596.24578
G1 X216.412 Y255.16 E1596.29832
G1 X216.542 Y255.009 E1596.31582
G1 X216.916 Y254.537 E1596.3687
G1 X217.06 Y254.337 E1596.39034
G0 F7200 X217.061 Y254.337
G1 F1200 X217.381 Y253.848 E1596.44165
G1 X217.477 Y253.687 E1596.45811
G0 F7200 X217.476 Y253.687
G1 F1200 X217.787 Y253.105 E1596.51605
G1 X217.864 Y252.947 E1596.53148
G1 X218.117 Y252.352 E1596.58826
G1 X218.169 Y252.209 E1596.60162
G1 X218.375 Y251.573 E1596.66032
G1 X218.425 Y251.389 E1596.67706
G1 X218.558 Y250.801 E1596.73
G1 X218.596 Y250.591 E1596.74873
G1 X218.681 Y249.972 E1596.8036
G1 X218.696 Y249.793 E1596.81937
G1 X218.73 Y248.959 E1596.89266
G1 X218.73 Y50.94 E1614.28007
G1 X218.719 Y50.542 E1614.31503
G1 X218.649 Y49.752 E1614.38467
G1 X218.626 Y49.584 E1614.39956
G1 X218.512 Y48.975 E1614.45396
G1 X218.454 Y48.724 E1614.47658
G1 X218.299 Y48.173 E1614.52684
G1 X218.226 Y47.951 E1614.54736
G1 X218.019 Y47.408 E1614.59838
G1 X217.92 Y47.181 E1614.62013
G1 X217.652 Y46.629 E1614.67401
G1 X217.6 Y46.534 E1614.68352
G1 X217.6 Y253.455 E1632.85258
;;retract;;
G1 F6000 E1624.85258
G0 F600 X217.6 Y253.455 Z0.54
G0 F7200 X81.026 Y250.732
;TIME_ELAPSED:939.172987

;LAYER:-3
;TYPE:SUPPORT
G1 F6000 E1632.85258
G1 F1800 X88.802 Y258.507 E1633.94979
G1 X88.656 Y258.482 E1633.96457
G1 X88.033 Y258.34 E1634.02833
G1 X87.827 Y258.284 E1634.04963
G1 X87.198 Y258.08 E1634.11561
G1 X87.015 Y258.012 E1634.13509
G1 X86.8 Y257.92 E1634.15842
G1 X81.603 Y252.723 E1634.89177
G1 X81.388 Y252.157 E1634.95219
G1 X81.321 Y251.952 E1634.97371
G1 X81.156 Y251.365 E1635.03455
G1 X81.098 Y251.115 E1635.06016
G1 X80.981 Y250.49 E1635.1236
G1 X80.953 Y250.286 E1635.14415
G1 X80.881 Y249.47 E1635.22588
G1 X80.872 Y249.163 E1635.25653
G1 X90.361 Y258.653 E1636.5956
G1 X90.421 Y258.657 E1636.6016
G1 X91.778 Y258.656 E1636.737
G1 X80.868 Y247.746 E1638.27652
G1 X80.868 Y246.331 E1638.41771
G1 X93.193 Y258.656 E1640.1569
G1 X94.607 Y258.656 E1640.29799
G1 X80.868 Y244.917 E1642.23671
G1 X80.868 Y243.503 E1642.3778
G1 X96.021 Y258.656 E1644.51605
G1 X97.435 Y258.656 E1644.65714
G1 X80.868 Y242.089 E1646.99493
G1 X80.868 Y240.675 E1647.13602
G1 X98.85 Y258.656 E1649.6734
G1 X100.264 Y258.656 E1649.81449
G1 X80.868 Y239.26 E1652.55147
G1 X80.868 Y237.846 E1652.69256
G1 X101.679 Y258.656 E1655.62915
G1 X103.093 Y258.656 E1655.77024
G1 X80.868 Y236.432 E1658.90636
G1 X80.868 Y235.018 E1659.04745
G1 X104.507 Y258.656 E1662.38309
G1 X105.922 Y258.657 E1662.52428
G1 X80.868 Y233.604 E1666.0596
G1 X80.868 Y232.189 E1666.20079
G1 X107.336 Y258.657 E1669.93571
G1 X108.75 Y258.657 E1670.0768
G1 X80.868 Y230.775 E1674.01125
G1 X80.868 Y229.361 E1674.15234
G1 X110.165 Y258.657 E1678.2864
G1 X111.579 Y258.657 E1678.42749
G1 X80.868 Y227.947 E1682.76107
G1 X80.868 Y226.532 E1682.90226
G1 X112.994 Y258.658 E1687.43558
G1 X114.408 Y258.658 E1687.57667
G1 X80.868 Y225.118 E1692.30953
G1 X80.868 Y223.704 E1692.45062
G1 X115.822 Y258.658 E1697.38301
G1 X117.236 Y258.658 E1697.5241
G1 X80.868 Y222.29 E1702.65601
G1 X80.868 Y220.876 E1702.7971
G1 X118.651 Y258.658 E1708.12862
G1 X120.066 Y258.658 E1708.26981
G1 X80.868 Y219.461 E1713.801
G1 X80.868 Y218.047 E1713.94209
G1 X121.48 Y258.658 E1719.67281
G1 X122.894 Y258.658 E1719.8139
G1 X80.868 Y216.633 E1725.74415
G1 X80.868 Y215.219 E1725.88524
G1 X124.308 Y258.658 E1732.01503
G1 X125.722 Y258.658 E1732.15612
G1 X80.868 Y213.805 E1738.48543
G1 X80.868 Y212.39 E1738.62662
G1 X127.069 Y258.591 E1745.14608
G1 X127.265 Y258.576 E1745.16569
G1 X127.467 Y258.548 E1745.18604
G1 X128.085 Y258.432 E1745.24878
G1 X128.278 Y258.386 E1745.26858
G1 X80.868 Y210.976 E1751.95864
G1 X80.868 Y209.562 E1752.09973
G1 X129.359 Y258.052 E1758.94226
G1 X129.725 Y257.915 E1758.98126
G1 X129.943 Y257.819 E1759.00503
G1 X130.344 Y257.623 E1759.04956
G1 X80.868 Y208.148 E1766.03109
G1 X80.868 Y206.733 E1766.17228
G1 X131.246 Y257.111 E1773.28116
G1 X131.251 Y257.11 E1773.28167
G1 X131.44 Y256.984 E1773.30433
G1 X131.941 Y256.618 E1773.36624
G1 X132.065 Y256.516 E1773.38226
G1 X80.868 Y205.319 E1780.60671
