;FLAVOR:Marlin
;TIME:40295
;Filament used:29.2481m
;Layer height: 0.2
;MINX:64.001
;MINY:82.049
;MINZ:0.24
;MAXX:236
;MAXY:217.95
;MAXZ:14.86
                                
;Creality Print GCode Generated by CXEngineDEV
;Generated Time:2022-06-30 15:03:19
;----------Machine Config--------------
;Machine Name:Creality CR-10S
;Machine Height:400
;Machine Width:300
;Machine Depth:300
;Material name:Castable
;Number of Extruders:1
;ExtruderParams[0] Nozzle Diameter1000
;----------Profile Config---------------
;Layer Height:0.2
;Wall Thickness:0.8
;Top/Bottom Thickness:1
;Out Wall Line Width:0.4
;Inner Wall Line Width:0.4
;Inital Layer Height:200
;Wall Line Count:2
;Infill Line Distance:4
;Infill Pattern:grid
;Infill Sparse Density:20
;Infill Wipe Distance:0
;Print Temperature:210
;Bed Temperature:60
;Support Enable:true
;Support Density:30
;Support Angle:1.0472
;Adhesion Type:simpleraft
;machine is belt:false
;machine belt offset:10
;machine belt offset Y:0
;Raft Base Line Spacing:1.6
;Wait Heatup Sync:true
;----------Shell Config----------------
;Outer Wall Wipe Distance:200
;Infill Before Walls:false
;Infill Overlap:0.16
;Fill Gaps Between Walls:everywhere
;Minimum Infill Area:1
;Top Surface Skin Layer:0
;Top Layers:3
;Z Seam Alignment:sharpest_corner
;Seam Corner Preference:z_seam_corner_inner
;Z Seam X:150
;Z Seam Y:150
;Horizontal Expansion:0
;Top/Bottom Pattern:zigzag
;Ironing Pattern:zigzag
;Vase Model:false
;----------Support Config----------------
;Support Type:everywhere
;Support Pattern:zigzag
;Support Infill Layer Thickness:0.2
;Minimum Support Area:10
;Enable Support Roof:false
;Support Roof Thickness:0.8
;Support Roof Pattern:lines
;Connect Support Lines:0
;Connect Support ZigZags:1
;Minimum Support X/Y Distance:0.2
;Support Line Distance:1.33
; ---------PrintSpeed & Travel----------
;Enable Print Cool:true
;Avoid Printed Parts Traveling:true
;Enable Retraction:true
;Retraction Distance:8
;Retraction Speed:100
;Retraction Prime Speed:100
;Maximum Retraction Count:100
;Minimum Extrusion Distance Window:1
;Z Hop When Retracted:false
;Z Hop Height:0.2
;Retract Before Outer Wall:true
;Print Speed:45
;Infill Speed:45

;Prime Tower Speed:45
;Travel Speed:120
;Initial Layer Speed:22.5
;Skirt/Brim Speed:22.5
;Combing Mode:off
; --------SpecialModel&Mesh Fixes--------
;Union Overlapping Volum:true
;Remove All Holes:false
;Maximum Travel Resolution:0.67
;Maximum Deviation:0.05
;Maximum Model Angle:0.872665
;IS Mold Print:false
;Make Overhang Printable:false
;Enable Coasting:false
;Coasting Volumes:0.06
;Coasting Speed:0.9
;Raft AirGap:0.25
;Layer0 ZOverLap:0.13
;---------------------End of Head--------------------------
M140 S60
M105
M104 S210
M105
M109 S210
M105
M190 S60
M82 ;absolute extrusion mode
M220 S100 ;Reset Feedrate
M221 S100 ;Reset Flowrate

G28 ;Home

G92 E0 ;Reset Extruder
G1 Z2.0 F3000 ;Move Z Axis up
G1 X10.1 Y20 Z0.28 F5000.0 ;Move to start position
G1 X10.1 Y145.0 Z0.28 F1500.0 E15 ;Draw the first line
G1 X10.4 Y145.0 Z0.28 F5000.0 ;Move to side a little
G1 X10.4 Y20 Z0.28 F1500.0 E30 ;Draw the second line
G92 E0  ;Reset Extruder
G1 E-1.0000 F1800 ;Retract a bit
G1 Z2.0 F3000 ;Move Z Axis up
G1 E0.0000 F1800 

G92 E0
G92 E0
G1 F6000 E-8

;LAYER_COUNT:69

;LAYER:-4
M107
G0 F7200 X67.2 Y85.569 Z0.24
;TYPE:SUPPORT-INTERFACE
G1 F6000 E0
G1 F1200 X67.2 Y108.606 E2.0228
G1 X66.816 Y108.186 E2.07277
G1 X66.668 Y108.009 E2.09303
G1 X66.309 Y107.538 E2.14503
G1 X66.182 Y107.355 E2.16459
G1 X65.845 Y106.821 E2.22004
G1 X65.766 Y106.681 E2.23415
G1 X65.6 Y106.355 E2.26628
G1 X65.6 Y87.815 E3.89421
G1 X65.845 Y87.356 E3.9399
G1 X65.954 Y87.173 E3.9586
G1 X66.277 Y86.682 E4.01021
G1 X66.426 Y86.475 E4.0326
G0 F7200 X66.425 Y86.475
G1 F1200 X66.79 Y86.015 E4.08416
G1 X66.909 Y85.877 E4.10016
G1 X67.414 Y85.343 E4.1647
G1 X67.937 Y84.866 E4.22685
G1 X68.114 Y84.718 E4.24711
G1 X68.585 Y84.359 E4.29911
G1 X68.768 Y84.232 E4.31867
G1 X68.8 Y84.211 E4.32203
G1 X68.8 Y109.956 E6.58262
G1 X69.137 Y110.178 E6.61805
G1 X69.302 Y110.277 E6.63495
G1 X69.831 Y110.561 E6.68767
G1 X70.032 Y110.657 E6.70723
G1 X70.4 Y110.813 E6.74232
G1 X70.4 Y83.359 E9.15297
G1 X70.76 Y83.214 E9.18705
G1 X70.973 Y83.139 E9.20688
G1 X71.551 Y82.965 E9.25988
G1 X71.753 Y82.913 E9.27819
G1 X72 Y82.862 E9.30034
G1 X72 Y111.724 E11.83462
G1 X72.068 Y111.773 E11.84198
G1 X72.605 Y112.271 E11.90629
G1 X73.075 Y112.834 E11.97068
G1 X73.471 Y113.452 E12.03513
G1 X73.6 Y113.725 E12.06164
G1 X73.6 Y82.662 E14.78919
G1 X73.968 Y82.65 E14.82152
G1 X75.2 Y82.65 E14.92969
G1 X75.2 Y217.35 E26.75726
G1 X74.01 Y217.35 E26.86175
G1 X73.6 Y217.332 E26.89779
G1 X73.6 Y161.012 E31.84307
G1 X73.322 Y161.53 E31.89469
G1 X72.897 Y162.127 E31.95903
G1 X72.4 Y162.665 E32.02335
G1 X72 Y163.001 E32.06922
G1 X72 Y217.138 E36.82281
G1 X71.577 Y217.042 E36.8609
G1 X71.379 Y216.988 E36.87892
G1 X70.784 Y216.795 E36.93384
G1 X70.613 Y216.732 E36.94984
G1 X70.4 Y216.641 E36.97018
G1 X70.4 Y163.912 E41.60015
G1 X70.207 Y163.989 E41.61839
G1 X70.013 Y164.078 E41.63713
G1 X69.462 Y164.359 E41.69144
G1 X69.293 Y164.455 E41.70851
G1 X68.8 Y164.765 E41.75964
G1 X68.8 Y215.783 E46.23937
G1 X68.632 Y215.673 E46.257
G1 X68.425 Y215.524 E46.2794
G1 X67.949 Y215.146 E46.33277
G1 X67.814 Y215.029 E46.34845
G1 X67.299 Y214.542 E46.41069
G1 X67.2 Y214.433 E46.42362
G1 X67.2 Y166.122 E50.66565
G1 X66.909 Y166.43 E50.70286
G1 X66.79 Y166.568 E50.71886
G1 X66.425 Y167.028 E50.77042
G0 F7200 X66.426 Y167.028
G1 F1200 X66.277 Y167.235 E50.79282
G1 X65.954 Y167.726 E50.84442
G1 X65.845 Y167.909 E50.86313
G1 X65.543 Y168.475 E50.91946
G1 X65.468 Y168.629 E50.9345
G1 X65.213 Y169.228 E50.99166
G1 X65.161 Y169.371 E51.00502
G1 X64.955 Y170.007 E51.06372
G1 X64.905 Y170.191 E51.08046
G1 X64.772 Y170.777 E51.13323
G1 X64.734 Y170.989 E51.15214
G1 X64.649 Y171.608 E51.207
G1 X64.634 Y171.787 E51.22278
G1 X64.603 Y172.489 E51.28448
G1 X64.6 Y208.003 E54.40284
G1 X64.619 Y208.576 E54.45319
G1 X64.632 Y208.753 E54.46877
G1 X64.703 Y209.373 E54.52357
G1 X64.737 Y209.585 E54.54242
G1 X64.858 Y210.173 E54.59513
G1 X64.918 Y210.41 E54.6166
G1 X65.087 Y210.969 E54.66788
G1 X65.161 Y211.182 E54.68767
G1 X65.392 Y211.756 E54.742
G1 X65.475 Y211.937 E54.75949
G1 X65.6 Y212.182 E54.78364
G1 X65.6 Y168.368 E58.6308
;;retract;;
G1 F6000 E50.6308
G0 F7200 X78.4 Y82.65
G1 F6000 E58.6308
G1 F1200 X78.4 Y217.35 E70.45837
G1 X76.8 Y217.35 E70.59887
G1 X76.8 Y82.65 E82.42644
G1 X80 Y82.65 E82.70742
G1 X80 Y217.35 E94.53499
G1 X81.6 Y217.35 E94.67548
G1 X81.6 Y82.65 E106.50305
G1 X83.2 Y82.65 E106.64354
G1 X83.2 Y217.35 E118.47111
G1 X84.8 Y217.35 E118.6116
G1 X84.8 Y82.65 E130.43917
G1 X86.4 Y82.65 E130.57966
G1 X86.4 Y217.35 E142.40723
G1 X88 Y217.35 E142.54772
G1 X88 Y82.65 E154.37529
G1 X89.6 Y82.65 E154.51578
G1 X89.6 Y217.35 E166.34336
G1 X91.2 Y217.35 E166.48385
G1 X91.2 Y82.65 E178.31142
G1 X92.8 Y82.65 E178.45191
G1 X92.8 Y217.35 E190.27948
G1 X94.4 Y217.35 E190.41997
G1 X94.4 Y82.65 E202.24754
G1 X96 Y82.65 E202.38803
G1 X96 Y217.35 E214.2156
G1 X97.6 Y217.35 E214.35609
G1 X97.6 Y82.65 E226.18366
G1 X99.2 Y82.65 E226.32415
G1 X99.2 Y217.35 E238.15172
G1 X100.8 Y217.35 E238.29221
G1 X100.8 Y82.65 E250.11978
G1 X102.4 Y82.65 E250.26027
G1 X102.4 Y217.35 E262.08784
G1 X104 Y217.35 E262.22834
G1 X104 Y82.65 E274.05591
G1 X105.6 Y82.65 E274.1964
G1 X105.6 Y217.35 E286.02397
G1 X107.2 Y217.35 E286.16446
G1 X107.2 Y82.65 E297.99203
G1 X108.8 Y82.65 E298.13252
G1 X108.8 Y217.35 E309.96009
G1 X110.4 Y217.35 E310.10058
G1 X110.4 Y82.65 E321.92815
G1 X112 Y82.65 E322.06864
G1 X112 Y217.35 E333.89621
G1 X113.6 Y217.35 E334.0367
G1 X113.6 Y82.65 E345.86427
G1 X115.2 Y82.65 E346.00476
G1 X115.2 Y217.35 E357.83233
G1 X116.8 Y217.35 E357.97282
G1 X116.8 Y82.65 E369.8004
G1 X118.4 Y82.65 E369.94089
G1 X118.4 Y217.35 E381.76846
G1 X120 Y217.35 E381.90895
G1 X120 Y82.65 E393.73652
G1 X121.6 Y82.65 E393.87701
G1 X121.6 Y217.35 E405.70458
G1 X123.2 Y217.35 E405.84507
G1 X123.2 Y82.65 E417.67264
G1 X124.8 Y82.65 E417.81313
G1 X124.8 Y217.35 E429.6407
G1 X126.4 Y217.35 E429.78119
G1 X126.4 Y82.65 E441.60876
G1 X128 Y82.65 E441.74925
G1 X128 Y217.35 E453.57682
G1 X129.6 Y217.35 E453.71731
G1 X129.6 Y82.65 E465.54488
G1 X131.2 Y82.65 E465.68538
G1 X131.2 Y217.35 E477.51295
G1 X132.8 Y217.35 E477.65344
G1 X132.8 Y82.65 E489.48101
G1 X134.4 Y82.65 E489.6215
G1 X134.4 Y217.35 E501.44907
G1 X136 Y217.35 E501.58956
G1 X136 Y82.65 E513.41713
G1 X137.6 Y82.65 E513.55762
G1 X137.6 Y217.35 E525.38519
G1 X139.2 Y217.35 E525.52568
G1 X139.2 Y82.65 E537.35325
G1 X140.8 Y82.65 E537.49374
G1 X140.8 Y217.35 E549.32131
G1 X142.4 Y217.35 E549.4618
G1 X142.4 Y82.65 E561.28937
G1 X144 Y82.65 E561.42986
G1 X144 Y217.35 E573.25743
G1 X145.6 Y217.35 E573.39793
G1 X145.6 Y82.65 E585.2255
G1 X147.2 Y82.65 E585.36599
G1 X147.2 Y217.35 E597.19356
G1 X148.8 Y217.35 E597.33405
G1 X148.8 Y82.65 E609.16162
G1 X150.4 Y82.65 E609.30211
G1 X150.4 Y217.35 E621.12968
G1 X152 Y217.35 E621.27017
G1 X152 Y82.65 E633.09774
G1 X153.6 Y82.65 E633.23823
G1 X153.6 Y217.35 E645.0658
G1 X155.2 Y217.35 E645.20629
G1 X155.2 Y82.65 E657.03386
G1 X156.8 Y82.65 E657.17435
G1 X156.8 Y217.35 E669.00192
G1 X158.4 Y217.35 E669.14242
G1 X158.4 Y82.65 E680.96999
G1 X160 Y82.65 E681.11048
G1 X160 Y217.35 E692.93805
G1 X161.6 Y217.35 E693.07854
G1 X161.6 Y82.65 E704.90611
G1 X163.2 Y82.65 E705.0466
G1 X163.2 Y217.35 E716.87417
G1 X164.8 Y217.35 E717.01466
G1 X164.8 Y82.65 E728.84223
G1 X166.4 Y82.65 E728.98272
G1 X166.4 Y217.35 E740.81029
G1 X168 Y217.35 E740.95078
G1 X168 Y82.65 E752.77835
G1 X169.6 Y82.65 E752.91884
G1 X169.6 Y217.35 E764.74641
G1 X171.2 Y217.35 E764.8869
G1 X171.2 Y82.65 E776.71447
G1 X172.8 Y82.65 E776.85497
G1 X172.8 Y217.35 E788.68254
G1 X174.4 Y217.35 E788.82303
G1 X174.4 Y82.65 E800.6506
G1 X176 Y82.65 E800.79109
G1 X176 Y217.35 E812.61866
G1 X177.6 Y217.35 E812.75915
G1 X177.6 Y82.65 E824.58672
G1 X179.2 Y82.65 E824.72721
G1 X179.2 Y217.35 E836.55478
G1 X180.8 Y217.35 E836.69527
G1 X180.8 Y82.65 E848.52284
G1 X182.4 Y82.65 E848.66333
G1 X182.4 Y217.35 E860.4909
G1 X184 Y217.35 E860.63139
G1 X184 Y82.65 E872.45896
G1 X185.6 Y82.65 E872.59946
G1 X185.6 Y217.35 E884.42703
G1 X187.2 Y217.35 E884.56752
G1 X187.2 Y82.65 E896.39509
G1 X188.8 Y82.65 E896.53558
G1 X188.8 Y217.35 E908.36315
G1 X190.4 Y217.35 E908.50364
G1 X190.4 Y82.65 E920.33121
G1 X192 Y82.65 E920.4717
G1 X192 Y217.35 E932.29927
G1 X193.6 Y217.35 E932.43976
G1 X193.6 Y82.65 E944.26733
G1 X195.2 Y82.65 E944.40782
G1 X195.2 Y217.35 E956.23539
G1 X196.8 Y217.35 E956.37588
G1 X196.8 Y82.65 E968.20345
G1 X198.4 Y82.65 E968.34394
G1 X198.4 Y217.35 E980.17151
G1 X200 Y217.35 E980.31201
G1 X200 Y82.65 E992.13958
G1 X201.6 Y82.65 E992.28007
G1 X201.6 Y217.35 E1004.10764
G1 X203.2 Y217.35 E1004.24813
G1 X203.2 Y82.65 E1016.0757
G1 X204.8 Y82.65 E1016.21619
G1 X204.8 Y217.35 E1028.04376
G1 X206.4 Y217.35 E1028.18425
G1 X206.4 Y82.65 E1040.01182
G1 X208 Y82.65 E1040.15231
G1 X208 Y217.35 E1051.97988
G1 X209.6 Y217.35 E1052.12037
G1 X209.6 Y82.65 E1063.94794
G1 X211.2 Y82.65 E1064.08843
G1 X211.2 Y217.35 E1075.916
G1 X212.8 Y217.35 E1076.0565
G1 X212.8 Y82.65 E1087.88407
G1 X214.4 Y82.65 E1088.02456
G1 X214.4 Y217.35 E1099.85213
G1 X216 Y217.35 E1099.99262
G1 X216 Y82.65 E1111.82019
G1 X217.6 Y82.65 E1111.96068
G1 X217.6 Y217.35 E1123.78825
G1 X219.2 Y217.35 E1123.92874
G1 X219.2 Y82.65 E1135.75631
G1 X220.8 Y82.65 E1135.8968
G1 X220.8 Y217.35 E1147.72437
G1 X222.4 Y217.35 E1147.86486
G1 X222.4 Y160.323 E1152.87222
G1 X222.685 Y160.767 E1152.91854
G1 X223.155 Y161.33 E1152.98294
G1 X223.692 Y161.829 E1153.04731
G1 X224 Y162.05 E1153.0806
G1 X224 Y217.35 E1157.93631
G1 X225.6 Y217.35 E1158.0768
G1 X225.6 Y162.863 E1162.86113
G1 X225.617 Y162.869 E1162.86271
G1 X226.323 Y163.044 E1162.92658
G1 X226.838 Y163.114 E1162.97221
G1 X227.015 Y163.129 E1162.98781
G1 X227.2 Y163.155 E1163.00422
G1 X227.2 Y217.273 E1167.75614
G1 X227.423 Y217.247 E1167.77585
G1 X227.64 Y217.212 E1167.79516
G1 X228.247 Y217.087 E1167.84957
G1 X228.449 Y217.035 E1167.86789
G1 X228.8 Y216.93 E1167.90006
G1 X228.8 Y163.497 E1172.59184
G1 X229.195 Y163.625 E1172.62829
G1 X229.401 Y163.701 E1172.64757
G1 X229.963 Y163.941 E1172.70123
G1 X230.147 Y164.029 E1172.71914
G1 X230.4 Y164.165 E1172.74436
G1 X230.4 Y216.265 E1177.3191
G1 X230.548 Y216.189 E1177.3337
G1 X230.715 Y216.094 E1177.35058
G1 X231.232 Y215.768 E1177.40424
G1 X231.408 Y215.646 E1177.42305
G1 X231.904 Y215.267 E1177.47786
G1 X232 Y215.188 E1177.48877
G1 X232 Y165.241 E1181.87446
G1 X232.047 Y165.278 E1181.87971
G1 X232.195 Y165.406 E1181.89689
G1 X232.7 Y165.884 E1181.95795
G1 X233.184 Y166.414 E1182.02097
G1 X233.332 Y166.591 E1182.04123
G1 X233.6 Y166.943 E1182.08008
G1 X233.6 Y213.489 E1186.16713
G1 X233.723 Y213.318 E1186.18563
G1 X234.046 Y212.827 E1186.23723
G1 X234.151 Y212.651 E1186.25523
G1 X234.457 Y212.078 E1186.31226
G1 X234.534 Y211.92 E1186.3277
G1 X234.787 Y211.325 E1186.38447
G1 X234.839 Y211.182 E1186.39783
G1 X235.045 Y210.546 E1186.45653
G1 X235.095 Y210.362 E1186.47327
G1 X235.228 Y209.774 E1186.52621
G1 X235.266 Y209.564 E1186.54495
G1 X235.351 Y208.945 E1186.59981
G1 X235.366 Y208.766 E1186.61558
G1 X235.397 Y208.064 E1186.67728
G1 X235.4 Y172.408 E1189.80812
G1 X235.379 Y171.82 E1189.85978
G1 X235.367 Y171.665 E1189.87344
G1 X235.297 Y171.054 E1189.92744
G1 X235.264 Y170.848 E1189.94576
G1 X235.2 Y170.537 E1189.97364
G1 X235.2 Y209.898 E1193.4298
;;retract;;
G1 F6000 E1185.4298
G0 F7200 X233.575 Y107.699
G1 F6000 E1193.4298
G1 F1200 X233.21 Y108.159 E1193.48136
G1 X233.091 Y108.297 E1193.49736
G1 X232.587 Y108.83 E1193.56177
G1 X232.054 Y109.316 E1193.62511
G1 X232 Y109.361 E1193.63128
G1 X232 Y84.814 E1195.78667
G1 X231.575 Y84.476 E1195.83435
G1 X231.368 Y84.327 E1195.85675
G1 X230.877 Y84.004 E1195.90835
G1 X230.708 Y83.903 E1195.92564
G1 X230.4 Y83.739 E1195.95628
G1 X230.4 Y110.439 E1198.30072
G1 X229.987 Y110.649 E1198.3414
G1 X229.806 Y110.732 E1198.35889
G1 X229.24 Y110.96 E1198.41247
G1 X229.027 Y111.035 E1198.43229
G1 X228.8 Y111.104 E1198.45313
G1 X228.8 Y83.071 E1200.91461
G1 X228.621 Y83.012 E1200.93116
G1 X228.423 Y82.958 E1200.94918
G1 X227.826 Y82.822 E1201.00295
G1 X227.614 Y82.784 E1201.02186
G1 X227.2 Y82.728 E1201.05854
G1 X227.2 Y111.447 E1203.58026
G1 X226.672 Y111.507 E1203.62692
G1 X225.974 Y111.633 E1203.6892
G1 X225.6 Y111.751 E1203.72364
G1 X225.6 Y82.65 E1206.2789
G1 X222.4 Y82.65 E1206.55989
G1 X222.4 Y114.276 E1209.33686
G1 X222.477 Y114.136 E1209.35089
G1 X222.913 Y113.544 E1209.41545
G1 X223.417 Y113.012 E1209.4798
G1 X223.986 Y112.548 E1209.54427
G1 X224 Y112.54 E1209.54568
G1 X224 Y82.65 E1212.17023
;;retract;;
G1 F6000 E1204.17023
G0 F7200 X234.782 Y105.511
G1 F6000 E1212.17023
G1 F1200 X234.844 Y105.341 E1212.18611
G1 X235.04 Y104.738 E1212.24179
G1 X235.095 Y104.536 E1212.26017
G1 X235.2 Y104.072 E1212.30194
G1 X235.2 Y90.109 E1213.52799
G1 X235.142 Y89.827 E1213.55327
G1 X235.08 Y89.584 E1213.57529
G1 X234.913 Y89.031 E1213.62601
G1 X234.836 Y88.81 E1213.64656
G1 X234.608 Y88.244 E1213.70014
G1 X234.525 Y88.063 E1213.71763
G1 X234.242 Y87.507 E1213.77241
G1 X234.147 Y87.339 E1213.78935
G1 X233.818 Y86.818 E1213.84346
G1 X233.687 Y86.629 E1213.86365
G1 X233.6 Y86.516 E1213.87617
G1 X233.6 Y107.663 E1215.73302
G1 X233.574 Y107.699 E1215.73692
;;retract;;
G1 F6000 E1207.73692
G0 F600 X233.574 Y107.699 Z0.54
G0 F7200 X234.798 Y87.72
;TIME_ELAPSED:705.340811

;LAYER:-3
;TYPE:SUPPORT
G1 F6000 E1215.73692
G1 F1800 X230.32 Y83.242 E1216.36882
G1 X230.906 Y83.555 E1216.43511
G1 X231.082 Y83.66 E1216.45555
G1 X231.602 Y84.002 E1216.51766
G1 X231.809 Y84.151 E1216.54311
G1 X232.308 Y84.547 E1216.60667
G1 X232.448 Y84.668 E1216.62513
G1 X232.988 Y85.179 E1216.69931
G1 X233.491 Y85.73 E1216.77376
G1 X233.639 Y85.907 E1216.79678
G1 X234.016 Y86.401 E1216.85878
G1 X234.147 Y86.59 E1216.88173
G1 X234.485 Y87.125 E1216.94487
G1 X234.59 Y87.31 E1216.9661
G1 X234.889 Y87.896 E1217.03174
G1 X234.972 Y88.077 E1217.05161
G1 X235.214 Y88.678 E1217.11626
G1 X235.291 Y88.899 E1217.13961
G1 X235.468 Y89.485 E1217.20069
