;FLAVOR:Marlin
;TIME:34913
;Filament used:25.5745m
;Layer height: 0.2
;MINX:66.429
;MINY:92.899
;MINZ:0.24
;MAXX:233.565
;MAXY:207.1
;MAXZ:25.66
                             
;Creality Print GCode Generated by CXEngineDEV
;Generated Time:2022-06-30 15:03:19
;----------Machine Config--------------
;Machine Name:Creality CR-10S
;Machine Height:400
;Machine Width:300
;Machine Depth:300
;Material name:Castable
;Number of Extruders:1
;ExtruderParams[0] Nozzle Diameter1000
;----------Profile Config---------------
;Layer Height:0.2
;Wall Thickness:0.8
;Top/Bottom Thickness:1
;Out Wall Line Width:0.4
;Inner Wall Line Width:0.4
;Inital Layer Height:200
;Wall Line Count:2
;Infill Line Distance:4
;Infill Pattern:grid
;Infill Sparse Density:20
;Infill Wipe Distance:0
;Print Temperature:210
;Bed Temperature:60
;Support Enable:true
;Support Density:30
;Support Angle:1.0472
;Adhesion Type:simpleraft
;machine is belt:false
;machine belt offset:10
;machine belt offset Y:0
;Raft Base Line Spacing:1.6
;Wait Heatup Sync:true
;----------Shell Config----------------
;Outer Wall Wipe Distance:200
;Infill Before Walls:false
;Infill Overlap:0.16
;Fill Gaps Between Walls:everywhere
;Minimum Infill Area:1
;Top Surface Skin Layer:0
;Top Layers:3
;Z Seam Alignment:sharpest_corner
;Seam Corner Preference:z_seam_corner_inner
;Z Seam X:150
;Z Seam Y:150
;Horizontal Expansion:0
;Top/Bottom Pattern:zigzag
;Ironing Pattern:zigzag
;Vase Model:false
;----------Support Config----------------
;Support Type:everywhere
;Support Pattern:zigzag
;Support Infill Layer Thickness:0.2
;Minimum Support Area:10
;Enable Support Roof:false
;Support Roof Thickness:0.8
;Support Roof Pattern:lines
;Connect Support Lines:0
;Connect Support ZigZags:1
;Minimum Support X/Y Distance:0.2
;Support Line Distance:1.33
; ---------PrintSpeed & Travel----------
;Enable Print Cool:true
;Avoid Printed Parts Traveling:true
;Enable Retraction:true
;Retraction Distance:8
;Retraction Speed:100
;Retraction Prime Speed:100
;Maximum Retraction Count:100
;Minimum Extrusion Distance Window:1
;Z Hop When Retracted:false
;Z Hop Height:0.2
;Retract Before Outer Wall:true
;Print Speed:45
;Infill Speed:45

;Prime Tower Speed:45
;Travel Speed:120
;Initial Layer Speed:22.5
;Skirt/Brim Speed:22.5
;Combing Mode:off
; --------SpecialModel&Mesh Fixes--------
;Union Overlapping Volum:true
;Remove All Holes:false
;Maximum Travel Resolution:0.67
;Maximum Deviation:0.05
;Maximum Model Angle:0.872665
;IS Mold Print:false
;Make Overhang Printable:false
;Enable Coasting:false
;Coasting Volumes:0.06
;Coasting Speed:0.9
;Raft AirGap:0.25
;Layer0 ZOverLap:0.13
;---------------------End of Head--------------------------
M140 S60
M105
M104 S210
M105
M109 S210
M105
M190 S60
M82 ;absolute extrusion mode
M220 S100 ;Reset Feedrate
M221 S100 ;Reset Flowrate

G28 ;Home

G92 E0 ;Reset Extruder
G1 Z2.0 F3000 ;Move Z Axis up
G1 X10.1 Y20 Z0.28 F5000.0 ;Move to start position
G1 X10.1 Y145.0 Z0.28 F1500.0 E15 ;Draw the first line
G1 X10.4 Y145.0 Z0.28 F5000.0 ;Move to side a little
G1 X10.4 Y20 Z0.28 F1500.0 E30 ;Draw the second line
G92 E0  ;Reset Extruder
G1 E-1.0000 F1800 ;Retract a bit
G1 Z2.0 F3000 ;Move Z Axis up
G1 E0.0000 F1800 

G92 E0
G92 E0
G1 F6000 E-8

;LAYER_COUNT:123

;LAYER:-4
M107
G0 F7200 X67.2 Y106.26 Z0.24
;TYPE:SUPPORT-INTERFACE
G1 F6000 E0
G1 F1200 X67.2 Y193.719 E7.67949
G1 X67.166 Y193.554 E7.69428
G1 X67.133 Y193.348 E7.7126
G1 X67.063 Y192.737 E7.7666
G1 X67.049 Y192.55 E7.78307
G1 X67.03 Y191.978 E7.83332
G1 X67.03 Y108.085 E15.19969
G1 X67.064 Y107.259 E15.27228
G1 X67.079 Y107.08 E15.28806
G1 X67.164 Y106.461 E15.34292
G1 X67.202 Y106.249 E15.36183
G1 X67.335 Y105.663 E15.41459
G1 X67.385 Y105.479 E15.43134
G1 X67.591 Y104.843 E15.49004
G1 X67.643 Y104.7 E15.5034
G1 X67.898 Y104.101 E15.56056
G1 X67.973 Y103.947 E15.5756
G1 X68.275 Y103.381 E15.63193
G1 X68.384 Y103.198 E15.65064
G1 X68.707 Y102.707 E15.70224
G1 X68.8 Y102.577 E15.71628
G1 X68.8 Y197.42 E24.04413
G1 X69.098 Y197.811 E24.0873
G1 X69.246 Y197.988 E24.10756
G1 X69.729 Y198.517 E24.17046
G1 X70.244 Y199.004 E24.2327
G1 X70.384 Y199.125 E24.24894
G1 X70.4 Y199.137 E24.2507
G1 X70.4 Y100.863 E32.87982
G1 X70.544 Y100.743 E32.89628
G1 X71.015 Y100.384 E32.94828
G1 X71.198 Y100.257 E32.96784
G1 X71.715 Y99.931 E33.02151
G1 X71.882 Y99.836 E33.03838
G1 X72 Y99.775 E33.05004
G1 X72 Y200.22 E41.86979
G1 X72.298 Y200.38 E41.89949
G1 X72.454 Y200.456 E41.91473
G1 X73.043 Y200.707 E41.97095
G1 X73.214 Y200.77 E41.98695
G1 X73.6 Y200.895 E42.02257
G1 X73.6 Y99.104 E50.96051
G1 X73.981 Y98.99 E50.99543
G1 X74.183 Y98.938 E51.01375
G1 X74.79 Y98.813 E51.06816
G1 X75.007 Y98.778 E51.08746
G1 X75.2 Y98.755 E51.10453
G1 X75.2 Y201.243 E60.10367
G1 X75.429 Y201.275 E60.12397
G1 X75.608 Y201.29 E60.13975
G1 X76.316 Y201.322 E60.20198
G1 X76.8 Y201.322 E60.24448
G1 X76.8 Y98.675 E69.25758
G1 X78.4 Y98.675 E69.39807
G1 X78.4 Y201.322 E78.41117
G1 X80 Y201.322 E78.55166
G1 X80 Y98.675 E87.56476
G1 X81.6 Y98.675 E87.70525
G1 X81.6 Y201.322 E96.71835
G1 X83.2 Y201.323 E96.85884
G1 X83.2 Y98.675 E105.87203
G1 X84.8 Y98.675 E106.01252
G1 X84.8 Y201.323 E115.02571
G1 X86.4 Y201.323 E115.1662
G1 X86.4 Y98.675 E124.17939
G1 X88 Y98.675 E124.31988
G1 X88 Y201.323 E133.33306
G1 X89.6 Y201.324 E133.47356
G1 X89.6 Y98.675 E142.48683
G1 X91.2 Y98.675 E142.62732
G1 X91.2 Y201.324 E151.6406
G1 X92.8 Y201.324 E151.78109
G1 X92.8 Y98.66 E160.79568
G1 X93.268 Y98.631 E160.83685
G1 X93.989 Y98.492 E160.90133
G1 X94.4 Y98.356 E160.93934
G1 X94.4 Y201.324 E169.98063
G1 X95.82 Y201.325 E170.10531
G1 X96 Y201.332 E170.12113
G1 X96 Y97.604 E179.22915
G1 X96.259 Y97.479 E179.2544
G1 X96.461 Y97.391 E179.27375
G1 X97.037 Y97.172 E179.32786
G1 X97.23 Y97.108 E179.34571
G1 X97.6 Y97.004 E179.37946
G1 X97.6 Y201.615 E188.56501
G1 X97.712 Y201.647 E188.57524
G1 X97.791 Y201.68 E188.58276
G1 X97.819 Y201.625 E188.58818
G1 X99.2 Y202.363 E188.72567
G1 X99.2 Y96.722 E198.00166
G1 X99.609 Y96.686 E198.03771
G1 X100.01 Y96.675 E198.07294
G1 X100.8 Y96.676 E198.1423
G1 X100.8 Y202.978 E207.47634
G1 X100.94 Y203.017 E207.4891
G1 X101.537 Y203.153 E207.54286
G1 X101.749 Y203.191 E207.56177
G1 X102.362 Y203.275 E207.6161
G1 X102.4 Y203.278 E207.61945
G1 X102.4 Y96.676 E216.97983
G1 X104 Y96.676 E217.12032
G1 X104 Y203.322 E226.48456
G1 X105.6 Y203.322 E226.62505
G1 X105.6 Y96.677 E235.9892
G1 X107.2 Y96.677 E236.12969
G1 X107.2 Y203.322 E245.49384
G1 X108.8 Y203.323 E245.63433
G1 X108.8 Y96.677 E254.99857
G1 X110.4 Y96.677 E255.13906
G1 X110.4 Y203.323 E264.5033
G1 X112 Y203.323 E264.64379
G1 X112 Y96.678 E274.00795
G1 X113.6 Y96.678 E274.14844
G1 X113.6 Y203.323 E283.51259
G1 X115.2 Y203.324 E283.65308
G1 X115.2 Y96.678 E293.01732
G1 X116.236 Y96.678 E293.10829
G1 X116.8 Y96.704 E293.15786
G1 X116.8 Y203.324 E302.51982
G1 X118.4 Y203.324 E302.66031
G1 X118.4 Y96.95 E312.00067
G1 X118.545 Y96.983 E312.01372
G1 X118.743 Y97.037 E312.03174
G1 X119.338 Y97.23 E312.08667
G1 X119.509 Y97.293 E312.10267
G1 X120 Y97.503 E312.14956
G1 X120 Y203.303 E321.43952
G1 X120.665 Y203.244 E321.49814
G1 X120.85 Y203.219 E321.51453
G1 X121.445 Y203.107 E321.56769
G1 X121.6 Y203.072 E321.58164
G1 X121.6 Y98.34 E330.77782
G1 X121.666 Y98.375 E330.78438
G1 X121.694 Y98.32 E330.7898
G1 X121.773 Y98.353 E330.79732
G1 X122.48 Y98.551 E330.86179
G1 X123.198 Y98.656 E330.9255
G0 F7200 X123.2 Y98.657
G1 F1200 X123.2 Y202.532 E340.04643
G1 X123.225 Y202.521 E340.04883
G1 X123.796 Y202.245 E340.10451
G1 X124.59 Y201.815 E340.1838
G1 X124.606 Y201.831 E340.18579
G1 X124.793 Y201.739 E340.20409
G1 X124.8 Y201.737 E340.20473
G1 X124.8 Y98.675 E349.25427
G1 X126.4 Y98.675 E349.39476
G1 X126.4 Y201.358 E358.41102
G1 X126.923 Y201.325 E358.45703
G1 X128 Y201.325 E358.5516
G1 X128 Y98.675 E367.56496
G1 X129.6 Y98.675 E367.70545
G1 X129.6 Y201.325 E376.71882
G1 X131.2 Y201.325 E376.85931
G1 X131.2 Y98.675 E385.87267
G1 X132.8 Y98.675 E386.01316
G1 X132.8 Y201.325 E395.02653
G1 X134.4 Y201.325 E395.16702
G1 X134.4 Y98.675 E404.18038
G1 X136 Y98.675 E404.32087
G1 X136 Y201.325 E413.33424
G1 X137.6 Y201.325 E413.47473
G1 X137.6 Y98.675 E422.48809
G1 X138.612 Y98.675 E422.57695
G1 X139.2 Y98.638 E422.62868
G1 X139.2 Y201.364 E431.64872
G1 X139.731 Y201.436 E431.69577
G1 X140.442 Y201.625 E431.76037
G1 X140.8 Y201.771 E431.79432
G1 X140.8 Y98.232 E440.88574
G1 X141.398 Y97.95 E440.9438
G1 X142.017 Y97.554 E441.00832
G1 X142.343 Y97.278 E441.04583
G1 X142.381 Y97.305 E441.04992
G1 X142.4 Y97.284 E441.05241
G1 X142.4 Y202.751 E450.31312
G1 X142.858 Y203.193 E450.36901
G1 X143.305 Y203.683 E450.42725
G1 X143.453 Y203.831 E450.44563
G1 X143.829 Y204.179 E450.49061
G1 X143.969 Y204.3 E450.50686
G1 X144 Y204.324 E450.5103
G1 X144 Y95.674 E460.05051
G1 X144.104 Y95.588 E460.06236
G1 X144.606 Y95.205 E460.1178
G1 X144.783 Y95.082 E460.13673
G1 X145.3 Y94.756 E460.1904
G1 X145.467 Y94.661 E460.20727
G1 X145.6 Y94.593 E460.22038
G1 X145.6 Y205.403 E469.95025
G1 X145.883 Y205.555 E469.97846
G1 X146.035 Y205.629 E469.9933
G1 X146.628 Y205.882 E470.04991
G1 X146.799 Y205.945 E470.06591
G1 X147.2 Y206.075 E470.10293
G1 X147.2 Y93.925 E479.95045
G1 X147.566 Y93.815 E479.98401
G1 X147.768 Y93.763 E480.00233
G1 X148.375 Y93.638 E480.05674
G1 X148.592 Y93.603 E480.07604
G1 X148.8 Y93.579 E480.09443
G1 X148.8 Y206.42 E490.00263
G1 X149.014 Y206.45 E490.02161
G1 X149.193 Y206.465 E490.03738
G1 X150.025 Y206.5 E490.1105
G1 X150.4 Y206.5 E490.14343
G1 X150.4 Y93.5 E500.06559
G1 X152 Y93.5 E500.20608
G1 X152 Y206.5 E510.12824
G1 X153.6 Y206.5 E510.26873
G1 X153.6 Y93.5 E520.1909
G1 X155.2 Y93.5 E520.33139
G1 X155.2 Y206.5 E530.25355
G1 X156.8 Y206.5 E530.39404
G1 X156.8 Y93.5 E540.31621
G1 X158.4 Y93.5 E540.4567
G1 X158.4 Y206.5 E550.37886
G1 X160 Y206.5 E550.51935
G1 X160 Y93.5 E560.44152
G1 X161.6 Y93.5 E560.58201
G1 X161.6 Y206.5 E570.50417
G1 X163.2 Y206.5 E570.64466
G1 X163.2 Y93.5 E580.56683
G1 X164.8 Y93.5 E580.70732
G1 X164.8 Y206.5 E590.62948
G1 X166.4 Y206.5 E590.76997
G1 X166.4 Y93.5 E600.69213
G1 X168 Y93.5 E600.83263
G1 X168 Y206.5 E610.75479
G1 X169.6 Y206.5 E610.89528
G1 X169.6 Y93.5 E620.81744
G1 X171.2 Y93.5 E620.95793
G1 X171.2 Y206.5 E630.8801
G1 X172.8 Y206.5 E631.02059
G1 X172.8 Y93.5 E640.94275
G1 X174.4 Y93.5 E641.08324
G1 X174.4 Y206.5 E651.00541
G1 X176 Y206.5 E651.1459
G1 X176 Y93.5 E661.06806
G1 X177.6 Y93.5 E661.20855
G1 X177.6 Y206.5 E671.13072
G1 X179.2 Y206.5 E671.27121
G1 X179.2 Y93.5 E681.19337
G1 X180.8 Y93.5 E681.33386
G1 X180.8 Y206.5 E691.25603
G1 X182.4 Y206.5 E691.39652
G1 X182.4 Y93.5 E701.31868
G1 X184 Y93.5 E701.45917
G1 X184 Y206.5 E711.38133
G1 X185.6 Y206.5 E711.52183
G1 X185.6 Y93.5 E721.44399
G1 X187.2 Y93.5 E721.58448
G1 X187.2 Y206.5 E731.50664
G1 X188.8 Y206.5 E731.64713
G1 X188.8 Y93.5 E741.5693
G1 X190.4 Y93.5 E741.70979
G1 X190.4 Y206.5 E751.63195
G1 X192 Y206.5 E751.77244
G1 X192 Y93.5 E761.69461
G1 X193.6 Y93.5 E761.8351
G1 X193.6 Y206.5 E771.75726
G1 X195.2 Y206.5 E771.89775
G1 X195.2 Y93.5 E781.81992
G1 X196.8 Y93.5 E781.96041
G1 X196.8 Y206.5 E791.88257
G1 X198.4 Y206.5 E792.02306
G1 X198.4 Y93.5 E801.94523
G1 X200 Y93.5 E802.08572
G1 X200 Y206.5 E812.00788
G1 X201.6 Y206.5 E812.14837
G1 X201.6 Y93.5 E822.07053
G1 X203.2 Y93.5 E822.21102
G1 X203.2 Y206.5 E832.13319
G1 X204.8 Y206.5 E832.27368
G1 X204.8 Y93.5 E842.19584
G1 X206.4 Y93.5 E842.33633
G1 X206.4 Y206.5 E852.2585
G1 X208 Y206.5 E852.39899
G1 X208 Y93.5 E862.32115
G1 X209.6 Y93.5 E862.46164
G1 X209.6 Y206.5 E872.38381
G1 X211.2 Y206.5 E872.5243
G1 X211.2 Y93.5 E882.44646
G1 X212.8 Y93.5 E882.58695
G1 X212.8 Y206.5 E892.50912
G1 X214.4 Y206.5 E892.64961
G1 X214.4 Y93.5 E902.57177
G1 X216 Y93.5 E902.71226
G1 X216 Y206.5 E912.63442
G1 X217.6 Y206.5 E912.77492
G1 X217.6 Y93.5 E922.69708
G1 X219.2 Y93.5 E922.83757
G1 X219.2 Y206.5 E932.75973
G1 X220.8 Y206.5 E932.90022
G1 X220.8 Y93.5 E942.82239
G1 X222.4 Y93.5 E942.96288
G1 X222.4 Y206.5 E952.88504
G1 X223.597 Y206.5 E952.99015
G1 X224 Y206.487 E953.02555
G1 X224 Y93.519 E962.94491
G1 X224.387 Y93.535 E962.97892
G1 X224.566 Y93.55 E962.99469
G1 X225.179 Y93.634 E963.04902
G1 X225.391 Y93.672 E963.06793
G1 X225.6 Y93.72 E963.08676
G1 X225.6 Y206.281 E972.97037
G1 X225.812 Y206.237 E972.98939
G1 X226.014 Y206.185 E973.0077
G1 X226.592 Y206.011 E973.0607
G1 X226.805 Y205.936 E973.08053
G1 X227.2 Y205.777 E973.11792
G1 X227.2 Y94.225 E982.91294
G1 X227.534 Y94.366 E982.94477
G1 X227.693 Y94.443 E982.96029
G1 X228.273 Y94.753 E983.01803
G1 X228.442 Y94.854 E983.03532
G1 X228.8 Y95.09 E983.07297
G1 X228.8 Y204.916 E992.71643
G1 X228.973 Y204.796 E992.73492
G1 X229.469 Y204.417 E992.78973
G1 X229.62 Y204.291 E992.807
G1 X230.152 Y203.806 E992.87021
G1 X230.656 Y203.273 E992.93462
G1 X230.775 Y203.135 E992.95062
G1 X231.142 Y202.672 E993.0025
G1 X231.281 Y202.479 E993.02339
G1 X231.611 Y201.977 E993.07614
G1 X231.72 Y201.794 E993.09484
G1 X232 Y201.27 E993.14701
G1 X232 Y98.737 E1002.1501
G1 X231.799 Y98.343 E1002.18894
G1 X231.709 Y98.185 E1002.2049
G1 X231.383 Y97.668 E1002.25857
G1 X231.252 Y97.479 E1002.27876
G1 X230.897 Y97.014 E1002.33013
G1 X230.749 Y96.837 E1002.35039
G1 X230.4 Y96.455 E1002.39582
G1 X230.4 Y203.544 E1011.79896
;;retract;;
G1 F6000 E1003.79896
G0 F600 X230.4 Y203.544 Z0.54
G0 F7200 X231.512 Y97.162
;TIME_ELAPSED:585.482095

;LAYER:-3
;TYPE:SUPPORT
G1 F6000 E1011.79896
G1 F1800 X229.293 Y94.943 E1012.11209
G1 X229.374 Y95.001 E1012.12203
G1 X229.873 Y95.397 E1012.18559
G1 X230.013 Y95.518 E1012.20405
G1 X230.553 Y96.029 E1012.27824
G1 X231.056 Y96.58 E1012.35268
G1 X231.204 Y96.757 E1012.3757
G1 X231.581 Y97.251 E1012.4377
G1 X231.712 Y97.44 E1012.46065
G1 X232.057 Y97.987 E1012.52518
G1 X232.147 Y98.145 E1012.54332
G1 X232.454 Y98.746 E1012.61066
G1 X232.537 Y98.927 E1012.63053
G1 X232.779 Y99.528 E1012.69518
G1 X232.856 Y99.749 E1012.71853
G1 X232.928 Y99.992 E1012.74382
G1 X226.47 Y93.534 E1013.65511
G1 X226.291 Y93.476 E1013.67389
G1 X226.085 Y93.42 E1013.69519
G1 X225.462 Y93.278 E1013.75894
G1 X225.25 Y93.24 E1013.78043
G1 X224.684 Y93.162 E1013.83744
G1 X233.298 Y101.776 E1015.05297
G1 X233.331 Y102.058 E1015.0813
G1 X233.344 Y102.229 E1015.09841
G1 X233.365 Y102.847 E1015.16011
G1 X233.364 Y103.256 E1015.20092
G1 X223.207 Y93.099 E1016.63419
G1 X221.793 Y93.099 E1016.77528
G1 X233.364 Y104.67 E1018.40807
G1 X233.364 Y106.085 E1018.54926
G1 X220.379 Y93.099 E1020.38165
G1 X218.964 Y93.099 E1020.52284
G1 X233.364 Y107.499 E1022.55484
G1 X233.364 Y108.913 E1022.69593
G1 X217.55 Y93.099 E1024.92745
G1 X216.136 Y93.099 E1025.06854
G1 X233.364 Y110.327 E1027.4996
G1 X233.364 Y111.741 E1027.64069
G1 X214.722 Y93.099 E1030.27128
G1 X213.307 Y93.099 E1030.41247
G1 X233.364 Y113.156 E1033.24273
G1 X233.364 Y114.57 E1033.38382
G1 X211.893 Y93.099 E1036.41361
G1 X210.479 Y93.099 E1036.5547
G1 X233.364 Y115.984 E1039.78402
G1 X233.364 Y117.398 E1039.92511
G1 X209.065 Y93.099 E1043.35396
G1 X207.651 Y93.099 E1043.49505
G1 X233.364 Y118.813 E1047.1235
G1 X233.364 Y120.227 E1047.26459
G1 X206.236 Y93.099 E1051.09264
G1 X204.822 Y93.099 E1051.23373
G1 X233.364 Y121.641 E1055.26132
G1 X233.364 Y123.055 E1055.40241
G1 X203.408 Y93.099 E1059.62952
G1 X201.994 Y93.099 E1059.77061
G1 X233.364 Y124.469 E1064.19726
G1 X233.364 Y125.884 E1064.33845
G1 X200.58 Y93.099 E1068.96469
G1 X199.165 Y93.099 E1069.10588
G1 X233.364 Y127.298 E1073.93173
G1 X233.364 Y128.712 E1074.07282
G1 X197.751 Y93.099 E1079.0982
G1 X196.337 Y93.099 E1079.23929
G1 X233.364 Y130.126 E1084.4642
G1 X233.364 Y131.54 E1084.60529
G1 X194.923 Y93.099 E1090.02973
G1 X193.508 Y93.099 E1090.17092
G1 X233.364 Y132.955 E1095.79503
G1 X233.364 Y134.369 E1095.93612
G1 X192.094 Y93.099 E1101.75976
G1 X190.68 Y93.099 E1101.90085
G1 X233.364 Y135.783 E1107.92402
G1 X233.364 Y137.197 E1108.06511
G1 X189.266 Y93.099 E1114.28782
G1 X187.852 Y93.099 E1114.42891
G1 X233.364 Y138.612 E1120.85121
G1 X233.364 Y140.026 E1120.9923
G1 X186.437 Y93.099 E1127.61421
G1 X185.023 Y93.099 E1127.7553
G1 X233.364 Y141.44 E1134.57674
G1 X233.364 Y142.854 E1134.71783
G1 X183.609 Y93.099 E1141.73879
G1 X182.195 Y93.099 E1141.87988
